; generated by SuperSlicer 2.5.59 on 2023-01-28 at 23:56:04 UTC


;
;
;

; external perimeters extrusion width = 0.45mm
; perimeters extrusion width = 0.45mm
; infill extrusion width = 0.45mm
; solid infill extrusion width = 0.45mm
; top infill extrusion width = 0.40mm
; first layer extrusion width = 0.42mm

; object:{"name":"calib-squares-30x30-2","id":"calib-squares-30x30-2.stl id:0 copy 0","object_center":[125.000000,105.000000,0.000000],"boundingbox_center":[125.000000,105.000000,0.100000],"boundingbox_size":[230.000000,190.000000,0.200000]}
; Total objects to print: 1
M486 T1
; plater:{"center":[125.000000,105.000000,0.000000],"boundingbox_center":[125.000000,105.000000,0.100000],"boundingbox_size":[230.000000,190.000000,0.200000]}

M73 P0 R8
;
;
;TYPE:Custom
;
; start script for PrusaSlicer for CaribouDuet
;
;
T0                               ; select tool 0
;
M568 P0 S160 R160 A2             ; pre-heat extruder to 160°C
;
G90                              ; absolute positioning
G0 X125 Y-7 Z80 F4000            ; move extruder above bed, keep extruder in front for cleaning and checking
;
M140 S55                         ; this will take the layer 1 temperature for bed 0
M190 S55                         ; wait for bed temp
;
G29                              ; mesh bed leveling using defined mesh grid
G0 X0 Y-3 Z0.6 F4000             ; go outside print area
;
M568 P0 S210 A2                  ; set extruder temperature
M116 P0                          ; wait for extruder temp
;
;
M98 P"0:/sys/primeLine.g"        ; execute primeline macro
;
G92 E0.0                         ; set extruder position
M572 D0 S0.07                    ; set pressure advance
;
;
M106 S0
G21 ; set units to millimeters
G90 ; use absolute coordinates
M83 ; use relative distances for extrusion
;_TOOLCHANGE 0
;
;LAYER_CHANGE
;Z:0.2
;HEIGHT:0.2
;BEFORE_LAYER_CHANGE
G92 E0.0
;0.2


G1 E-0.4 F1500
M73 P5 R7
G1 Z0.4 F7200
;AFTER_LAYER_CHANGE
;0.2
M73 P6 R7
G1 Z0.6
G1 X46.284 Y57.855
G1 Z0.2
G1 E0.4 F1500
;TYPE:Skirt
;WIDTH:0.52
G1 F1800
G1 X8.504 Y88.079 E1.82334
G1 X7.877 Y88.793 E0.0358
G1 X7.484 Y90.2 E0.05503
M73 P7 R7
G1 X7.484 Y119.8 E1.1155
G1 X7.651 Y120.735 E0.0358
G1 X8.504 Y121.921 E0.05503
G1 X108.504 Y201.921 E4.82615
G1 X110.2 Y202.516 E0.06775
G1 X139.8 Y202.516 E1.1155
M73 P8 R7
G1 X141.496 Y201.921 E0.06775
G1 X241.496 Y121.921 E4.82615
G1 X242.123 Y121.207 E0.0358
G1 X242.516 Y119.8 E0.05503
M73 P9 R7
G1 X242.516 Y90.2 E1.1155
G1 X242.349 Y89.265 E0.0358
G1 X241.496 Y88.079 E0.05503
G1 X141.496 Y8.079 E4.82615
G1 X139.8 Y7.484 E0.06775
G1 X110.2 Y7.484 E1.1155
M73 P10 R7
G1 X108.504 Y8.079 E0.06775
G1 X46.331 Y57.818 E3.00054
G1 X46.629 Y58.19 F7200
G1 F1800
M73 P11 R7
G1 X8.802 Y88.452 E1.8256
G1 X7.961 Y90.2 E0.07309
G1 X7.961 Y119.8 E1.1155
G1 X8.802 Y121.548 E0.07309
G1 X108.802 Y201.548 E4.82615
G1 X110.2 Y202.039 E0.05585
G1 X139.8 Y202.039 E1.1155
M73 P12 R7
G1 X141.198 Y201.548 E0.05585
G1 X241.198 Y121.548 E4.82615
G1 X242.039 Y119.8 E0.07309
G1 X242.039 Y90.2 E1.1155
M73 P13 R7
G1 X241.198 Y88.452 E0.07309
G1 X141.198 Y8.452 E4.82615
G1 X139.8 Y7.961 E0.05585
M73 P14 R7
G1 X110.2 Y7.961 E1.1155
G1 X108.802 Y8.452 E0.05585
G1 X46.676 Y58.153 E2.99828
;WIPE_START
M73 P15 R7
G1 F5760
G1 X45.476 Y59.112 E-0.38
;WIPE_END
M73 P15 R6
G1 E-0.02 F1500
G1 Z0.6 F7200
; printing object calib-squares-30x30-2.stl id:0 copy 0
M486 S0
G1 X39.59 Y90.41
G1 Z0.2
G1 E0.4 F1500
;TYPE:External perimeter
;WIDTH:0.42
G1 F2400
G1 X39.591 Y103.142 E0.37925
G1 X39.601 Y103.641 E0.01485
G1 X39.659 Y104.153 E0.01536
G1 X39.838 Y104.811 E0.02033
G1 X44.991 Y104.811 E0.15348
G1 X45.989 Y104.899 E0.02984
G1 X46.498 Y104.91 E0.01519
G1 X47.006 Y104.907 E0.01512
G1 X47.519 Y104.88 E0.01529
G1 X48.014 Y104.817 E0.01489
G1 X48.501 Y104.811 E0.0145
G1 X110.162 Y104.811 E1.83666
G1 X110.341 Y104.153 E0.02033
G1 X110.399 Y103.641 E0.01536
M73 P16 R6
G1 X110.409 Y103.142 E0.01485
G1 X110.41 Y90.41 E0.37925
G1 X123.142 Y90.409 E0.37925
G1 X123.641 Y90.399 E0.01485
G1 X124.153 Y90.341 E0.01536
G1 X124.811 Y90.162 E0.02033
G1 X124.811 Y39.838 E1.49898
G1 X124.153 Y39.659 E0.02033
G1 X123.641 Y39.601 E0.01536
G1 X123.142 Y39.591 E0.01485
G1 X110.41 Y39.59 E0.37925
G1 X110.41 Y10.41 E0.86917
G1 X139.59 Y10.41 E0.86917
G1 X139.59 Y39.59 E0.86917
G1 X126.858 Y39.591 E0.37925
G1 X126.359 Y39.601 E0.01485
M73 P17 R6
G1 X125.847 Y39.659 E0.01536
G1 X125.189 Y39.838 E0.02033
G1 X125.189 Y90.162 E1.49898
G1 X125.847 Y90.341 E0.02033
G1 X126.359 Y90.399 E0.01536
G1 X126.858 Y90.409 E0.01485
G1 X139.59 Y90.41 E0.37925
G1 X139.591 Y103.142 E0.37925
G1 X139.601 Y103.641 E0.01485
G1 X139.659 Y104.153 E0.01536
G1 X139.838 Y104.811 E0.02033
G1 X210.162 Y104.811 E2.09471
G1 X210.341 Y104.153 E0.02033
G1 X210.399 Y103.641 E0.01536
G1 X210.409 Y103.142 E0.01485
G1 X210.41 Y90.41 E0.37925
G1 X239.59 Y90.41 E0.86917
G1 X239.59 Y119.59 E0.86917
M73 P18 R6
G1 X210.41 Y119.59 E0.86917
G1 X210.409 Y106.858 E0.37925
G1 X210.399 Y106.359 E0.01485
G1 X210.341 Y105.847 E0.01536
G1 X210.162 Y105.189 E0.02033
G1 X139.838 Y105.189 E2.09471
G1 X139.659 Y105.847 E0.02033
G1 X139.601 Y106.359 E0.01536
G1 X139.591 Y106.858 E0.01485
G1 X139.59 Y119.59 E0.37925
G1 X126.858 Y119.591 E0.37925
G1 X126.359 Y119.601 E0.01485
M73 P19 R6
G1 X125.847 Y119.659 E0.01536
G1 X125.189 Y119.838 E0.02033
G1 X125.189 Y170.162 E1.49898
G1 X125.847 Y170.341 E0.02033
G1 X126.359 Y170.399 E0.01536
G1 X126.858 Y170.409 E0.01485
G1 X139.59 Y170.41 E0.37925
G1 X139.59 Y199.59 E0.86917
G1 X110.41 Y199.59 E0.86917
G1 X110.41 Y170.41 E0.86917
G1 X123.142 Y170.409 E0.37925
G1 X123.641 Y170.399 E0.01485
G1 X124.153 Y170.341 E0.01536
G1 X124.811 Y170.162 E0.02033
G1 X124.811 Y119.838 E1.49898
G1 X124.153 Y119.659 E0.02033
G1 X123.641 Y119.601 E0.01536
M73 P20 R6
G1 X123.142 Y119.591 E0.01485
G1 X110.41 Y119.59 E0.37925
G1 X110.409 Y106.858 E0.37925
G1 X110.399 Y106.359 E0.01485
G1 X110.341 Y105.847 E0.01536
G1 X110.162 Y105.189 E0.02033
G1 X47.988 Y105.189 E1.85196
G1 X47.946 Y105.315 E0.00397
G1 X47.154 Y105.29 E0.02361
G1 X46.149 Y105.324 E0.02995
G1 X45.463 Y105.418 E0.02062
G1 X45.463 Y109.503 E0.12166
G1 X45.423 Y109.656 E0.00472
G1 X45.255 Y109.656 E0.005
G1 X45.22 Y109.53 E0.00391
G1 X45.22 Y105.19 E0.12927
G1 X39.838 Y105.188 E0.16031
G1 X39.659 Y105.847 E0.02033
G1 X39.601 Y106.359 E0.01536
G1 X39.591 Y106.858 E0.01485
G1 X39.59 Y119.59 E0.37925
G1 X10.41 Y119.59 E0.86917
G1 X10.41 Y90.41 E0.86917
G1 X39.53 Y90.41 E0.86739
;WIPE_START
M73 P21 R6
G1 X39.39 Y90.756 F7200
;WIPE_END
G1 X39.477 Y91.285
;TYPE:Solid infill
;WIDTH:0.420406
G1 F1800
G1 X38.877 Y90.685 E0.02531
G1 X38.344 Y90.685 E0.0159
G1 X39.315 Y91.657 E0.04096
G1 X39.315 Y92.19 E0.0159
G1 X37.81 Y90.685 E0.06344
G1 X37.277 Y90.685 E0.0159
G1 X39.315 Y92.723 E0.08593
G1 X39.315 Y93.256 E0.0159
G1 X36.744 Y90.685 E0.10842
G1 X36.21 Y90.685 E0.0159
G1 X39.315 Y93.79 E0.1309
G1 X39.315 Y94.323 E0.0159
G1 X35.677 Y90.685 E0.15339
G1 X35.144 Y90.685 E0.0159
G1 X39.315 Y94.856 E0.17588
G1 X39.315 Y95.39 E0.0159
G1 X34.611 Y90.685 E0.19836
G1 X34.077 Y90.685 E0.0159
G1 X39.315 Y95.923 E0.22085
G1 X39.315 Y96.456 E0.0159
G1 X33.544 Y90.685 E0.24334
G1 X33.011 Y90.685 E0.0159
G1 X39.315 Y96.99 E0.26582
G1 X39.315 Y97.523 E0.0159
G1 X32.478 Y90.685 E0.28831
G1 X31.944 Y90.685 E0.0159
G1 X39.315 Y98.056 E0.3108
G1 X39.315 Y98.589 E0.0159
G1 X31.411 Y90.685 E0.33328
G1 X30.878 Y90.685 E0.0159
G1 X39.315 Y99.123 E0.35577
M73 P22 R6
G1 X39.315 Y99.656 E0.0159
G1 X30.344 Y90.685 E0.37826
G1 X29.811 Y90.685 E0.0159
G1 X39.315 Y100.189 E0.40074
G1 X39.315 Y100.723 E0.0159
G1 X29.278 Y90.685 E0.42323
G1 X28.745 Y90.685 E0.0159
G1 X39.315 Y101.256 E0.44572
G1 X39.315 Y101.789 E0.0159
G1 X28.211 Y90.685 E0.4682
G1 X27.678 Y90.685 E0.0159
G1 X39.315 Y102.323 E0.49069
G1 X39.315 Y102.856 E0.0159
G1 X27.145 Y90.685 E0.51318
G1 X26.612 Y90.685 E0.0159
G1 X39.333 Y103.406 E0.53639
G1 X39.371 Y103.978 E0.01709
G1 X26.078 Y90.685 E0.56051
M73 P23 R6
G1 X25.545 Y90.685 E0.0159
G1 X39.509 Y104.649 E0.58878
G1 X39.604 Y105 E0.01085
G1 X39.545 Y105.218 E0.00674
G1 X25.012 Y90.685 E0.61279
G1 X24.479 Y90.685 E0.0159
G1 X39.431 Y105.638 E0.63047
G1 X39.386 Y105.801 E0.00506
G1 X39.366 Y106.106 E0.0091
G1 X23.945 Y90.685 E0.65021
G1 X23.412 Y90.685 E0.0159
G1 X39.332 Y106.605 E0.67127
G1 X39.315 Y106.849 E0.00727
G1 X39.315 Y107.122 E0.00815
G1 X22.879 Y90.685 E0.69306
G1 X22.345 Y90.685 E0.0159
G1 X39.315 Y107.655 E0.71554
M73 P24 R6
G1 X39.315 Y108.188 E0.0159
G1 X21.812 Y90.685 E0.73803
G1 X21.279 Y90.685 E0.0159
G1 X39.315 Y108.722 E0.76051
G1 X39.315 Y109.255 E0.0159
G1 X20.746 Y90.685 E0.783
G1 X20.212 Y90.685 E0.0159
G1 X39.315 Y109.788 E0.80548
G1 X39.315 Y110.321 E0.0159
G1 X19.679 Y90.685 E0.82797
M73 P25 R6
G1 X19.146 Y90.685 E0.0159
G1 X39.315 Y110.855 E0.85045
G1 X39.315 Y111.388 E0.0159
G1 X18.613 Y90.685 E0.87293
G1 X18.079 Y90.685 E0.0159
G1 X39.315 Y111.921 E0.89542
G1 X39.315 Y112.454 E0.0159
G1 X17.546 Y90.685 E0.9179
G1 X17.013 Y90.685 E0.0159
G1 X39.315 Y112.988 E0.94039
M73 P26 R6
G1 X39.315 Y113.521 E0.0159
G1 X16.479 Y90.685 E0.96287
G1 X15.946 Y90.685 E0.0159
G1 X39.315 Y114.054 E0.98536
G1 X39.315 Y114.587 E0.0159
G1 X15.413 Y90.685 E1.00784
G1 X14.88 Y90.685 E0.0159
G1 X39.315 Y115.121 E1.03032
G1 X39.315 Y115.654 E0.0159
G1 X14.346 Y90.685 E1.05281
M73 P27 R6
G1 X13.813 Y90.685 E0.0159
G1 X39.315 Y116.187 E1.07529
G1 X39.315 Y116.72 E0.0159
G1 X13.28 Y90.685 E1.09778
M73 P27 R5
G1 X12.747 Y90.685 E0.0159
G1 X39.315 Y117.254 E1.12026
G1 X39.315 Y117.787 E0.0159
G1 X12.213 Y90.685 E1.14275
M73 P28 R5
G1 X11.68 Y90.685 E0.0159
G1 X39.315 Y118.32 E1.16523
G1 X39.315 Y118.853 E0.0159
G1 X11.147 Y90.685 E1.18772
G1 X10.685 Y90.685 E0.01376
G1 X10.685 Y90.757 E0.00214
G1 X39.243 Y119.315 E1.20415
M73 P29 R5
G1 X38.71 Y119.315 E0.0159
G1 X10.685 Y91.29 E1.18166
G1 X10.685 Y91.824 E0.0159
G1 X38.176 Y119.315 E1.15918
G1 X37.643 Y119.315 E0.0159
G1 X10.685 Y92.357 E1.13669
G1 X10.685 Y92.89 E0.0159
G1 X37.11 Y119.315 E1.11421
M73 P30 R5
G1 X36.577 Y119.315 E0.0159
G1 X10.685 Y93.423 E1.09172
G1 X10.685 Y93.957 E0.0159
G1 X36.043 Y119.315 E1.06923
G1 X35.51 Y119.315 E0.0159
G1 X10.685 Y94.49 E1.04675
G1 X10.685 Y95.023 E0.0159
G1 X34.977 Y119.315 E1.02426
M73 P31 R5
G1 X34.444 Y119.315 E0.0159
G1 X10.685 Y95.556 E1.00178
G1 X10.685 Y96.09 E0.0159
G1 X33.91 Y119.315 E0.97929
G1 X33.377 Y119.315 E0.0159
G1 X10.685 Y96.623 E0.95681
G1 X10.685 Y97.156 E0.0159
G1 X32.844 Y119.315 E0.93432
M73 P32 R5
G1 X32.31 Y119.315 E0.0159
G1 X10.685 Y97.69 E0.91184
G1 X10.685 Y98.223 E0.0159
G1 X31.777 Y119.315 E0.88935
G1 X31.244 Y119.315 E0.0159
G1 X10.685 Y98.756 E0.86686
G1 X10.685 Y99.289 E0.0159
G1 X30.711 Y119.315 E0.84438
G1 X30.177 Y119.315 E0.0159
G1 X10.685 Y99.823 E0.82189
M73 P33 R5
G1 X10.685 Y100.356 E0.0159
G1 X29.644 Y119.315 E0.79941
G1 X29.111 Y119.315 E0.0159
G1 X10.685 Y100.889 E0.77692
G1 X10.685 Y101.422 E0.0159
G1 X28.578 Y119.315 E0.75444
G1 X28.044 Y119.315 E0.0159
G1 X10.685 Y101.956 E0.73195
G1 X10.685 Y102.489 E0.0159
G1 X27.511 Y119.315 E0.70947
G1 X26.978 Y119.315 E0.0159
G1 X10.685 Y103.022 E0.68698
M73 P34 R5
G1 X10.685 Y103.555 E0.0159
G1 X26.445 Y119.315 E0.66449
G1 X25.911 Y119.315 E0.0159
G1 X10.685 Y104.089 E0.64201
G1 X10.685 Y104.622 E0.0159
G1 X25.378 Y119.315 E0.61952
G1 X24.845 Y119.315 E0.0159
G1 X10.685 Y105.155 E0.59704
G1 X10.685 Y105.689 E0.0159
G1 X24.311 Y119.315 E0.57455
G1 X23.778 Y119.315 E0.0159
G1 X10.685 Y106.222 E0.55207
M73 P35 R5
G1 X10.685 Y106.755 E0.0159
G1 X23.245 Y119.315 E0.52958
G1 X22.712 Y119.315 E0.0159
G1 X10.685 Y107.288 E0.5071
G1 X10.685 Y107.822 E0.0159
G1 X22.178 Y119.315 E0.48461
G1 X21.645 Y119.315 E0.0159
G1 X10.685 Y108.355 E0.46213
G1 X10.685 Y108.888 E0.0159
G1 X21.112 Y119.315 E0.43964
G1 X20.579 Y119.315 E0.0159
G1 X10.685 Y109.421 E0.41715
G1 X10.685 Y109.955 E0.0159
G1 X20.045 Y119.315 E0.39467
G1 X19.512 Y119.315 E0.0159
G1 X10.685 Y110.488 E0.37218
G1 X10.685 Y111.021 E0.0159
G1 X18.979 Y119.315 E0.3497
M73 P36 R5
G1 X18.445 Y119.315 E0.0159
G1 X10.685 Y111.555 E0.32721
G1 X10.685 Y112.088 E0.0159
G1 X17.912 Y119.315 E0.30473
G1 X17.379 Y119.315 E0.0159
G1 X10.685 Y112.621 E0.28224
G1 X10.685 Y113.154 E0.0159
G1 X16.846 Y119.315 E0.25976
G1 X16.312 Y119.315 E0.0159
G1 X10.685 Y113.688 E0.23727
G1 X10.685 Y114.221 E0.0159
G1 X15.779 Y119.315 E0.21478
G1 X15.246 Y119.315 E0.0159
G1 X10.685 Y114.754 E0.1923
G1 X10.685 Y115.287 E0.0159
G1 X14.713 Y119.315 E0.16981
G1 X14.179 Y119.315 E0.0159
G1 X10.685 Y115.821 E0.14733
G1 X10.685 Y116.354 E0.0159
G1 X13.646 Y119.315 E0.12484
G1 X13.113 Y119.315 E0.0159
G1 X10.685 Y116.887 E0.10236
G1 X10.685 Y117.421 E0.0159
G1 X12.579 Y119.315 E0.07987
G1 X12.046 Y119.315 E0.0159
G1 X10.685 Y117.954 E0.05739
G1 X10.685 Y118.487 E0.0159
G1 X11.513 Y119.315 E0.0349
G1 X10.98 Y119.315 E0.0159
G1 X10.523 Y118.858 E0.01925
;WIPE_START
G1 F5760
G1 X10.98 Y119.315 E-0.15975
G1 X11.513 Y119.315 E-0.13193
G1 X11.261 Y119.062 E-0.08832
;WIPE_END
G1 E-0.02 F1500
G1 Z0.6 F7200
G1 X138.715 Y90.523
G1 Z0.2
G1 E0.4 F1500
;WIDTH:0.420403
M73 P37 R5
G1 F1800
G1 X139.315 Y91.123 E0.02531
G1 X139.315 Y91.657 E0.0159
G1 X138.343 Y90.685 E0.04096
G1 X137.81 Y90.685 E0.0159
G1 X139.315 Y92.19 E0.06345
G1 X139.315 Y92.723 E0.0159
G1 X137.277 Y90.685 E0.08593
G1 X136.744 Y90.685 E0.0159
G1 X139.315 Y93.256 E0.10842
G1 X139.315 Y93.79 E0.0159
G1 X136.21 Y90.685 E0.13091
G1 X135.677 Y90.685 E0.0159
G1 X139.315 Y94.323 E0.1534
G1 X139.315 Y94.856 E0.0159
G1 X135.144 Y90.685 E0.17588
G1 X134.61 Y90.685 E0.0159
G1 X139.315 Y95.39 E0.19837
G1 X139.315 Y95.923 E0.0159
G1 X134.077 Y90.685 E0.22086
G1 X133.544 Y90.685 E0.0159
G1 X139.315 Y96.456 E0.24335
G1 X139.315 Y96.99 E0.0159
G1 X133.01 Y90.685 E0.26583
G1 X132.477 Y90.685 E0.0159
G1 X139.315 Y97.523 E0.28832
G1 X139.315 Y98.056 E0.0159
G1 X131.944 Y90.685 E0.31081
G1 X131.411 Y90.685 E0.0159
G1 X139.315 Y98.589 E0.3333
G1 X139.315 Y99.123 E0.0159
G1 X130.877 Y90.685 E0.35579
G1 X130.344 Y90.685 E0.0159
G1 X139.315 Y99.656 E0.37827
G1 X139.315 Y100.189 E0.0159
G1 X129.811 Y90.685 E0.40076
M73 P38 R5
G1 X129.277 Y90.685 E0.0159
G1 X139.315 Y100.723 E0.42325
G1 X139.315 Y101.256 E0.0159
G1 X128.744 Y90.685 E0.44574
G1 X128.211 Y90.685 E0.0159
G1 X139.315 Y101.789 E0.46822
G1 X139.315 Y102.322 E0.0159
G1 X127.678 Y90.685 E0.49071
G1 X127.144 Y90.685 E0.0159
G1 X139.315 Y102.856 E0.5132
G1 X139.315 Y103.151 E0.00882
G1 X139.333 Y103.406 E0.00762
G1 X126.594 Y90.667 E0.53714
G1 X126.022 Y90.629 E0.01709
G1 X139.371 Y103.978 E0.56289
G1 X139.386 Y104.199 E0.00659
G1 X139.509 Y104.649 E0.0139
G1 X125.351 Y90.491 E0.59694
G1 X125 Y90.396 E0.01085
G1 X124.782 Y90.455 E0.00674
M73 P39 R5
G1 X139.545 Y105.218 E0.62248
G1 X139.431 Y105.637 E0.01296
G1 X124.363 Y90.569 E0.63535
G1 X124.199 Y90.614 E0.00506
G1 X123.894 Y90.634 E0.0091
G1 X139.366 Y106.106 E0.65235
G1 X139.332 Y106.605 E0.01493
G1 X123.395 Y90.668 E0.67199
G1 X123.151 Y90.685 E0.00727
G1 X122.878 Y90.685 E0.00815
G1 X139.315 Y107.122 E0.69308
G1 X139.315 Y107.655 E0.0159
M73 P39 R4
G1 X122.345 Y90.685 E0.71556
G1 X121.812 Y90.685 E0.0159
G1 X139.315 Y108.188 E0.73805
M73 P40 R4
G1 X139.315 Y108.722 E0.0159
G1 X121.278 Y90.685 E0.76053
G1 X120.745 Y90.685 E0.0159
G1 X139.315 Y109.255 E0.78301
G1 X139.315 Y109.788 E0.0159
G1 X120.212 Y90.685 E0.8055
G1 X119.679 Y90.685 E0.0159
G1 X139.315 Y110.321 E0.82798
G1 X139.315 Y110.855 E0.0159
G1 X119.145 Y90.685 E0.85046
G1 X118.612 Y90.685 E0.0159
G1 X139.315 Y111.388 E0.87295
M73 P41 R4
G1 X139.315 Y111.921 E0.0159
G1 X118.079 Y90.685 E0.89543
G1 X117.546 Y90.685 E0.0159
G1 X139.315 Y112.454 E0.91791
G1 X139.315 Y112.988 E0.0159
G1 X117.012 Y90.685 E0.94039
G1 X116.479 Y90.685 E0.0159
G1 X139.315 Y113.521 E0.96288
M73 P42 R4
G1 X139.315 Y114.054 E0.0159
G1 X115.946 Y90.685 E0.98536
G1 X115.413 Y90.685 E0.0159
G1 X139.315 Y114.587 E1.00784
G1 X139.315 Y115.121 E0.0159
G1 X114.879 Y90.685 E1.03033
G1 X114.346 Y90.685 E0.0159
G1 X139.315 Y115.654 E1.05281
G1 X139.315 Y116.187 E0.0159
G1 X113.813 Y90.685 E1.07529
M73 P43 R4
