; G-Code generated by Simplify3D(R) Version 4.1.2
; Nov 28, 2020 at 12:57:59 PM
; Settings Summary
;   processName,Process1
;   applyToModels,pyramid4
;   profileName,CariboDuet PLA hollow (modified)
;   profileVersion,2020-11-23 10:44:53
;   baseProfile,Default
;   printMaterial,PLA
;   printQuality,0.2
;   printExtruders,
;   extruderName,Primary Extruder
;   extruderToolheadNumber,0
;   extruderDiameter,0.4
;   extruderAutoWidth,0
;   extruderWidth,0.37
;   extrusionMultiplier,0.95
;   extruderUseRetract,1
;   extruderRetractionDistance,0.5
;   extruderExtraRestartDistance,0
;   extruderRetractionZLift,0.5
;   extruderRetractionSpeed,1200
;   extruderUseCoasting,0
;   extruderCoastingDistance,0.05
;   extruderUseWipe,0
;   extruderWipeDistance,2
;   primaryExtruder,0
;   layerHeight,0.2
;   topSolidLayers,0
;   bottomSolidLayers,4
;   perimeterOutlines,1
;   printPerimetersInsideOut,0
;   startPointOption,3
;   startPointOriginX,0
;   startPointOriginY,300
;   sequentialIslands,0
;   spiralVaseMode,1
;   firstLayerHeightPercentage,100
;   firstLayerWidthPercentage,105
;   firstLayerUnderspeed,0.3
;   useRaft,0
;   raftExtruder,0
;   raftTopLayers,3
;   raftBaseLayers,2
;   raftOffset,8
;   raftSeparationDistance,0.11
;   raftTopInfill,100
;   aboveRaftSpeedMultiplier,0.3
;   useSkirt,1
;   skirtExtruder,0
;   skirtLayers,1
;   skirtOutlines,2
;   skirtOffset,2
;   usePrimePillar,0
;   primePillarExtruder,999
;   primePillarWidth,12
;   primePillarLocation,7
;   primePillarSpeedMultiplier,1
;   useOozeShield,0
;   oozeShieldExtruder,999
;   oozeShieldOffset,2
;   oozeShieldOutlines,1
;   oozeShieldSidewallShape,1
;   oozeShieldSidewallAngle,30
;   oozeShieldSpeedMultiplier,1
;   infillExtruder,0
;   internalInfillPattern,Fast Honeycomb
;   externalInfillPattern,Rectilinear
;   infillPercentage,0
;   outlineOverlapPercentage,30
;   infillExtrusionWidthPercentage,105
;   minInfillLength,1
;   infillLayerInterval,1
;   internalInfillAngles,0
;   overlapInternalInfillAngles,0
;   externalInfillAngles,45,-45
;   generateSupport,0
;   supportExtruder,0
;   supportInfillPercentage,15
;   supportExtraInflation,0.3
;   supportBaseLayers,1
;   denseSupportExtruder,0
;   denseSupportLayers,1
;   denseSupportInfillPercentage,50
;   supportLayerInterval,1
;   supportHorizontalPartOffset,0.25
;   supportUpperSeparationLayers,1
;   supportLowerSeparationLayers,1
;   supportType,0
;   supportGridSpacing,2
;   maxOverhangAngle,45
;   supportAngles,0
;   temperatureName,Primary Extruder,Heated Bed
;   temperatureNumber,0,0
;   temperatureSetpointCount,2,1
;   temperatureSetpointLayers,1,2,1
;   temperatureSetpointTemperatures,215,210,55
;   temperatureStabilizeAtStartup,1,1
;   temperatureHeatedBed,0,1
;   fanLayers,1,2
;   fanSpeeds,0,50
;   blipFanToFullPower,0
;   adjustSpeedForCooling,1
;   minSpeedLayerTime,15
;   minCoolingSpeedSlowdown,20
;   increaseFanForCooling,0
;   minFanLayerTime,45
;   maxCoolingFanSpeed,100
;   increaseFanForBridging,0
;   bridgingFanSpeed,100
;   use5D,1
;   relativeEdistances,1
;   allowEaxisZeroing,1
;   independentExtruderAxes,0
;   includeM10123,0
;   stickySupport,1
;   applyToolheadOffsets,0
;   gcodeXoffset,0
;   gcodeYoffset,0
;   gcodeZoffset,0
;   overrideMachineDefinition,1
;   machineTypeOverride,0
;   strokeXoverride,250
;   strokeYoverride,210
;   strokeZoverride,210
;   originOffsetXoverride,0
;   originOffsetYoverride,0
;   originOffsetZoverride,0
;   homeXdirOverride,-1
;   homeYdirOverride,-1
;   homeZdirOverride,-1
;   flipXoverride,1
;   flipYoverride,-1
;   flipZoverride,1
;   toolheadOffsets,0,0|0,0|0,0|0,0|0,0|0,0
;   overrideFirmwareConfiguration,0
;   firmwareTypeOverride,RepRap (Marlin/Repetier/Sprinter)
;   GPXconfigOverride,r2
;   baudRateOverride,115200
;   overridePrinterModels,0
;   printerModelsOverride
;   startingGcode,G90 ; use absolute coordinates,M83 ; extruder relative mode,,;====== start preheat start script ==============================================================,,G28 W; home all without mesh bed level,G0 X60 Y-3 Z80; move extruder above bed keep extruder in front for cleaning and checking,,M104 S160 T0; pre-heat extruder to 160C ,M140 S[bed0_temperature] ; this will take the layer 1 temperature for bed 0,M190 S[bed0_temperature] ; wait for bed temp,,G29 ; mesh bed leveling ,G0 X0 Y-3 Z0.2,,M104S[extruder0_temperature] ; set extruder temperature,M109 S[extruder0_temperature]  ; wait for extruder temp,,;====== end preheat start script ================================================================,,,,G1 Y-3.0 F1000.0 ; go outside print area,G92 E0.0,G1 E2.0,G1 X60.0 E7.0  F1000.0 ; intro line,G1 X100.0 E8  F1000.0 ; intro line,G92 E0.0,
;   layerChangeGcode,G1 [current_Z_position] F10000;
;   retractionGcode,
;   toolChangeGcode,
;   endingGcode,M104 S0 ; turn off temperature,M140 S0 ; turn off heatbed,M107 ; turn off fan,G1 F1000.0 ; set feed rate,G1 E-3 ; retract,G1 X0 Y200 F7200 ; home XY axis,,M84 ; disable motors
;   exportFileFormat,gcode
;   celebration,0
;   celebrationSong,Funky Town
;   postProcessing,{REPLACE "; outer perimeter\n" "; outer perimeter\nM204 S600\n"},{REPLACE "; inner perimeter\n" "; inner perimeter\nM204 S1000\n"},{REPLACE "; solid layer\n" "; solid layer\nM204 S1200\n"},{REPLACE "; infill\n" "; infill\nM204 S1500\n"}
;   defaultSpeed,3600
;   outlineUnderspeed,0.3
;   solidInfillUnderspeed,0.8
;   supportUnderspeed,0.4
;   rapidXYspeed,8400
;   rapidZspeed,3600
;   minBridgingArea,5
;   bridgingExtraInflation,1
;   bridgingExtrusionMultiplier,1
;   bridgingSpeedMultiplier,0.95
;   useFixedBridgingAngle,0
;   fixedBridgingAngle,0
;   applyBridgingToPerimeters,0
;   filamentDiameters,1.75|1.75|1.75|1.75|1.75|1.75
;   filamentPricesPerKg,24|46|46|46|46|46
;   filamentDensities,1.25|1.25|1.25|1.25|1.25|1.25
;   useMinPrintHeight,0
;   minPrintHeight,0
;   useMaxPrintHeight,0
;   maxPrintHeight,0
;   useDiaphragm,0
;   diaphragmLayerInterval,20
;   robustSlicing,1
;   mergeAllIntoSolid,0
;   onlyRetractWhenCrossingOutline,0
;   retractBetweenLayers,0
;   useRetractionMinTravel,1
;   retractionMinTravel,1
;   retractWhileWiping,1
;   onlyWipeOutlines,1
;   avoidCrossingOutline,1
;   maxMovementDetourFactor,3
;   toolChangeRetractionDistance,12
;   toolChangeExtraRestartDistance,-0.5
;   toolChangeRetractionSpeed,600
;   externalThinWallType,1
;   internalThinWallType,1
;   thinWallAllowedOverlapPercentage,25
;   singleExtrusionMinLength,1
;   singleExtrusionMinPrintingWidthPercentage,50
;   singleExtrusionMaxPrintingWidthPercentage,200
;   singleExtrusionEndpointExtension,0.2
;   horizontalSizeCompensation,0
G90
M83
M106 S0
G90 ; use absolute coordinates
M83 ; extruder relative mode
;====== start preheat start script ==============================================================
G28 W; home all without mesh bed level
G0 X60 Y-3 Z80; move extruder above bed keep extruder in front for cleaning and checking
M104 S160 T0; pre-heat extruder to 160C 
M140 S55 ; this will take the layer 1 temperature for bed 0
M190 S55 ; wait for bed temp
G29 ; mesh bed leveling 
G0 X0 Y-3 Z0.2
M104S215 ; set extruder temperature
M109 S215  ; wait for extruder temp
;====== end preheat start script ================================================================
G1 Y-3.0 F1000.0 ; go outside print area
G92 E0.0
G1 E2.0
G1 X60.0 E7.0  F1000.0 ; intro line
G1 X100.0 E8  F1000.0 ; intro line
G92 E0.0
; process Process1
; layer 1, Z = 0.200
T0
G1 E-0.5000 F1200
G1 0.200 F10000;
; feature skirt
; tool H0.200 W0.389
G1 Z0.500 F3600
G1 X110.351 Y121.162 F8400
G1 Z0.200 F3600
G1 E0.5000 F1200
G1 X108.838 Y119.649 E0.0657 F1080
G1 X108.838 Y90.363 E0.8987
G1 X110.342 Y88.852 E0.0654
G1 X112.186 Y88.843 E0.0566
G1 X112.191 Y88.838 E0.0002
G1 X113.211 Y88.838 E0.0313
G1 X114.280 Y88.833 E0.0328
G1 X114.285 Y88.838 E0.0002
G1 X139.649 Y88.838 E0.7784
G1 X141.162 Y90.351 E0.0657
G1 X141.162 Y94.368 E0.1233
G1 X141.162 Y115.632 E0.6526
G1 X141.162 Y119.649 E0.1233
G1 X139.649 Y121.162 E0.0657
G1 X110.351 Y121.162 E0.8991
G1 X110.512 Y120.774 F8400
G1 X109.226 Y119.488 E0.0558 F1080
G1 X109.226 Y90.524 E0.8889
G1 X110.504 Y89.240 E0.0556
G1 X112.348 Y89.231 E0.0566
G1 X112.352 Y89.226 E0.0002
G1 X113.213 Y89.226 E0.0264
G1 X114.120 Y89.222 E0.0278
G1 X114.125 Y89.226 E0.0002
G1 X139.488 Y89.226 E0.7784
G1 X140.774 Y90.512 E0.0558
G1 X140.774 Y94.128 E0.1110
G1 X140.774 Y115.872 E0.6673
G1 X140.774 Y119.488 E0.1110
G1 X139.488 Y120.774 E0.0558
G1 X110.512 Y120.774 E0.8892
G1 E-0.5000 F1200
; feature outer perimeter
G1 Z0.700 F3600
G1 X113.487 Y116.545 F8400
G1 X114.705 Y116.545
G1 X114.705 Y115.327
G1 X115.135 Y115.327
G1 X115.135 Y116.545
G1 X116.353 Y116.545
G1 X116.353 Y116.975
G1 X115.135 Y116.975
G1 X115.135 Y118.385
G1 Z0.200 F3600
G1 E0.5000 F1200
G1 X115.135 Y116.975 E0.0433 F324
G1 X116.353 Y116.975 E0.0374
G1 X116.353 Y116.545 E0.0132
G1 X115.135 Y116.545 E0.0374
G1 X115.135 Y115.327 E0.0374
G1 X114.705 Y115.327 E0.0132
G1 X114.705 Y116.545 E0.0374
G1 X113.487 Y116.545 E0.0374
G1 X113.487 Y116.975 E0.0132
G1 X114.705 Y116.975 E0.0374
G1 X114.705 Y118.385 E0.0433
G1 X113.455 Y118.385 E0.0383
G1 X113.455 Y117.007 E0.0423
G1 X113.025 Y117.007 E0.0132
G1 X113.025 Y118.385 E0.0423
G1 X111.615 Y118.385 E0.0433
G1 X111.615 Y116.975 E0.0433
G1 X112.993 Y116.975 E0.0423
G1 X112.993 Y116.545 E0.0132
G1 X111.615 Y116.545 E0.0423
G1 X111.615 Y115.295 E0.0383
G1 X113.025 Y115.295 E0.0433
G1 X113.025 Y116.513 E0.0374
G1 X113.455 Y116.513 E0.0132
G1 X113.455 Y115.295 E0.0374
G1 X114.673 Y115.295 E0.0374
G1 X114.673 Y114.865 E0.0132
G1 X113.455 Y114.865 E0.0374
G1 X113.455 Y113.647 E0.0374
G1 X113.025 Y113.647 E0.0132
G1 X113.025 Y114.865 E0.0374
G1 X111.615 Y114.865 E0.0433
G1 X111.615 Y113.615 E0.0383
G1 X112.993 Y113.615 E0.0423
G1 X112.993 Y113.185 E0.0132
G1 X111.615 Y113.185 E0.0423
G1 X111.615 Y111.935 E0.0383
G1 X113.025 Y111.935 E0.0433
G1 X113.025 Y113.153 E0.0374
G1 X113.455 Y113.153 E0.0132
G1 X113.455 Y111.935 E0.0374
G1 X114.705 Y111.935 E0.0383
G1 X114.705 Y113.185 E0.0383
G1 X113.487 Y113.185 E0.0374
G1 X113.487 Y113.615 E0.0132
G1 X114.705 Y113.615 E0.0374
G1 X114.705 Y114.833 E0.0374
G1 X115.135 Y114.833 E0.0132
G1 X115.135 Y113.615 E0.0374
G1 X116.353 Y113.615 E0.0374
G1 X116.353 Y113.185 E0.0132
G1 X115.135 Y113.185 E0.0374
G1 X115.135 Y111.935 E0.0383
G1 X116.385 Y111.935 E0.0383
G1 X116.385 Y113.153 E0.0374
G1 X116.815 Y113.153 E0.0132
G1 X116.815 Y111.935 E0.0374
G1 X118.033 Y111.935 E0.0374
G1 X118.033 Y111.505 E0.0132
G1 X116.815 Y111.505 E0.0374
G1 X116.815 Y110.287 E0.0374
G1 X116.385 Y110.287 E0.0132
G1 X116.385 Y111.505 E0.0374
G1 X115.135 Y111.505 E0.0383
G1 X115.135 Y110.255 E0.0383
G1 X116.353 Y110.255 E0.0374
G1 X116.353 Y109.825 E0.0132
G1 X115.135 Y109.825 E0.0374
G1 X115.135 Y108.607 E0.0374
G1 X114.705 Y108.607 E0.0132
G1 X114.705 Y109.825 E0.0374
G1 X113.487 Y109.825 E0.0374
G1 X113.487 Y110.255 E0.0132
G1 X114.705 Y110.255 E0.0374
G1 X114.705 Y111.505 E0.0383
G1 X113.455 Y111.505 E0.0383
G1 X113.455 Y110.287 E0.0374
G1 X113.025 Y110.287 E0.0132
G1 X113.025 Y111.505 E0.0374
G1 X111.615 Y111.505 E0.0433
G1 X111.615 Y110.255 E0.0383
G1 X112.993 Y110.255 E0.0423
G1 X112.993 Y109.825 E0.0132
G1 X111.615 Y109.825 E0.0423
G1 X111.615 Y108.575 E0.0383
G1 X113.025 Y108.575 E0.0433
G1 X113.025 Y109.793 E0.0374
G1 X113.455 Y109.793 E0.0132
G1 X113.455 Y108.575 E0.0374
G1 X114.673 Y108.575 E0.0374
G1 X114.673 Y108.145 E0.0132
G1 X113.455 Y108.145 E0.0374
G1 X113.455 Y106.927 E0.0374
G1 X113.025 Y106.927 E0.0132
G1 X113.025 Y108.145 E0.0374
G1 X111.615 Y108.145 E0.0433
G1 X111.615 Y106.895 E0.0383
G1 X112.993 Y106.895 E0.0423
G1 X112.993 Y106.465 E0.0132
G1 X111.615 Y106.465 E0.0423
G1 X111.615 Y105.215 E0.0383
G1 X113.025 Y105.215 E0.0433
G1 X113.025 Y106.433 E0.0374
G1 X113.455 Y106.433 E0.0132
G1 X113.455 Y105.215 E0.0374
G1 X114.705 Y105.215 E0.0383
G1 X114.705 Y106.465 E0.0383
G1 X113.487 Y106.465 E0.0374
G1 X113.487 Y106.895 E0.0132
G1 X114.705 Y106.895 E0.0374
G1 X114.705 Y108.113 E0.0374
G1 X115.135 Y108.113 E0.0132
G1 X115.135 Y106.895 E0.0374
G1 X116.353 Y106.895 E0.0374
G1 X116.353 Y106.465 E0.0132
G1 X115.135 Y106.465 E0.0374
G1 X115.135 Y105.215 E0.0383
G1 X116.385 Y105.215 E0.0383
G1 X116.385 Y106.433 E0.0374
G1 X116.815 Y106.433 E0.0132
G1 X116.815 Y105.215 E0.0374
G1 X118.065 Y105.215 E0.0383
G1 X118.065 Y106.465 E0.0383
G1 X116.847 Y106.465 E0.0374
G1 X116.847 Y106.895 E0.0132
G1 X118.065 Y106.895 E0.0374
G1 X118.065 Y108.145 E0.0383
G1 X116.815 Y108.145 E0.0383
G1 X116.815 Y106.927 E0.0374
G1 X116.385 Y106.927 E0.0132
G1 X116.385 Y108.145 E0.0374
G1 X115.167 Y108.145 E0.0374
G1 X115.167 Y108.575 E0.0132
G1 X116.385 Y108.575 E0.0374
G1 X116.385 Y109.793 E0.0374
G1 X116.815 Y109.793 E0.0132
G1 X116.815 Y108.575 E0.0374
G1 X118.065 Y108.575 E0.0383
G1 X118.065 Y109.825 E0.0383
G1 X116.847 Y109.825 E0.0374
G1 X116.847 Y110.255 E0.0132
G1 X118.065 Y110.255 E0.0374
G1 X118.065 Y111.473 E0.0374
G1 X118.495 Y111.473 E0.0132
G1 X118.495 Y110.255 E0.0374
G1 X119.713 Y110.255 E0.0374
G1 X119.713 Y109.825 E0.0132
G1 X118.495 Y109.825 E0.0374
G1 X118.495 Y108.575 E0.0383
G1 X119.745 Y108.575 E0.0383
G1 X119.745 Y109.793 E0.0374
G1 X120.175 Y109.793 E0.0132
G1 X120.175 Y108.575 E0.0374
G1 X121.393 Y108.575 E0.0374
G1 X121.393 Y108.145 E0.0132
G1 X120.175 Y108.145 E0.0374
G1 X120.175 Y106.927 E0.0374
G1 X119.745 Y106.927 E0.0132
G1 X119.745 Y108.145 E0.0374
G1 X118.495 Y108.145 E0.0383
G1 X118.495 Y106.895 E0.0383
G1 X119.713 Y106.895 E0.0374
G1 X119.713 Y106.465 E0.0132
G1 X118.495 Y106.465 E0.0374
G1 X118.495 Y105.215 E0.0383
G1 X119.745 Y105.215 E0.0383
G1 X119.745 Y106.433 E0.0374
G1 X120.175 Y106.433 E0.0132
G1 X120.175 Y105.215 E0.0374
G1 X121.425 Y105.215 E0.0383
G1 X121.425 Y106.465 E0.0383
G1 X120.207 Y106.465 E0.0374
G1 X120.207 Y106.895 E0.0132
G1 X121.425 Y106.895 E0.0374
G1 X121.425 Y108.113 E0.0374
G1 X121.855 Y108.113 E0.0132
G1 X121.855 Y106.895 E0.0374
G1 X123.073 Y106.895 E0.0374
G1 X123.073 Y106.465 E0.0132
G1 X121.855 Y106.465 E0.0374
G1 X121.855 Y105.215 E0.0383
G1 X123.105 Y105.215 E0.0383
G1 X123.105 Y106.433 E0.0374
G1 X123.535 Y106.433 E0.0132
G1 X123.535 Y105.215 E0.0374
G1 X124.753 Y105.215 E0.0374
G1 X124.753 Y104.785 E0.0132
G1 X123.535 Y104.785 E0.0374
G1 X123.535 Y103.567 E0.0374
G1 X123.105 Y103.567 E0.0132
G1 X123.105 Y104.785 E0.0374
G1 X121.855 Y104.785 E0.0383
G1 X121.855 Y103.535 E0.0383
G1 X123.073 Y103.535 E0.0374
G1 X123.073 Y103.105 E0.0132
G1 X121.855 Y103.105 E0.0374
G1 X121.855 Y101.887 E0.0374
G1 X121.425 Y101.887 E0.0132
G1 X121.425 Y103.105 E0.0374
G1 X120.207 Y103.105 E0.0374
G1 X120.207 Y103.535 E0.0132
G1 X121.425 Y103.535 E0.0374
G1 X121.425 Y104.785 E0.0383
G1 X120.175 Y104.785 E0.0383
G1 X120.175 Y103.567 E0.0374
G1 X119.745 Y103.567 E0.0132
G1 X119.745 Y104.785 E0.0374
G1 X118.495 Y104.785 E0.0383
G1 X118.495 Y103.535 E0.0383
G1 X119.713 Y103.535 E0.0374
G1 X119.713 Y103.105 E0.0132
G1 X118.495 Y103.105 E0.0374
G1 X118.495 Y101.855 E0.0383
G1 X119.745 Y101.855 E0.0383
G1 X119.745 Y103.073 E0.0374
G1 X120.175 Y103.073 E0.0132
G1 X120.175 Y101.855 E0.0374
G1 X121.393 Y101.855 E0.0374
G1 X121.393 Y101.425 E0.0132
G1 X120.175 Y101.425 E0.0374
G1 X120.175 Y100.207 E0.0374
G1 X119.745 Y100.207 E0.0132
G1 X119.745 Y101.425 E0.0374
G1 X118.495 Y101.425 E0.0383
G1 X118.495 Y100.175 E0.0383
G1 X119.713 Y100.175 E0.0374
G1 X119.713 Y99.745 E0.0132
G1 X118.495 Y99.745 E0.0374
G1 X118.495 Y98.527 E0.0374
G1 X118.065 Y98.527 E0.0132
G1 X118.065 Y99.745 E0.0374
G1 X116.847 Y99.745 E0.0374
G1 X116.847 Y100.175 E0.0132
G1 X118.065 Y100.175 E0.0374
G1 X118.065 Y101.425 E0.0383
G1 X116.815 Y101.425 E0.0383
G1 X116.815 Y100.207 E0.0374
G1 X116.385 Y100.207 E0.0132
G1 X116.385 Y101.425 E0.0374
G1 X115.167 Y101.425 E0.0374
G1 X115.167 Y101.855 E0.0132
G1 X116.385 Y101.855 E0.0374
G1 X116.385 Y103.073 E0.0374
G1 X116.815 Y103.073 E0.0132
G1 X116.815 Y101.855 E0.0374
G1 X118.065 Y101.855 E0.0383
G1 X118.065 Y103.105 E0.0383
G1 X116.847 Y103.105 E0.0374
G1 X116.847 Y103.535 E0.0132
