; generated by SuperSlicer 2.5.59 on 2023-01-28 at 23:42:59 UTC


;
;
; 

; external perimeters extrusion width = 0.45mm
; perimeters extrusion width = 0.45mm
; infill extrusion width = 0.45mm
; solid infill extrusion width = 0.45mm
; top infill extrusion width = 0.40mm
; first layer extrusion width = 0.42mm

; object:{"name":"Hollow_Pyramid","id":"Hollow_Pyramid.stl id:0 copy 0","object_center":[125.000000,105.000000,0.000000],"boundingbox_center":[125.000000,105.000000,16.497786],"boundingbox_size":[38.099998,38.099998,32.995571]}
; Total objects to print: 1
M486 T1
; plater:{"center":[125.000000,105.000000,0.000000],"boundingbox_center":[125.000000,105.000000,16.497786],"boundingbox_size":[38.099998,38.099998,32.995571]}

M73 P0 R33
;
;
;TYPE:Custom
;
; start script for PrusaSlicer for CaribouDuet
;
;
T0                               ; select tool 0
;
M568 P0 S160 R160 A2             ; pre-heat extruder to 160°C
;
G90                              ; absolute positioning
G0 X125 Y-7 Z80 F4000            ; move extruder above bed, keep extruder in front for cleaning and checking
;
M140 S55                         ; this will take the layer 1 temperature for bed 0
M190 S55                         ; wait for bed temp
;
G29                              ; mesh bed leveling using defined mesh grid
G0 X0 Y-3 Z0.6 F4000             ; go outside print area
;
M568 P0 S210 A2                  ; set extruder temperature
M116 P0                          ; wait for extruder temp
;
;
M98 P"0:/sys/primeLine.g"        ; execute primeline macro
;
G92 E0.0                         ; set extruder position
M572 D0 S0.07                    ; set pressure advance
;
;
M106 S0
G21 ; set units to millimeters
G90 ; use absolute coordinates
M83 ; use relative distances for extrusion
;_TOOLCHANGE 0
;
M116 ; wait for temperature to be reached
M106 S0
;LAYER_CHANGE
;Z:0.2
;HEIGHT:0.2
;BEFORE_LAYER_CHANGE
G92 E0.0
;0.2


G1 E-0.4 F1500
M73 P1 R33
G1 Z0.4 F7200
;AFTER_LAYER_CHANGE
;0.2
G1 Z0.6
G1 X103.885 Y84.801
G1 Z0.2
G1 E0.4 F1500
;TYPE:Skirt
;WIDTH:0.52
G1 F1800
G1 X103.492 Y86.208 E0.05503
G1 X103.492 Y123.792 E1.41641
G1 X103.801 Y125.051 E0.04884
G1 X104.801 Y126.115 E0.05503
G1 X106.208 Y126.508 E0.05503
G1 X143.792 Y126.508 E1.41641
G1 X145.051 Y126.199 E0.04884
G1 X146.115 Y125.199 E0.05503
G1 X146.508 Y123.792 E0.05503
G1 X146.508 Y86.208 E1.41641
G1 X146.199 Y84.949 E0.04884
G1 X145.199 Y83.885 E0.05503
G1 X143.792 Y83.492 E0.05503
G1 X106.208 Y83.492 E1.41641
G1 X104.949 Y83.801 E0.04884
G1 X103.928 Y84.76 E0.05277
G1 X104.36 Y84.944 F7200
M73 P2 R33
G1 F1800
G1 X103.969 Y86.208 E0.04987
G1 X103.969 Y123.792 E1.41641
G1 X104.121 Y124.603 E0.03109
G1 X104.944 Y125.64 E0.04987
G1 X106.208 Y126.031 E0.04987
G1 X143.792 Y126.031 E1.41641
G1 X144.603 Y125.879 E0.03109
G1 X145.64 Y125.056 E0.04987
G1 X146.031 Y123.792 E0.04987
G1 X146.031 Y86.208 E1.41641
G1 X145.879 Y85.397 E0.03109
G1 X145.056 Y84.36 E0.04987
G1 X143.792 Y83.969 E0.04987
G1 X106.208 Y83.969 E1.41641
G1 X105.397 Y84.121 E0.03109
G1 X104.407 Y84.906 E0.0476
;WIPE_START
M73 P2 R32
G1 F5760
G1 X103.969 Y86.208 E-0.33971
G1 X103.969 Y86.371 E-0.04029
;WIPE_END
G1 E-0.02 F1500
G1 Z0.6 F7200
; printing object Hollow_Pyramid.stl id:0 copy 0
M486 S0
G1 X106.418 Y86.418
G1 Z0.2
G1 E0.4 F1500
;TYPE:External perimeter
;WIDTH:0.42
G1 F2400
G1 X143.582 Y86.418 E1.107
G1 X143.582 Y123.582 E1.107
G1 X106.418 Y123.582 E1.107
G1 X106.418 Y86.478 E1.10522
;WIPE_START
G1 X106.764 Y86.618 F7200
;WIPE_END
G1 X106.795 Y86.795
;TYPE:Internal perimeter
G1 F3000
G1 X143.205 Y86.795 E1.08454
G1 X143.205 Y123.205 E1.08454
G1 X106.795 Y123.205 E1.08454
G1 X106.795 Y86.855 E1.08275
G1 X107.172 Y87.172 F7200
G1 F3000
G1 X142.828 Y87.172 E1.06208
G1 X142.828 Y122.828 E1.06208
G1 X107.172 Y122.828 E1.06208
G1 X107.172 Y87.232 E1.06029
;WIPE_START
G1 F5760
G1 X108.708 Y87.229 E-0.38
;WIPE_END
G1 E-0.02 F1500
G1 Z0.6 F7200
G1 X141.953 Y87.285
G1 Z0.2
G1 E0.4 F1500
;TYPE:Solid infill
;WIDTH:0.420332
G1 F1800
G1 X142.553 Y87.885 E0.0253
G1 X142.553 Y88.418 E0.0159
G1 X141.582 Y87.447 E0.04095
G1 X141.048 Y87.447 E0.0159
G1 X142.553 Y88.952 E0.06343
G1 X142.553 Y89.485 E0.0159
G1 X140.515 Y87.447 E0.08591
G1 X139.982 Y87.447 E0.0159
G1 X142.553 Y90.018 E0.10839
G1 X142.553 Y90.551 E0.0159
G1 X139.449 Y87.447 E0.13087
G1 X138.915 Y87.447 E0.0159
G1 X142.553 Y91.085 E0.15335
G1 X142.553 Y91.618 E0.0159
G1 X138.382 Y87.447 E0.17584
G1 X137.849 Y87.447 E0.0159
G1 X142.553 Y92.151 E0.19832
G1 X142.553 Y92.685 E0.0159
G1 X137.315 Y87.447 E0.2208
G1 X136.782 Y87.447 E0.0159
G1 X142.553 Y93.218 E0.24328
G1 X142.553 Y93.751 E0.0159
G1 X136.249 Y87.447 E0.26576
G1 X135.716 Y87.447 E0.0159
G1 X142.553 Y94.284 E0.28824
G1 X142.553 Y94.818 E0.0159
G1 X135.182 Y87.447 E0.31072
G1 X134.649 Y87.447 E0.0159
G1 X142.553 Y95.351 E0.33321
G1 X142.553 Y95.884 E0.0159
G1 X134.116 Y87.447 E0.35569
G1 X133.583 Y87.447 E0.0159
G1 X142.553 Y96.417 E0.37817
M73 P3 R32
G1 X142.553 Y96.951 E0.0159
G1 X133.049 Y87.447 E0.40065
G1 X132.516 Y87.447 E0.0159
G1 X142.553 Y97.484 E0.42313
G1 X142.553 Y98.017 E0.0159
G1 X131.983 Y87.447 E0.44561
G1 X131.449 Y87.447 E0.0159
G1 X142.553 Y98.551 E0.4681
G1 X142.553 Y99.084 E0.0159
G1 X130.916 Y87.447 E0.49058
G1 X130.383 Y87.447 E0.0159
G1 X142.553 Y99.617 E0.51306
G1 X142.553 Y100.15 E0.0159
G1 X129.85 Y87.447 E0.53554
G1 X129.316 Y87.447 E0.0159
G1 X142.553 Y100.684 E0.55802
G1 X142.553 Y101.217 E0.0159
G1 X128.783 Y87.447 E0.5805
G1 X128.25 Y87.447 E0.0159
G1 X142.553 Y101.75 E0.60298
G1 X142.553 Y102.283 E0.0159
G1 X127.717 Y87.447 E0.62547
G1 X127.183 Y87.447 E0.0159
G1 X142.553 Y102.817 E0.64795
G1 X142.553 Y103.35 E0.0159
G1 X126.65 Y87.447 E0.67043
G1 X126.117 Y87.447 E0.0159
G1 X142.553 Y103.883 E0.69291
G1 X142.553 Y104.416 E0.0159
G1 X125.584 Y87.447 E0.71539
G1 X125.05 Y87.447 E0.0159
G1 X142.553 Y104.95 E0.73787
G1 X142.553 Y105.483 E0.0159
G1 X124.517 Y87.447 E0.76036
G1 X123.984 Y87.447 E0.0159
G1 X142.553 Y106.016 E0.78284
G1 X142.553 Y106.55 E0.0159
G1 X123.45 Y87.447 E0.80532
G1 X122.917 Y87.447 E0.0159
G1 X142.553 Y107.083 E0.8278
G1 X142.553 Y107.616 E0.0159
G1 X122.384 Y87.447 E0.85028
G1 X121.851 Y87.447 E0.0159
G1 X142.553 Y108.149 E0.87276
G1 X142.553 Y108.683 E0.0159
G1 X121.317 Y87.447 E0.89524
G1 X120.784 Y87.447 E0.0159
G1 X142.553 Y109.216 E0.91773
G1 X142.553 Y109.749 E0.0159
G1 X120.251 Y87.447 E0.94021
G1 X119.718 Y87.447 E0.0159
G1 X142.553 Y110.282 E0.96269
M73 P4 R32
G1 X142.553 Y110.816 E0.0159
G1 X119.184 Y87.447 E0.98517
G1 X118.651 Y87.447 E0.0159
G1 X142.553 Y111.349 E1.00765
G1 X142.553 Y111.882 E0.0159
G1 X118.118 Y87.447 E1.03013
G1 X117.584 Y87.447 E0.0159
G1 X142.553 Y112.416 E1.05262
G1 X142.553 Y112.949 E0.0159
G1 X117.051 Y87.447 E1.0751
G1 X116.518 Y87.447 E0.0159
G1 X142.553 Y113.482 E1.09758
G1 X142.553 Y114.015 E0.0159
G1 X115.985 Y87.447 E1.12006
G1 X115.451 Y87.447 E0.0159
G1 X142.553 Y114.549 E1.14254
G1 X142.553 Y115.082 E0.0159
G1 X114.918 Y87.447 E1.16502
G1 X114.385 Y87.447 E0.0159
G1 X142.553 Y115.615 E1.1875
G1 X142.553 Y116.148 E0.0159
G1 X113.852 Y87.447 E1.20999
G1 X113.318 Y87.447 E0.0159
G1 X142.553 Y116.682 E1.23247
G1 X142.553 Y117.215 E0.0159
G1 X112.785 Y87.447 E1.25495
G1 X112.252 Y87.447 E0.0159
G1 X142.553 Y117.748 E1.27743
G1 X142.553 Y118.282 E0.0159
G1 X111.718 Y87.447 E1.29991
G1 X111.185 Y87.447 E0.0159
G1 X142.553 Y118.815 E1.32239
M73 P5 R32
G1 X142.553 Y119.348 E0.0159
G1 X110.652 Y87.447 E1.34488
G1 X110.119 Y87.447 E0.0159
G1 X142.553 Y119.881 E1.36736
G1 X142.553 Y120.415 E0.0159
G1 X109.585 Y87.447 E1.38984
M73 P5 R31
G1 X109.052 Y87.447 E0.0159
G1 X142.553 Y120.948 E1.41232
G1 X142.553 Y121.481 E0.0159
G1 X108.519 Y87.447 E1.4348
G1 X107.986 Y87.447 E0.0159
G1 X142.553 Y122.014 E1.45728
G1 X142.553 Y122.548 E0.0159
G1 X107.452 Y87.447 E1.47976
G1 X107.447 Y87.447 E0.00015
G1 X107.447 Y87.975 E0.01574
G1 X142.025 Y122.553 E1.45772
G1 X141.491 Y122.553 E0.0159
G1 X107.447 Y88.509 E1.43524
G1 X107.447 Y89.042 E0.0159
G1 X140.958 Y122.553 E1.41276
G1 X140.425 Y122.553 E0.0159
G1 X107.447 Y89.575 E1.39027
G1 X107.447 Y90.108 E0.0159
G1 X139.892 Y122.553 E1.36779
M73 P6 R31
G1 X139.358 Y122.553 E0.0159
G1 X107.447 Y90.642 E1.34531
G1 X107.447 Y91.175 E0.0159
G1 X138.825 Y122.553 E1.32283
G1 X138.292 Y122.553 E0.0159
G1 X107.447 Y91.708 E1.30035
G1 X107.447 Y92.241 E0.0159
G1 X137.759 Y122.553 E1.27787
G1 X137.225 Y122.553 E0.0159
G1 X107.447 Y92.775 E1.25539
G1 X107.447 Y93.308 E0.0159
G1 X136.692 Y122.553 E1.2329
G1 X136.159 Y122.553 E0.0159
G1 X107.447 Y93.841 E1.21042
G1 X107.447 Y94.374 E0.0159
G1 X135.626 Y122.553 E1.18794
G1 X135.092 Y122.553 E0.0159
G1 X107.447 Y94.908 E1.16546
G1 X107.447 Y95.441 E0.0159
G1 X134.559 Y122.553 E1.14298
G1 X134.026 Y122.553 E0.0159
G1 X107.447 Y95.974 E1.1205
G1 X107.447 Y96.508 E0.0159
G1 X133.492 Y122.553 E1.09801
G1 X132.959 Y122.553 E0.0159
G1 X107.447 Y97.041 E1.07553
G1 X107.447 Y97.574 E0.0159
G1 X132.426 Y122.553 E1.05305
G1 X131.893 Y122.553 E0.0159
G1 X107.447 Y98.107 E1.03057
M73 P7 R31
G1 X107.447 Y98.641 E0.0159
G1 X131.359 Y122.553 E1.00809
G1 X130.826 Y122.553 E0.0159
G1 X107.447 Y99.174 E0.98561
G1 X107.447 Y99.707 E0.0159
G1 X130.293 Y122.553 E0.96313
G1 X129.76 Y122.553 E0.0159
G1 X107.447 Y100.24 E0.94064
G1 X107.447 Y100.774 E0.0159
G1 X129.226 Y122.553 E0.91816
G1 X128.693 Y122.553 E0.0159
G1 X107.447 Y101.307 E0.89568
G1 X107.447 Y101.84 E0.0159
G1 X128.16 Y122.553 E0.8732
G1 X127.626 Y122.553 E0.0159
G1 X107.447 Y102.374 E0.85072
G1 X107.447 Y102.907 E0.0159
G1 X127.093 Y122.553 E0.82824
G1 X126.56 Y122.553 E0.0159
G1 X107.447 Y103.44 E0.80575
G1 X107.447 Y103.973 E0.0159
G1 X126.027 Y122.553 E0.78327
G1 X125.493 Y122.553 E0.0159
G1 X107.447 Y104.507 E0.76079
G1 X107.447 Y105.04 E0.0159
G1 X124.96 Y122.553 E0.73831
G1 X124.427 Y122.553 E0.0159
G1 X107.447 Y105.573 E0.71583
G1 X107.447 Y106.106 E0.0159
G1 X123.894 Y122.553 E0.69335
G1 X123.36 Y122.553 E0.0159
G1 X107.447 Y106.64 E0.67087
G1 X107.447 Y107.173 E0.0159
G1 X122.827 Y122.553 E0.64838
G1 X122.294 Y122.553 E0.0159
G1 X107.447 Y107.706 E0.6259
G1 X107.447 Y108.24 E0.0159
G1 X121.76 Y122.553 E0.60342
G1 X121.227 Y122.553 E0.0159
G1 X107.447 Y108.773 E0.58094
G1 X107.447 Y109.306 E0.0159
G1 X120.694 Y122.553 E0.55846
M73 P8 R31
G1 X120.161 Y122.553 E0.0159
G1 X107.447 Y109.839 E0.53598
G1 X107.447 Y110.373 E0.0159
G1 X119.627 Y122.553 E0.51349
G1 X119.094 Y122.553 E0.0159
G1 X107.447 Y110.906 E0.49101
G1 X107.447 Y111.439 E0.0159
G1 X118.561 Y122.553 E0.46853
G1 X118.028 Y122.553 E0.0159
G1 X107.447 Y111.972 E0.44605
G1 X107.447 Y112.506 E0.0159
G1 X117.494 Y122.553 E0.42357
M73 P8 R30
G1 X116.961 Y122.553 E0.0159
G1 X107.447 Y113.039 E0.40109
G1 X107.447 Y113.572 E0.0159
G1 X116.428 Y122.553 E0.37861
G1 X115.895 Y122.553 E0.0159
G1 X107.447 Y114.105 E0.35612
G1 X107.447 Y114.639 E0.0159
G1 X115.361 Y122.553 E0.33364
G1 X114.828 Y122.553 E0.0159
G1 X107.447 Y115.172 E0.31116
G1 X107.447 Y115.705 E0.0159
G1 X114.295 Y122.553 E0.28868
G1 X113.761 Y122.553 E0.0159
G1 X107.447 Y116.239 E0.2662
G1 X107.447 Y116.772 E0.0159
G1 X113.228 Y122.553 E0.24372
G1 X112.695 Y122.553 E0.0159
G1 X107.447 Y117.305 E0.22123
G1 X107.447 Y117.838 E0.0159
G1 X112.162 Y122.553 E0.19875
G1 X111.628 Y122.553 E0.0159
G1 X107.447 Y118.372 E0.17627
G1 X107.447 Y118.905 E0.0159
G1 X111.095 Y122.553 E0.15379
G1 X110.562 Y122.553 E0.0159
G1 X107.447 Y119.438 E0.13131
G1 X107.447 Y119.971 E0.0159
G1 X110.029 Y122.553 E0.10883
G1 X109.495 Y122.553 E0.0159
G1 X107.447 Y120.505 E0.08635
G1 X107.447 Y121.038 E0.0159
G1 X108.962 Y122.553 E0.06386
G1 X108.429 Y122.553 E0.0159
G1 X107.447 Y121.571 E0.04138
G1 X107.447 Y122.105 E0.0159
G1 X108.058 Y122.715 E0.02574
M106 S61.2
;LAYER_CHANGE
;Z:0.4
;HEIGHT:0.2
;BEFORE_LAYER_CHANGE
G92 E0.0
;0.4


;WIPE_START
G1 F5760
G1 X107.447 Y122.105 E-0.21359
G1 X107.447 Y121.571 E-0.13193
G1 X107.546 Y121.67 E-0.03448
;WIPE_END
G1 E-0.02 F1500
G1 Z0.6 F7200
; stop printing object Hollow_Pyramid.stl id:0 copy 0
M486 S-1
;AFTER_LAYER_CHANGE
;0.4
G1 Z0.8
; printing object Hollow_Pyramid.stl id:0 copy 0
M486 S0
G1 X106.348 Y123.652
G1 Z0.4
G1 E0.4 F1500
;TYPE:External perimeter
;WIDTH:0.45
G1 F2400
G1 X106.348 Y86.348 E1.19955
G1 X143.652 Y86.348 E1.19955
G1 X143.652 Y123.652 E1.19955
G1 X106.408 Y123.652 E1.19762
;WIPE_START
G1 X106.548 Y123.305 F7200
;WIPE_END
G1 X106.755 Y123.245
;TYPE:Internal perimeter
G1 F4800
G1 X106.755 Y86.755 E1.17337
G1 X143.245 Y86.755 E1.17337
G1 X143.245 Y123.245 E1.17337
G1 X106.815 Y123.245 E1.17144
G1 X107.162 Y122.838 F7200
G1 F4800
G1 X107.162 Y87.162 E1.14719
G1 X142.838 Y87.162 E1.14719
G1 X142.838 Y122.838 E1.14719
G1 X107.222 Y122.838 E1.14526
;WIPE_START
G1 F5760
G1 X107.22 Y121.302 E-0.38
;WIPE_END
G1 E-0.02 F1500
G1 Z0.8 F7200
G1 X141.893 Y122.716
G1 Z0.4
G1 E0.4 F1500
;TYPE:Solid infill
;WIDTH:0.449911
G1 F3840
G1 X142.54 Y122.068 E0.02946
G1 X142.54 Y121.492 E0.01851
G1 X141.492 Y122.54 E0.04767
G1 X140.916 Y122.54 E0.01851
G1 X142.54 Y120.916 E0.07385
G1 X142.54 Y120.341 E0.01851
G1 X140.341 Y122.54 E0.10002
G1 X139.765 Y122.54 E0.01851
G1 X142.54 Y119.765 E0.1262
G1 X142.54 Y119.189 E0.01851
G1 X139.189 Y122.54 E0.15237
G1 X138.613 Y122.54 E0.01851
G1 X142.54 Y118.613 E0.17855
G1 X142.54 Y118.038 E0.01851
G1 X138.038 Y122.54 E0.20472
G1 X137.462 Y122.54 E0.01851
G1 X142.54 Y117.462 E0.2309
G1 X142.54 Y116.886 E0.01851
G1 X136.886 Y122.54 E0.25707
G1 X136.311 Y122.54 E0.01851
G1 X142.54 Y116.311 E0.28325
G1 X142.54 Y115.735 E0.01851
G1 X135.735 Y122.54 E0.30942
G1 X135.159 Y122.54 E0.01851
G1 X142.54 Y115.159 E0.3356
M73 P9 R30
G1 X142.54 Y114.584 E0.01851
G1 X134.584 Y122.54 E0.36177
G1 X134.008 Y122.54 E0.01851
G1 X142.54 Y114.008 E0.38795
G1 X142.54 Y113.432 E0.01851
G1 X133.432 Y122.54 E0.41413
G1 X132.857 Y122.54 E0.01851
G1 X142.54 Y112.857 E0.4403
G1 X142.54 Y112.281 E0.01851
G1 X132.281 Y122.54 E0.46648
G1 X131.705 Y122.54 E0.01851
G1 X142.54 Y111.705 E0.49265
G1 X142.54 Y111.129 E0.01851
G1 X131.129 Y122.54 E0.51883
G1 X130.554 Y122.54 E0.01851
G1 X142.54 Y110.554 E0.545
G1 X142.54 Y109.978 E0.01851
G1 X129.978 Y122.54 E0.57118
G1 X129.402 Y122.54 E0.01851
G1 X142.54 Y109.402 E0.59735
G1 X142.54 Y108.827 E0.01851
G1 X128.827 Y122.54 E0.62353
G1 X128.251 Y122.54 E0.01851
G1 X142.54 Y108.251 E0.6497
G1 X142.54 Y107.675 E0.01851
G1 X127.675 Y122.54 E0.67588
G1 X127.1 Y122.54 E0.01851
G1 X142.54 Y107.1 E0.70205
G1 X142.54 Y106.524 E0.01851
G1 X126.524 Y122.54 E0.72823
G1 X125.948 Y122.54 E0.01851
G1 X142.54 Y105.948 E0.7544
G1 X142.54 Y105.372 E0.01851
G1 X125.372 Y122.54 E0.78058
G1 X124.797 Y122.54 E0.01851
G1 X142.54 Y104.797 E0.80675
G1 X142.54 Y104.221 E0.01851
G1 X124.221 Y122.54 E0.83293
G1 X123.645 Y122.54 E0.01851
G1 X142.54 Y103.645 E0.8591
G1 X142.54 Y103.07 E0.01851
G1 X123.07 Y122.54 E0.88528
G1 X122.494 Y122.54 E0.01851
G1 X142.54 Y102.494 E0.91145
G1 X142.54 Y101.918 E0.01851
G1 X121.918 Y122.54 E0.93763
G1 X121.343 Y122.54 E0.01851
G1 X142.54 Y101.343 E0.9638
G1 X142.54 Y100.767 E0.01851
G1 X120.767 Y122.54 E0.98998
G1 X120.191 Y122.54 E0.01851
G1 X142.54 Y100.191 E1.01615
G1 X142.54 Y99.615 E0.01851
G1 X119.615 Y122.54 E1.04233
G1 X119.04 Y122.54 E0.01851
G1 X142.54 Y99.04 E1.0685
G1 X142.54 Y98.464 E0.01851
G1 X118.464 Y122.54 E1.09468
G1 X117.888 Y122.54 E0.01851
G1 X142.54 Y97.888 E1.12085
G1 X142.54 Y97.313 E0.01851
G1 X117.313 Y122.54 E1.14703
G1 X116.737 Y122.54 E0.01851
G1 X142.54 Y96.737 E1.17321
G1 X142.54 Y96.161 E0.01851
G1 X116.161 Y122.54 E1.19938
G1 X115.586 Y122.54 E0.01851
G1 X142.54 Y95.586 E1.22556
G1 X142.54 Y95.01 E0.01851
G1 X115.01 Y122.54 E1.25173
G1 X114.434 Y122.54 E0.01851
G1 X142.54 Y94.434 E1.27791
G1 X142.54 Y93.859 E0.01851
G1 X113.859 Y122.54 E1.30408
G1 X113.283 Y122.54 E0.01851
G1 X142.54 Y93.283 E1.33026
G1 X142.54 Y92.707 E0.01851
G1 X112.707 Y122.54 E1.35643
G1 X112.131 Y122.54 E0.01851
G1 X142.54 Y92.131 E1.38261
G1 X142.54 Y91.556 E0.01851
G1 X111.556 Y122.54 E1.40878
G1 X110.98 Y122.54 E0.01851
G1 X142.54 Y90.98 E1.43496
M73 P10 R30
G1 X142.54 Y90.404 E0.01851
