; generated by SuperSlicer 2.5.59 on 2023-01-30 at 20:00:47 UTC


;
;
;

; external perimeters extrusion width = 0.45mm
; perimeters extrusion width = 0.45mm
; infill extrusion width = 0.45mm
; solid infill extrusion width = 0.45mm
; top infill extrusion width = 0.40mm
; first layer extrusion width = 0.42mm

; object:{"name":"Hollow_Pyramid","id":"Hollow_Pyramid.stl id:0 copy 0","object_center":[125.000000,105.000000,0.000000],"boundingbox_center":[125.000000,105.000000,16.497786],"boundingbox_size":[38.099998,38.099998,32.995571]}
; Total objects to print: 1
M486 T1
; plater:{"center":[125.000000,105.000000,0.000000],"boundingbox_center":[125.000000,105.000000,16.497786],"boundingbox_size":[38.099998,38.099998,32.995571]}

M73 P0 R33
;
;
;TYPE:Custom
;
; start script for PrusaSlicer for CaribouDuet
;
;
T0                               ; select tool 0
;
M568 P0 S160 R160 A2             ; pre-heat extruder to 160°C
;
G90                              ; absolute positioning
G0 X125 Y-7 Z80 F4000            ; move extruder above bed, keep extruder in front for cleaning and checking
;
M140 S55                         ; this will take the layer 1 temperature for bed 0
M190 S55                         ; wait for bed temp
;
G29                              ; mesh bed leveling using defined mesh grid
G0 X0 Y-3 Z0.6 F4000             ; go outside print area
;
M568 P0 S210 A2                  ; set extruder temperature
M116 P0                          ; wait for extruder temp
;
;
M98 P"0:/sys/primeLine.g"        ; execute primeline macro
;
G92 E0.0                         ; set extruder position
M572 D0 S0.07                    ; set pressure advance
;
;
M106 S0
G21 ; set units to millimeters
G90 ; use absolute coordinates
M83 ; use relative distances for extrusion
;_TOOLCHANGE 0
;
;LAYER_CHANGE
;Z:0.2
;HEIGHT:0.2
;BEFORE_LAYER_CHANGE
G92 E0.0
;0.2


G1 E-0.4 F1500
M73 P1 R32
G1 Z0.4 F7200
;AFTER_LAYER_CHANGE
;0.2
G1 Z0.6
G1 X103.885 Y84.801
G1 Z0.2
G1 E0.4 F1500
;TYPE:Skirt
;WIDTH:0.52
G1 F1800
G1 X103.492 Y86.208 E0.05098
G1 X103.492 Y123.792 E1.31204
G1 X103.801 Y125.051 E0.04524
G1 X104.801 Y126.115 E0.05098
G1 X106.208 Y126.508 E0.05098
G1 X143.792 Y126.508 E1.31204
G1 X145.051 Y126.199 E0.04524
G1 X146.115 Y125.199 E0.05098
G1 X146.508 Y123.792 E0.05098
G1 X146.508 Y86.208 E1.31204
G1 X146.199 Y84.949 E0.04524
G1 X145.199 Y83.885 E0.05098
G1 X143.792 Y83.492 E0.05098
G1 X106.208 Y83.492 E1.31204
G1 X104.949 Y83.801 E0.04524
G1 X103.928 Y84.76 E0.04888
M73 P2 R32
G1 X104.36 Y84.944 F7200
G1 F1800
G1 X103.969 Y86.208 E0.04619
G1 X103.969 Y123.792 E1.31204
G1 X104.121 Y124.603 E0.0288
G1 X104.944 Y125.64 E0.04619
G1 X106.208 Y126.031 E0.04619
G1 X143.792 Y126.031 E1.31204
G1 X144.603 Y125.879 E0.0288
G1 X145.64 Y125.056 E0.04619
G1 X146.031 Y123.792 E0.04619
G1 X146.031 Y86.208 E1.31204
G1 X145.879 Y85.397 E0.0288
G1 X145.056 Y84.36 E0.04619
G1 X143.792 Y83.969 E0.04619
G1 X106.208 Y83.969 E1.31204
G1 X105.397 Y84.121 E0.0288
G1 X104.407 Y84.906 E0.0441
;WIPE_START
G1 F5760
G1 X103.969 Y86.208 E-0.33971
G1 X103.969 Y86.371 E-0.04029
;WIPE_END
G1 E-0.02 F1500
G1 Z0.6 F7200
; printing object Hollow_Pyramid.stl id:0 copy 0
M486 S0
G1 X106.418 Y86.418
G1 Z0.2
G1 E0.4 F1500
;TYPE:External perimeter
;WIDTH:0.42
G1 F2400
G1 X143.582 Y86.418 E1.02544
G1 X143.582 Y123.582 E1.02544
G1 X106.418 Y123.582 E1.02544
G1 X106.418 Y86.478 E1.02378
;WIPE_START
G1 X106.764 Y86.618 F7200
;WIPE_END
G1 X106.795 Y86.795
;TYPE:Internal perimeter
G1 F3000
G1 X143.205 Y86.795 E1.00463
G1 X143.205 Y123.205 E1.00463
G1 X106.795 Y123.205 E1.00463
G1 X106.795 Y86.855 E1.00297
G1 X107.172 Y87.172 F7200
G1 F3000
G1 X142.828 Y87.172 E0.98382
G1 X142.828 Y122.828 E0.98382
G1 X107.172 Y122.828 E0.98382
G1 X107.172 Y87.232 E0.98216
;WIPE_START
G1 F5760
G1 X108.708 Y87.229 E-0.38
;WIPE_END
G1 E-0.02 F1500
G1 Z0.6 F7200
G1 X141.953 Y87.285
G1 Z0.2
G1 E0.4 F1500
;TYPE:Solid infill
;WIDTH:0.420332
G1 F1800
G1 X142.553 Y87.885 E0.02344
G1 X142.553 Y88.418 E0.01473
G1 X141.582 Y87.447 E0.03793
G1 X141.048 Y87.447 E0.01473
G1 X142.553 Y88.952 E0.05875
G1 X142.553 Y89.485 E0.01473
G1 X140.515 Y87.447 E0.07958
G1 X139.982 Y87.447 E0.01473
G1 X142.553 Y90.018 E0.1004
G1 X142.553 Y90.551 E0.01473
G1 X139.449 Y87.447 E0.12123
G1 X138.915 Y87.447 E0.01473
G1 X142.553 Y91.085 E0.14205
G1 X142.553 Y91.618 E0.01473
G1 X138.382 Y87.447 E0.16288
G1 X137.849 Y87.447 E0.01473
G1 X142.553 Y92.151 E0.1837
G1 X142.553 Y92.685 E0.01473
G1 X137.315 Y87.447 E0.20453
G1 X136.782 Y87.447 E0.01473
G1 X142.553 Y93.218 E0.22535
G1 X142.553 Y93.751 E0.01473
G1 X136.249 Y87.447 E0.24618
G1 X135.716 Y87.447 E0.01473
G1 X142.553 Y94.284 E0.267
G1 X142.553 Y94.818 E0.01473
G1 X135.182 Y87.447 E0.28783
G1 X134.649 Y87.447 E0.01473
G1 X142.553 Y95.351 E0.30865
M73 P3 R32
G1 X142.553 Y95.884 E0.01473
G1 X134.116 Y87.447 E0.32948
G1 X133.583 Y87.447 E0.01473
G1 X142.553 Y96.417 E0.3503
G1 X142.553 Y96.951 E0.01473
G1 X133.049 Y87.447 E0.37113
G1 X132.516 Y87.447 E0.01473
G1 X142.553 Y97.484 E0.39195
G1 X142.553 Y98.017 E0.01473
G1 X131.983 Y87.447 E0.41278
G1 X131.449 Y87.447 E0.01473
G1 X142.553 Y98.551 E0.4336
G1 X142.553 Y99.084 E0.01473
G1 X130.916 Y87.447 E0.45443
G1 X130.383 Y87.447 E0.01473
G1 X142.553 Y99.617 E0.47525
G1 X142.553 Y100.15 E0.01473
G1 X129.85 Y87.447 E0.49608
G1 X129.316 Y87.447 E0.01473
G1 X142.553 Y100.684 E0.5169
G1 X142.553 Y101.217 E0.01473
G1 X128.783 Y87.447 E0.53773
G1 X128.25 Y87.447 E0.01473
G1 X142.553 Y101.75 E0.55855
G1 X142.553 Y102.283 E0.01473
G1 X127.717 Y87.447 E0.57938
G1 X127.183 Y87.447 E0.01473
G1 X142.553 Y102.817 E0.6002
G1 X142.553 Y103.35 E0.01473
G1 X126.65 Y87.447 E0.62103
G1 X126.117 Y87.447 E0.01473
G1 X142.553 Y103.883 E0.64185
G1 X142.553 Y104.416 E0.01473
G1 X125.584 Y87.447 E0.66268
G1 X125.05 Y87.447 E0.01473
G1 X142.553 Y104.95 E0.6835
G1 X142.553 Y105.483 E0.01473
G1 X124.517 Y87.447 E0.70433
G1 X123.984 Y87.447 E0.01473
G1 X142.553 Y106.016 E0.72515
G1 X142.553 Y106.55 E0.01473
G1 X123.45 Y87.447 E0.74598
G1 X122.917 Y87.447 E0.01473
G1 X142.553 Y107.083 E0.7668
G1 X142.553 Y107.616 E0.01473
G1 X122.384 Y87.447 E0.78763
G1 X121.851 Y87.447 E0.01473
G1 X142.553 Y108.149 E0.80845
M73 P3 R31
G1 X142.553 Y108.683 E0.01473
G1 X121.317 Y87.447 E0.82928
G1 X120.784 Y87.447 E0.01473
G1 X142.553 Y109.216 E0.8501
G1 X142.553 Y109.749 E0.01473
G1 X120.251 Y87.447 E0.87093
M73 P4 R31
G1 X119.718 Y87.447 E0.01473
G1 X142.553 Y110.282 E0.89175
G1 X142.553 Y110.816 E0.01473
G1 X119.184 Y87.447 E0.91258
G1 X118.651 Y87.447 E0.01473
G1 X142.553 Y111.349 E0.9334
G1 X142.553 Y111.882 E0.01473
G1 X118.118 Y87.447 E0.95423
G1 X117.584 Y87.447 E0.01473
G1 X142.553 Y112.416 E0.97505
G1 X142.553 Y112.949 E0.01473
G1 X117.051 Y87.447 E0.99588
G1 X116.518 Y87.447 E0.01473
G1 X142.553 Y113.482 E1.0167
G1 X142.553 Y114.015 E0.01473
G1 X115.985 Y87.447 E1.03753
G1 X115.451 Y87.447 E0.01473
G1 X142.553 Y114.549 E1.05835
G1 X142.553 Y115.082 E0.01473
G1 X114.918 Y87.447 E1.07918
G1 X114.385 Y87.447 E0.01473
G1 X142.553 Y115.615 E1.1
G1 X142.553 Y116.148 E0.01473
G1 X113.852 Y87.447 E1.12083
G1 X113.318 Y87.447 E0.01473
G1 X142.553 Y116.682 E1.14165
G1 X142.553 Y117.215 E0.01473
G1 X112.785 Y87.447 E1.16248
G1 X112.252 Y87.447 E0.01473
G1 X142.553 Y117.748 E1.1833
G1 X142.553 Y118.282 E0.01473
G1 X111.718 Y87.447 E1.20413
M73 P5 R31
G1 X111.185 Y87.447 E0.01473
G1 X142.553 Y118.815 E1.22495
G1 X142.553 Y119.348 E0.01473
G1 X110.652 Y87.447 E1.24578
G1 X110.119 Y87.447 E0.01473
G1 X142.553 Y119.881 E1.2666
G1 X142.553 Y120.415 E0.01473
G1 X109.585 Y87.447 E1.28743
G1 X109.052 Y87.447 E0.01473
G1 X142.553 Y120.948 E1.30825
G1 X142.553 Y121.481 E0.01473
G1 X108.519 Y87.447 E1.32908
G1 X107.986 Y87.447 E0.01473
G1 X142.553 Y122.014 E1.3499
G1 X142.553 Y122.548 E0.01473
G1 X107.452 Y87.447 E1.37073
G1 X107.447 Y87.447 E0.00014
G1 X107.447 Y87.975 E0.01458
G1 X142.025 Y122.553 E1.35031
G1 X141.491 Y122.553 E0.01473
G1 X107.447 Y88.509 E1.32948
G1 X107.447 Y89.042 E0.01473
G1 X140.958 Y122.553 E1.30866
G1 X140.425 Y122.553 E0.01473
G1 X107.447 Y89.575 E1.28783
M73 P6 R31
G1 X107.447 Y90.108 E0.01473
G1 X139.892 Y122.553 E1.26701
G1 X139.358 Y122.553 E0.01473
G1 X107.447 Y90.642 E1.24618
G1 X107.447 Y91.175 E0.01473
G1 X138.825 Y122.553 E1.22536
G1 X138.292 Y122.553 E0.01473
G1 X107.447 Y91.708 E1.20453
G1 X107.447 Y92.241 E0.01473
G1 X137.759 Y122.553 E1.18371
G1 X137.225 Y122.553 E0.01473
G1 X107.447 Y92.775 E1.16288
G1 X107.447 Y93.308 E0.01473
G1 X136.692 Y122.553 E1.14206
G1 X136.159 Y122.553 E0.01473
G1 X107.447 Y93.841 E1.12123
G1 X107.447 Y94.374 E0.01473
G1 X135.626 Y122.553 E1.10041
G1 X135.092 Y122.553 E0.01473
G1 X107.447 Y94.908 E1.07958
G1 X107.447 Y95.441 E0.01473
G1 X134.559 Y122.553 E1.05876
G1 X134.026 Y122.553 E0.01473
G1 X107.447 Y95.974 E1.03793
M73 P6 R30
G1 X107.447 Y96.508 E0.01473
G1 X133.492 Y122.553 E1.01711
G1 X132.959 Y122.553 E0.01473
G1 X107.447 Y97.041 E0.99628
M73 P7 R30
G1 X107.447 Y97.574 E0.01473
G1 X132.426 Y122.553 E0.97546
G1 X131.893 Y122.553 E0.01473
G1 X107.447 Y98.107 E0.95463
G1 X107.447 Y98.641 E0.01473
G1 X131.359 Y122.553 E0.93381
G1 X130.826 Y122.553 E0.01473
G1 X107.447 Y99.174 E0.91298
G1 X107.447 Y99.707 E0.01473
G1 X130.293 Y122.553 E0.89216
G1 X129.76 Y122.553 E0.01473
G1 X107.447 Y100.24 E0.87133
G1 X107.447 Y100.774 E0.01473
G1 X129.226 Y122.553 E0.85051
G1 X128.693 Y122.553 E0.01473
G1 X107.447 Y101.307 E0.82968
G1 X107.447 Y101.84 E0.01473
G1 X128.16 Y122.553 E0.80886
G1 X127.626 Y122.553 E0.01473
G1 X107.447 Y102.374 E0.78803
G1 X107.447 Y102.907 E0.01473
G1 X127.093 Y122.553 E0.76721
G1 X126.56 Y122.553 E0.01473
G1 X107.447 Y103.44 E0.74638
G1 X107.447 Y103.973 E0.01473
G1 X126.027 Y122.553 E0.72556
G1 X125.493 Y122.553 E0.01473
G1 X107.447 Y104.507 E0.70473
G1 X107.447 Y105.04 E0.01473
G1 X124.96 Y122.553 E0.68391
G1 X124.427 Y122.553 E0.01473
G1 X107.447 Y105.573 E0.66308
G1 X107.447 Y106.106 E0.01473
G1 X123.894 Y122.553 E0.64226
G1 X123.36 Y122.553 E0.01473
G1 X107.447 Y106.64 E0.62143
G1 X107.447 Y107.173 E0.01473
G1 X122.827 Y122.553 E0.60061
G1 X122.294 Y122.553 E0.01473
G1 X107.447 Y107.706 E0.57978
M73 P8 R30
G1 X107.447 Y108.24 E0.01473
G1 X121.76 Y122.553 E0.55896
G1 X121.227 Y122.553 E0.01473
G1 X107.447 Y108.773 E0.53813
G1 X107.447 Y109.306 E0.01473
G1 X120.694 Y122.553 E0.51731
G1 X120.161 Y122.553 E0.01473
G1 X107.447 Y109.839 E0.49648
G1 X107.447 Y110.373 E0.01473
G1 X119.627 Y122.553 E0.47566
G1 X119.094 Y122.553 E0.01473
G1 X107.447 Y110.906 E0.45483
G1 X107.447 Y111.439 E0.01473
G1 X118.561 Y122.553 E0.43401
G1 X118.028 Y122.553 E0.01473
G1 X107.447 Y111.972 E0.41318
G1 X107.447 Y112.506 E0.01473
G1 X117.494 Y122.553 E0.39236
G1 X116.961 Y122.553 E0.01473
G1 X107.447 Y113.039 E0.37153
G1 X107.447 Y113.572 E0.01473
G1 X116.428 Y122.553 E0.35071
G1 X115.895 Y122.553 E0.01473
G1 X107.447 Y114.105 E0.32988
G1 X107.447 Y114.639 E0.01473
G1 X115.361 Y122.553 E0.30906
G1 X114.828 Y122.553 E0.01473
G1 X107.447 Y115.172 E0.28823
G1 X107.447 Y115.705 E0.01473
G1 X114.295 Y122.553 E0.26741
G1 X113.761 Y122.553 E0.01473
G1 X107.447 Y116.239 E0.24658
G1 X107.447 Y116.772 E0.01473
G1 X113.228 Y122.553 E0.22576
G1 X112.695 Y122.553 E0.01473
G1 X107.447 Y117.305 E0.20493
G1 X107.447 Y117.838 E0.01473
G1 X112.162 Y122.553 E0.18411
G1 X111.628 Y122.553 E0.01473
G1 X107.447 Y118.372 E0.16328
G1 X107.447 Y118.905 E0.01473
G1 X111.095 Y122.553 E0.14246
G1 X110.562 Y122.553 E0.01473
G1 X107.447 Y119.438 E0.12163
G1 X107.447 Y119.971 E0.01473
G1 X110.029 Y122.553 E0.10081
G1 X109.495 Y122.553 E0.01473
G1 X107.447 Y120.505 E0.07998
G1 X107.447 Y121.038 E0.01473
G1 X108.962 Y122.553 E0.05916
G1 X108.429 Y122.553 E0.01473
G1 X107.447 Y121.571 E0.03833
G1 X107.447 Y122.105 E0.01473
G1 X108.058 Y122.715 E0.02384
M106 S66.3
;LAYER_CHANGE
;Z:0.4
;HEIGHT:0.2
;BEFORE_LAYER_CHANGE
G92 E0.0
;0.4


;WIPE_START
G1 F5760
G1 X107.447 Y122.105 E-0.21359
G1 X107.447 Y121.571 E-0.13193
G1 X107.546 Y121.67 E-0.03448
;WIPE_END
G1 E-0.02 F1500
G1 Z0.6 F7200
; stop printing object Hollow_Pyramid.stl id:0 copy 0
M486 S-1
;AFTER_LAYER_CHANGE
;0.4
G1 Z0.8
; printing object Hollow_Pyramid.stl id:0 copy 0
M486 S0
G1 X106.348 Y121.67
G1 Z0.4
G1 E0.4 F1500
;TYPE:External perimeter
;WIDTH:0.45
G1 F2400
G1 X106.348 Y86.348 E1.05212
G1 X143.652 Y86.348 E1.11116
G1 X143.652 Y123.652 E1.11116
G1 X106.348 Y123.652 E1.11116
G1 X106.348 Y121.73 E0.05725
;WIPE_START
G1 X106.695 Y121.47 F7200
;WIPE_END
G1 X106.755 Y121.47
;TYPE:Internal perimeter
G1 F9000
G1 X106.755 Y86.755 E1.03404
G1 X143.245 Y86.755 E1.08691
G1 X143.245 Y123.245 E1.08691
G1 X106.755 Y123.245 E1.08691
G1 X106.755 Y121.53 E0.05108
G1 X107.162 Y121.47 F7200
G1 F9000
G1 X107.162 Y87.162 E1.02191
G1 X142.838 Y87.162 E1.06266
G1 X142.838 Y122.838 E1.06266
G1 X107.162 Y122.838 E1.06266
G1 X107.162 Y121.53 E0.03896
;WIPE_START
G1 F5760
G1 X107.162 Y119.994 E-0.38
;WIPE_END
G1 E-0.02 F1500
G1 Z0.8 F7200
G1 X107.284 Y87.664
G1 Z0.4
G1 E0.4 F1500
;TYPE:Solid infill
;WIDTH:0.449911
G1 F9000
G1 X107.489 Y87.46 E0.00863
G1 X108.065 Y87.46 E0.01714
G1 X107.46 Y88.065 E0.0255
G1 X107.46 Y88.641 E0.01714
G1 X108.641 Y87.46 E0.04975
G1 X109.216 Y87.46 E0.01714
M73 P9 R30
G1 X107.46 Y89.216 E0.074
G1 X107.46 Y89.792 E0.01714
G1 X109.792 Y87.46 E0.09824
G1 X110.368 Y87.46 E0.01714
G1 X107.46 Y90.368 E0.12249
G1 X107.46 Y90.944 E0.01714
G1 X110.944 Y87.46 E0.14673
G1 X111.519 Y87.46 E0.01714
G1 X107.46 Y91.519 E0.17098
G1 X107.46 Y92.095 E0.01714
G1 X112.095 Y87.46 E0.19523
G1 X112.671 Y87.46 E0.01714
G1 X107.46 Y92.671 E0.21947
G1 X107.46 Y93.246 E0.01714
G1 X113.246 Y87.46 E0.24372
G1 X113.822 Y87.46 E0.01714
G1 X107.46 Y93.822 E0.26797
G1 X107.46 Y94.398 E0.01714
G1 X114.398 Y87.46 E0.29221
G1 X114.973 Y87.46 E0.01714
G1 X107.46 Y94.973 E0.31646
G1 X107.46 Y95.549 E0.01714
G1 X115.549 Y87.46 E0.34071
G1 X116.125 Y87.46 E0.01714
G1 X107.46 Y96.125 E0.36495
G1 X107.46 Y96.7 E0.01714
G1 X116.7 Y87.46 E0.3892
G1 X117.276 Y87.46 E0.01714
G1 X107.46 Y97.276 E0.41345
G1 X107.46 Y97.852 E0.01714
G1 X117.852 Y87.46 E0.43769
G1 X118.428 Y87.46 E0.01714
G1 X107.46 Y98.428 E0.46194
G1 X107.46 Y99.003 E0.01714
G1 X119.003 Y87.46 E0.48619
G1 X119.579 Y87.46 E0.01714
G1 X107.46 Y99.579 E0.51043
G1 X107.46 Y100.155 E0.01714
G1 X120.155 Y87.46 E0.53468
G1 X120.73 Y87.46 E0.01714
G1 X107.46 Y100.73 E0.55892
G1 X107.46 Y101.306 E0.01714
G1 X121.306 Y87.46 E0.58317
G1 X121.882 Y87.46 E0.01714
G1 X107.46 Y101.882 E0.60742
G1 X107.46 Y102.457 E0.01714
G1 X122.457 Y87.46 E0.63166
G1 X123.033 Y87.46 E0.01714
G1 X107.46 Y103.033 E0.65591
G1 X107.46 Y103.609 E0.01714
G1 X123.609 Y87.46 E0.68016
G1 X124.185 Y87.46 E0.01714
G1 X107.46 Y104.185 E0.7044
G1 X107.46 Y104.76 E0.01714
G1 X124.76 Y87.46 E0.72865
G1 X125.336 Y87.46 E0.01714
G1 X107.46 Y105.336 E0.7529
G1 X107.46 Y105.912 E0.01714
G1 X125.912 Y87.46 E0.77714
G1 X126.487 Y87.46 E0.01714
G1 X107.46 Y106.487 E0.80139
G1 X107.46 Y107.063 E0.01714
G1 X127.063 Y87.46 E0.82564
G1 X127.639 Y87.46 E0.01714
G1 X107.46 Y107.639 E0.84988
G1 X107.46 Y108.214 E0.01714
G1 X128.214 Y87.46 E0.87413
G1 X128.79 Y87.46 E0.01714
G1 X107.46 Y108.79 E0.89838
G1 X107.46 Y109.366 E0.01714
G1 X129.366 Y87.46 E0.92262
G1 X129.942 Y87.46 E0.01714
G1 X107.46 Y109.941 E0.94687
G1 X107.46 Y110.517 E0.01714
G1 X130.517 Y87.46 E0.97111
G1 X131.093 Y87.46 E0.01714
G1 X107.46 Y111.093 E0.99536
G1 X107.46 Y111.669 E0.01714
G1 X131.669 Y87.46 E1.01961
G1 X132.244 Y87.46 E0.01714
G1 X107.46 Y112.244 E1.04385
G1 X107.46 Y112.82 E0.01714
G1 X132.82 Y87.46 E1.0681
G1 X133.396 Y87.46 E0.01714
G1 X107.46 Y113.396 E1.09235
G1 X107.46 Y113.971 E0.01714
G1 X133.971 Y87.46 E1.11659
G1 X134.547 Y87.46 E0.01714
G1 X107.46 Y114.547 E1.14084
G1 X107.46 Y115.123 E0.01714
G1 X135.123 Y87.46 E1.16509
G1 X135.698 Y87.46 E0.01714
G1 X107.46 Y115.698 E1.18933
G1 X107.46 Y116.274 E0.01714
G1 X136.274 Y87.46 E1.21358
G1 X136.85 Y87.46 E0.01714
G1 X107.46 Y116.85 E1.23783
G1 X107.46 Y117.426 E0.01714
G1 X137.426 Y87.46 E1.26207
G1 X138.001 Y87.46 E0.01714
G1 X107.46 Y118.001 E1.28632
