; generated by SuperSlicer 2.5.59 on 2023-01-29 at 00:04:25 UTC


;
;
;

; external perimeters extrusion width = 0.45mm
; perimeters extrusion width = 0.45mm
; infill extrusion width = 0.45mm
; solid infill extrusion width = 0.45mm
; top infill extrusion width = 0.40mm
; first layer extrusion width = 0.42mm

; object:{"name":"low_cube","id":"low_cube.stl id:0 copy 0","object_center":[125.000000,105.000000,0.000000],"boundingbox_center":[125.000000,105.000000,6.000000],"boundingbox_size":[80.000000,80.000000,12.000000]}
; Total objects to print: 1
M486 T1
; plater:{"center":[125.000000,105.000000,0.000000],"boundingbox_center":[125.000000,105.000000,6.000000],"boundingbox_size":[80.000000,80.000000,12.000000]}

M73 P0 R16
;
;
;TYPE:Custom
;
; start script for PrusaSlicer for CaribouDuet
;
;
T0                               ; select tool 0
;
M568 P0 S210 R160 A1             ; pre-heat extruder to 160°C
;
G90                              ; absolute positioning
G0 X125 Y-7 Z80 F4000            ; move extruder above bed, keep extruder in front for cleaning and checking
;
M140 S55                         ; this will take the layer 1 temperature for bed 0
M190 S55                         ; wait for bed temp
;
G29                              ; mesh bed leveling using defined mesh grid
G0 X0 Y-3 Z0.6 F4000             ; go outside print area
;
M568 P0 A2                       ; set extruder temperature
M116 P0                          ; wait for extruder temp
;
;
M98 P"0:/sys/primeLine.g"        ; execute primeline macro
;
G92 E0.0                         ; set extruder position
M572 D0 S0.07                    ; set pressure advance
;
;
M106 S0
G21 ; set units to millimeters
G90 ; use absolute coordinates
M83 ; use relative distances for extrusion
;_TOOLCHANGE 0
;
;LAYER_CHANGE
;Z:0.2
;HEIGHT:0.2
;BEFORE_LAYER_CHANGE
G92 E0.0
;0.2


G1 E-0.4 F1500
M73 P2 R15
G1 Z0.4 F7200
;AFTER_LAYER_CHANGE
;0.2
M73 P3 R15
G1 Z0.6
G1 X83.372 Y65.005
G1 Z0.2
G1 E0.4 F1500
;TYPE:Skirt
;WIDTH:0.52
G1 F1800
G1 X82.906 Y65.893 E0.03781
G1 X82.61 Y66.842 E0.03742
G1 X82.484 Y68.006 E0.04414
G1 X82.484 Y144.8 E2.89405
G1 X82.794 Y146.059 E0.04884
G1 X83.793 Y147.123 E0.05503
G1 X85.2 Y147.516 E0.05503
G1 X164.8 Y147.516 E2.99979
G1 X166.059 Y147.206 E0.04884
G1 X167.123 Y146.207 E0.05503
M73 P4 R15
G1 X167.516 Y144.8 E0.05503
G1 X167.516 Y65.2 E2.99979
G1 X167.206 Y63.941 E0.04884
G1 X166.207 Y62.877 E0.05503
G1 X164.8 Y62.484 E0.05503
G1 X88.006 Y62.484 E2.89405
G1 X86.842 Y62.61 E0.04414
G1 X85.893 Y62.906 E0.03742
G1 X85.005 Y63.372 E0.03781
G1 X83.984 Y64.223 E0.0501
G1 X83.409 Y64.958 E0.03517
G1 X83.782 Y65.25 F7200
G1 F1800
G1 X83.341 Y66.089 E0.03573
G1 X83.08 Y66.927 E0.03309
G1 X82.961 Y68.006 E0.04089
G1 X82.961 Y144.8 E2.89405
G1 X83.114 Y145.611 E0.03109
G1 X83.936 Y146.647 E0.04987
M73 P5 R15
G1 X85.2 Y147.039 E0.04987
G1 X164.8 Y147.039 E2.99979
G1 X165.611 Y146.886 E0.03109
G1 X166.647 Y146.064 E0.04987
G1 X167.039 Y144.8 E0.04987
G1 X167.039 Y65.2 E2.99979
G1 X166.886 Y64.389 E0.03109
G1 X166.064 Y63.353 E0.04987
G1 X164.8 Y62.961 E0.04987
G1 X88.006 Y62.961 E2.89405
G1 X86.927 Y63.08 E0.04089
G1 X86.089 Y63.341 E0.03309
G1 X85.252 Y63.78 E0.03563
G1 X84.322 Y64.561 E0.04576
G1 X83.819 Y65.203 E0.03074
;WIPE_START
G1 F5760
G1 X83.78 Y65.252 E-0.01546
G1 X83.341 Y66.089 E-0.23392
G1 X83.184 Y66.593 E-0.13062
;WIPE_END
G1 E-0.02 F1500
G1 Z0.6 F7200
; printing object low_cube.stl id:0 copy 0
M486 S0
G1 X164.59 Y144.59
G1 Z0.2
G1 E0.4 F1500
;TYPE:External perimeter
;WIDTH:0.42
M73 P6 R15
G1 F2400
G1 X85.41 Y144.59 E2.3585
G1 X85.41 Y68.012 E2.28099
G1 X85.43 Y67.688 E0.00966
G1 X85.486 Y67.381 E0.00932
G1 X85.579 Y67.082 E0.00932
G1 X85.707 Y66.797 E0.00932
G1 X85.869 Y66.529 E0.00932
G1 X86.062 Y66.283 E0.00932
G1 X86.283 Y66.062 E0.00931
G1 X86.529 Y65.869 E0.00932
G1 X86.797 Y65.707 E0.00932
G1 X87.082 Y65.579 E0.00932
G1 X87.381 Y65.486 E0.00932
G1 X87.688 Y65.43 E0.00932
G1 X88.012 Y65.41 E0.00966
G1 X164.59 Y65.41 E2.28099
G1 X164.59 Y144.53 E2.35671
;WIPE_START
G1 X164.244 Y144.39 F7200
;WIPE_END
M106 S84.15
;LAYER_CHANGE
;Z:0.4
;HEIGHT:0.2
;BEFORE_LAYER_CHANGE
G92 E0.0
;0.4


;WIPE_START
G1 F5760
G1 X162.708 Y144.39 E-0.38
;WIPE_END
G1 E-0.02 F1500
G1 Z0.6 F7200
; stop printing object low_cube.stl id:0 copy 0
M486 S-1
;AFTER_LAYER_CHANGE
;0.4
G1 Z0.8
; printing object low_cube.stl id:0 copy 0
M486 S0
G1 X164.775 Y144.775
G1 Z0.4
G1 E0.4 F1500
;WIDTH:0.45
G1 F2400
G1 X85.225 Y144.775 E2.55804
G1 X85.225 Y68.007 E2.46857
G1 X85.248 Y67.65 E0.01152
M73 P7 R14
G1 X85.306 Y67.338 E0.01021
G1 X85.405 Y67.017 E0.01079
G1 X85.543 Y66.711 E0.01078
G1 X85.716 Y66.424 E0.01078
G1 X85.923 Y66.16 E0.01079
G1 X86.16 Y65.923 E0.01077
G1 X86.424 Y65.716 E0.01079
G1 X86.711 Y65.543 E0.01079
G1 X87.001 Y65.413 E0.01021
G1 X87.338 Y65.306 E0.01138
G1 X87.667 Y65.245 E0.01077
G1 X88.007 Y65.225 E0.01093
G1 X164.775 Y65.225 E2.46859
G1 X164.775 Y144.715 E2.55611
;WIPE_START
G1 X164.429 Y144.575 F7200
;WIPE_END
M106 S168.3
;LAYER_CHANGE
;Z:0.6
;HEIGHT:0.2
;BEFORE_LAYER_CHANGE
G92 E0.0
;0.6


;WIPE_START
G1 F5760
G1 X162.893 Y144.575 E-0.38
;WIPE_END
G1 E-0.02 F1500
G1 Z0.8 F7200
; stop printing object low_cube.stl id:0 copy 0
M486 S-1
;AFTER_LAYER_CHANGE
;0.6
G1 Z1
; printing object low_cube.stl id:0 copy 0
M486 S0
G1 X164.775 Y144.775
G1 Z0.6
G1 E0.4 F1500
G1 F1273
G1 X85.225 Y144.775 E2.55804
G1 X85.225 Y68.008 E2.46856
G1 X85.25 Y67.639 E0.01187
M73 P8 R14
G1 X85.305 Y67.339 E0.00983
G1 X85.405 Y67.019 E0.01076
G1 X85.558 Y66.686 E0.01178
G1 X85.716 Y66.425 E0.00983
G1 X85.923 Y66.16 E0.0108
G1 X86.16 Y65.923 E0.01077
G1 X86.425 Y65.716 E0.0108
G1 X86.712 Y65.543 E0.01079
G1 X86.991 Y65.417 E0.00983
G1 X87.339 Y65.305 E0.01178
G1 X87.669 Y65.245 E0.01076
G1 X88.007 Y65.225 E0.01089
G1 X164.775 Y65.225 E2.46859
G1 X164.775 Y144.715 E2.55611
;WIPE_START
G1 X164.429 Y144.575 F7200
;WIPE_END
M106 S252.45
;LAYER_CHANGE
;Z:0.8
;HEIGHT:0.2
;BEFORE_LAYER_CHANGE
G92 E0.0
;0.8


;WIPE_START
G1 F5760
M73 P9 R14
G1 X162.893 Y144.575 E-0.38
;WIPE_END
G1 E-0.02 F1500
G1 Z1 F7200
; stop printing object low_cube.stl id:0 copy 0
M486 S-1
;AFTER_LAYER_CHANGE
;0.8
G1 Z1.2
; printing object low_cube.stl id:0 copy 0
M486 S0
G1 X164.775 Y144.775
G1 Z0.8
G1 E0.4 F1500
G1 F1273
G1 X85.225 Y144.775 E2.55804
G1 X85.225 Y68.008 E2.46855
G1 X85.252 Y67.629 E0.01223
G1 X85.305 Y67.34 E0.00946
M73 P10 R14
G1 X85.404 Y67.02 E0.01076
G1 X85.564 Y66.676 E0.01218
G1 X85.716 Y66.425 E0.00945
G1 X85.923 Y66.16 E0.01081
G1 X86.16 Y65.923 E0.01077
G1 X86.425 Y65.716 E0.01081
G1 X86.712 Y65.542 E0.0108
G1 X86.981 Y65.422 E0.00946
G1 X87.341 Y65.305 E0.01217
G1 X87.67 Y65.245 E0.01076
G1 X88.007 Y65.225 E0.01085
G1 X164.775 Y65.225 E2.46859
G1 X164.775 Y144.715 E2.55611
;WIPE_START
G1 X164.429 Y144.575 F7200
;WIPE_END
;LAYER_CHANGE
;Z:1
;HEIGHT:0.2
;BEFORE_LAYER_CHANGE
G92 E0.0
;1


;WIPE_START
G1 F5760
G1 X162.893 Y144.575 E-0.38
;WIPE_END
G1 E-0.02 F1500
G1 Z1.2 F7200
; stop printing object low_cube.stl id:0 copy 0
M486 S-1
;AFTER_LAYER_CHANGE
;1
G1 Z1.4
; printing object low_cube.stl id:0 copy 0
M486 S0
G1 X164.775 Y144.775
G1 Z1
G1 E0.4 F1500
G1 F1273
G1 X85.225 Y144.775 E2.55804
G1 X85.225 Y68.008 E2.46854
G1 X85.254 Y67.618 E0.01258
M73 P11 R14
G1 X85.305 Y67.341 E0.00908
G1 X85.404 Y67.021 E0.01076
G1 X85.57 Y66.667 E0.01257
G1 X85.716 Y66.425 E0.00908
G1 X85.923 Y66.16 E0.01083
G1 X86.16 Y65.923 E0.01077
G1 X86.425 Y65.716 E0.01082
G1 X86.713 Y65.542 E0.01081
G1 X87.019 Y65.405 E0.01081
G1 X87.34 Y65.305 E0.01081
G1 X87.671 Y65.245 E0.01081
G1 X88.007 Y65.225 E0.01081
G1 X164.775 Y65.225 E2.46859
G1 X164.775 Y144.715 E2.55611
;WIPE_START
G1 X164.429 Y144.575 F7200
;WIPE_END
;LAYER_CHANGE
;Z:1.2
;HEIGHT:0.2
;BEFORE_LAYER_CHANGE
G92 E0.0
;1.2


;WIPE_START
M73 P12 R14
G1 F5760
G1 X162.893 Y144.575 E-0.38
;WIPE_END
G1 E-0.02 F1500
G1 Z1.4 F7200
; stop printing object low_cube.stl id:0 copy 0
M486 S-1
;AFTER_LAYER_CHANGE
;1.2
G1 Z1.6
; printing object low_cube.stl id:0 copy 0
M486 S0
G1 X164.775 Y144.775
G1 Z1.2
G1 E0.4 F1500
G1 F1273
G1 X85.225 Y144.775 E2.55804
G1 X85.225 Y68.009 E2.46853
G1 X85.256 Y67.608 E0.01293
G1 X85.305 Y67.342 E0.0087
M73 P13 R13
G1 X85.404 Y67.022 E0.01075
G1 X85.576 Y66.657 E0.01298
G1 X85.715 Y66.425 E0.0087
G1 X85.923 Y66.16 E0.01084
G1 X86.16 Y65.923 E0.01077
G1 X86.425 Y65.716 E0.01083
G1 X86.713 Y65.542 E0.01082
G1 X86.96 Y65.431 E0.0087
G1 X87.343 Y65.304 E0.01297
G1 X87.672 Y65.245 E0.01075
G1 X88.007 Y65.225 E0.01077
G1 X164.775 Y65.225 E2.46859
G1 X164.775 Y144.715 E2.55611
;WIPE_START
G1 X164.429 Y144.575 F7200
;WIPE_END
;LAYER_CHANGE
;Z:1.4
;HEIGHT:0.2
;BEFORE_LAYER_CHANGE
G92 E0.0
;1.4


;WIPE_START
G1 F5760
M73 P14 R13
G1 X162.893 Y144.575 E-0.38
;WIPE_END
G1 E-0.02 F1500
G1 Z1.6 F7200
; stop printing object low_cube.stl id:0 copy 0
M486 S-1
;AFTER_LAYER_CHANGE
;1.4
G1 Z1.8
; printing object low_cube.stl id:0 copy 0
M486 S0
G1 X164.775 Y144.775
G1 Z1.4
G1 E0.4 F1500
G1 F1273
G1 X85.225 Y144.775 E2.55804
G1 X85.225 Y68.009 E2.46852
G1 X85.258 Y67.597 E0.01328
G1 X85.304 Y67.343 E0.00832
G1 X85.403 Y67.023 E0.01075
G1 X85.581 Y66.647 E0.01338
G1 X85.715 Y66.426 E0.00832
G1 X85.923 Y66.16 E0.01085
G1 X86.16 Y65.923 E0.01077
G1 X86.426 Y65.715 E0.01084
G1 X86.714 Y65.541 E0.01083
G1 X86.95 Y65.435 E0.00832
G1 X87.345 Y65.304 E0.01338
G1 X87.674 Y65.245 E0.01075
G1 X88.007 Y65.225 E0.01073
G1 X164.775 Y65.225 E2.46859
G1 X164.775 Y144.715 E2.55611
;WIPE_START
G1 X164.429 Y144.575 F7200
;WIPE_END
;LAYER_CHANGE
;Z:1.6
;HEIGHT:0.2
;BEFORE_LAYER_CHANGE
G92 E0.0
;1.6


;WIPE_START
M73 P15 R13
G1 F5760
G1 X162.893 Y144.575 E-0.38
;WIPE_END
G1 E-0.02 F1500
G1 Z1.8 F7200
; stop printing object low_cube.stl id:0 copy 0
M486 S-1
;AFTER_LAYER_CHANGE
;1.6
G1 Z2
; printing object low_cube.stl id:0 copy 0
M486 S0
G1 X164.775 Y144.775
G1 Z1.6
G1 E0.4 F1500
G1 F1273
G1 X85.225 Y144.775 E2.55804
G1 X85.225 Y68.009 E2.46851
G1 X85.26 Y67.587 E0.01364
M73 P16 R13
G1 X85.304 Y67.344 E0.00795
G1 X85.403 Y67.024 E0.01075
G1 X85.587 Y66.637 E0.01378
G1 X85.715 Y66.426 E0.00794
G1 X85.923 Y66.16 E0.01086
G1 X86.16 Y65.923 E0.01077
G1 X86.355 Y65.771 E0.00794
G1 X86.717 Y65.54 E0.01381
G1 X87.022 Y65.404 E0.01074
G1 X87.343 Y65.304 E0.01083
G1 X87.675 Y65.245 E0.01083
G1 X88.007 Y65.225 E0.01069
G1 X164.775 Y65.225 E2.46859
G1 X164.775 Y144.715 E2.55611
;WIPE_START
G1 X164.429 Y144.575 F7200
;WIPE_END
;LAYER_CHANGE
;Z:1.8
;HEIGHT:0.2
;BEFORE_LAYER_CHANGE
G92 E0.0
;1.8


;WIPE_START
G1 F5760
M73 P17 R13
G1 X162.893 Y144.575 E-0.38
;WIPE_END
G1 E-0.02 F1500
G1 Z2 F7200
; stop printing object low_cube.stl id:0 copy 0
M486 S-1
;AFTER_LAYER_CHANGE
;1.8
G1 Z2.2
; printing object low_cube.stl id:0 copy 0
M486 S0
G1 X164.775 Y144.775
G1 Z1.8
G1 E0.4 F1500
G1 F1273
G1 X85.225 Y144.775 E2.55804
G1 X85.225 Y68.009 E2.4685
G1 X85.262 Y67.576 E0.01399
G1 X85.304 Y67.345 E0.00757
M73 P18 R13
G1 X85.403 Y67.025 E0.01075
G1 X85.593 Y66.627 E0.01418
G1 X85.715 Y66.426 E0.00756
G1 X85.923 Y66.16 E0.01087
G1 X86.16 Y65.923 E0.01077
G1 X86.426 Y65.715 E0.01087
G1 X86.715 Y65.541 E0.01084
G1 X86.929 Y65.444 E0.00756
G1 X87.347 Y65.304 E0.01417
G1 X87.676 Y65.244 E0.01075
G1 X88.007 Y65.225 E0.01065
G1 X164.775 Y65.225 E2.46859
G1 X164.775 Y144.715 E2.55611
;WIPE_START
G1 X164.429 Y144.575 F7200
;WIPE_END
;LAYER_CHANGE
;Z:2
;HEIGHT:0.2
;BEFORE_LAYER_CHANGE
G92 E0.0
;2


;WIPE_START
G1 F5760
G1 X162.893 Y144.575 E-0.38
;WIPE_END
G1 E-0.02 F1500
G1 Z2.2 F7200
; stop printing object low_cube.stl id:0 copy 0
M486 S-1
;AFTER_LAYER_CHANGE
;2
G1 Z2.4
; printing object low_cube.stl id:0 copy 0
M486 S0
G1 X164.775 Y144.775
G1 Z2
G1 E0.4 F1500
G1 F1273
G1 X85.225 Y144.775 E2.55804
G1 X85.225 Y68.01 E2.46849
G1 X85.263 Y67.565 E0.01434
M73 P19 R13
G1 X85.304 Y67.346 E0.00719
M73 P19 R12
G1 X85.402 Y67.026 E0.01075
G1 X85.599 Y66.618 E0.01458
G1 X85.715 Y66.427 E0.00718
G1 X85.923 Y66.16 E0.01088
G1 X86.16 Y65.923 E0.01077
G1 X86.336 Y65.785 E0.00718
G1 X86.718 Y65.539 E0.01462
G1 X87.023 Y65.403 E0.01073
G1 X87.345 Y65.304 E0.01084
G1 X87.677 Y65.244 E0.01085
G1 X88.007 Y65.225 E0.01061
G1 X164.775 Y65.225 E2.46859
G1 X164.775 Y144.715 E2.55611
;WIPE_START
G1 X164.429 Y144.575 F7200
;WIPE_END
;LAYER_CHANGE
;Z:2.2
;HEIGHT:0.2
;BEFORE_LAYER_CHANGE
G92 E0.0
;2.2


;WIPE_START
M73 P20 R12
G1 F5760
G1 X162.893 Y144.575 E-0.38
;WIPE_END
G1 E-0.02 F1500
G1 Z2.4 F7200
; stop printing object low_cube.stl id:0 copy 0
M486 S-1
;AFTER_LAYER_CHANGE
;2.2
G1 Z2.6
; printing object low_cube.stl id:0 copy 0
M486 S0
G1 X164.775 Y144.775
G1 Z2.2
G1 E0.4 F1500
G1 F1273
G1 X85.225 Y144.775 E2.55804
G1 X85.225 Y68.01 E2.46849
G1 X85.265 Y67.555 E0.01469
G1 X85.303 Y67.347 E0.00681
M73 P21 R12
G1 X85.402 Y67.027 E0.01075
G1 X85.605 Y66.608 E0.01498
G1 X85.714 Y66.427 E0.0068
G1 X85.923 Y66.16 E0.01089
G1 X86.16 Y65.923 E0.01077
G1 X86.327 Y65.793 E0.0068
G1 X86.719 Y65.539 E0.01502
G1 X87.024 Y65.403 E0.01073
G1 X87.346 Y65.304 E0.01085
G1 X87.678 Y65.244 E0.01086
G1 X88.007 Y65.225 E0.01057
G1 X164.775 Y65.225 E2.46859
G1 X164.775 Y144.715 E2.55611
;WIPE_START
G1 X164.429 Y144.575 F7200
;WIPE_END
;LAYER_CHANGE
;Z:2.4
;HEIGHT:0.2
;BEFORE_LAYER_CHANGE
G92 E0.0
;2.4


;WIPE_START
G1 F5760
M73 P22 R12
G1 X162.893 Y144.575 E-0.38
;WIPE_END
G1 E-0.02 F1500
G1 Z2.6 F7200
; stop printing object low_cube.stl id:0 copy 0
M486 S-1
;AFTER_LAYER_CHANGE
;2.4
G1 Z2.8
; printing object low_cube.stl id:0 copy 0
M486 S0
G1 X164.775 Y144.775
G1 Z2.4
G1 E0.4 F1500
G1 F1273
G1 X85.225 Y144.775 E2.55804
G1 X85.225 Y68.01 E2.46848
G1 X85.267 Y67.544 E0.01505
G1 X85.303 Y67.348 E0.00643
G1 X85.402 Y67.028 E0.01075
G1 X85.611 Y66.598 E0.01538
G1 X85.714 Y66.427 E0.00642
G1 X85.923 Y66.16 E0.01091
G1 X86.16 Y65.923 E0.01077
G1 X86.427 Y65.714 E0.0109
G1 X86.716 Y65.54 E0.01086
G1 X86.898 Y65.458 E0.00642
G1 X87.351 Y65.303 E0.01538
G1 X87.68 Y65.244 E0.01075
G1 X88.007 Y65.225 E0.01053
G1 X164.775 Y65.225 E2.4686
G1 X164.775 Y144.715 E2.55611
;WIPE_START
G1 X164.429 Y144.575 F7200
;WIPE_END
;LAYER_CHANGE
;Z:2.6
;HEIGHT:0.2
;BEFORE_LAYER_CHANGE
G92 E0.0
;2.6


;WIPE_START
M73 P23 R12
G1 F5760
G1 X162.893 Y144.575 E-0.38
;WIPE_END
G1 E-0.02 F1500
G1 Z2.8 F7200
; stop printing object low_cube.stl id:0 copy 0
M486 S-1
;AFTER_LAYER_CHANGE
;2.6
G1 Z3
; printing object low_cube.stl id:0 copy 0
M486 S0
G1 X164.775 Y144.775
G1 Z2.6
G1 E0.4 F1500
G1 F1273
G1 X85.225 Y144.775 E2.55804
G1 X85.225 Y68.01 E2.46847
G1 X85.303 Y67.349 E0.02143
M73 P24 R12
G1 X85.402 Y67.025 E0.01088
G1 X85.54 Y66.716 E0.01087
G1 X85.714 Y66.427 E0.01084
G1 X85.923 Y66.16 E0.01092
G1 X86.16 Y65.923 E0.01077
G1 X86.427 Y65.714 E0.0109
G1 X86.717 Y65.54 E0.01086
G1 X87.025 Y65.402 E0.01086
G1 X87.348 Y65.303 E0.01086
G1 X87.681 Y65.244 E0.01087
G1 X88.007 Y65.225 E0.01049
G1 X164.775 Y65.225 E2.4686
G1 X164.775 Y144.715 E2.55611
;WIPE_START
G1 X164.429 Y144.575 F7200
;WIPE_END
;LAYER_CHANGE
;Z:2.8
;HEIGHT:0.2
;BEFORE_LAYER_CHANGE
G92 E0.0
;2.8


;WIPE_START
G1 F5760
M73 P25 R12
G1 X162.893 Y144.575 E-0.38
;WIPE_END
G1 E-0.02 F1500
G1 Z3 F7200
; stop printing object low_cube.stl id:0 copy 0
M486 S-1
;AFTER_LAYER_CHANGE
;2.8
G1 Z3.2
; printing object low_cube.stl id:0 copy 0
M486 S0
G1 X164.775 Y144.775
G1 Z2.8
G1 E0.4 F1500
G1 F1273
G1 X85.225 Y144.775 E2.55804
G1 X85.225 Y68.006 E2.4686
G1 X85.244 Y67.681 E0.01047
M73 P25 R11
G1 X85.303 Y67.35 E0.01084
M73 P26 R11
G1 X85.402 Y67.026 E0.01089
G1 X85.54 Y66.717 E0.01088
G1 X85.714 Y66.428 E0.01085
G1 X85.923 Y66.16 E0.01093
G1 X86.16 Y65.923 E0.01077
G1 X86.427 Y65.714 E0.01091
G1 X86.717 Y65.54 E0.01087
G1 X87.026 Y65.402 E0.01087
G1 X87.349 Y65.303 E0.01087
G1 X87.682 Y65.244 E0.01088
G1 X88.006 Y65.225 E0.01045
G1 X164.775 Y65.225 E2.4686
G1 X164.775 Y144.715 E2.55611
;WIPE_START
G1 X164.429 Y144.575 F7200
;WIPE_END
;LAYER_CHANGE
;Z:3
;HEIGHT:0.2
;BEFORE_LAYER_CHANGE
G92 E0.0
;3


;WIPE_START
G1 F5760
G1 X162.893 Y144.575 E-0.38
;WIPE_END
G1 E-0.02 F1500
G1 Z3.2 F7200
; stop printing object low_cube.stl id:0 copy 0
M486 S-1
;AFTER_LAYER_CHANGE
;3
G1 Z3.4
; printing object low_cube.stl id:0 copy 0
M486 S0
