; generated by SuperSlicer 2.5.59 on 2023-01-29 at 13:55:37 UTC


;
;
; 

; external perimeters extrusion width = 0.45mm
; perimeters extrusion width = 0.45mm
; infill extrusion width = 0.45mm
; solid infill extrusion width = 0.45mm
; top infill extrusion width = 0.40mm
; first layer extrusion width = 0.42mm

; object:{"name":"infinity_cube","id":"infinity_cube.stl id:0 copy 0","object_center":[125.000000,105.000000,0.000000],"boundingbox_center":[125.000000,105.000000,6.000000],"boundingbox_size":[48.719998,24.240001,12.000000]}
; Total objects to print: 1
M486 T1
; plater:{"center":[125.000000,105.000000,0.000000],"boundingbox_center":[125.000000,105.000000,6.000000],"boundingbox_size":[48.719998,24.240001,12.000000]}

M73 P0 R64
;
;TYPE:Custom
;
; start script for PrusaSlicer for CaribouDuet
;
;
T0                               ; select tool 0
;
M568 P0 S160 R160 A2             ; pre-heat extruder to 160°C
;
G90                              ; absolute positioning
G0 X125 Y-7 Z80 F4000            ; move extruder above bed, keep extruder in front for cleaning and checking
;
M140 S55                         ; this will take the layer 1 temperature for bed 0
M190 S55                         ; wait for bed temp
;
G29                              ; mesh bed leveling using defined mesh grid
G0 X0 Y-3 Z0.6 F4000             ; go outside print area
;
M568 P0 S210 A2                  ; set extruder temperature
M116 P0                          ; wait for extruder temp
;
;
M98 P"0:/sys/primeLine.g"        ; execute primeline macro
;
G92 E0.0                         ; set extruder position
M572 D0 S0.07                    ; set pressure advance
;
;
M106 S0
G21 ; set units to millimeters
G90 ; use absolute coordinates
M83 ; use relative distances for extrusion
;_TOOLCHANGE 0
;
M116 ; wait for temperature to be reached
M106 S0
;LAYER_CHANGE
;Z:0.2
;HEIGHT:0.2
;BEFORE_LAYER_CHANGE
G92 E0.0
;0.2


G1 E-0.4 F1500
G1 Z0.4 F7200
;AFTER_LAYER_CHANGE
;0.2
G1 Z0.6
G1 X100.217 Y93.373
G1 Z0.2
G1 E0.4 F1500
;TYPE:Skirt
;WIDTH:0.52
G1 F1800
G1 X99.824 Y94.78 E0.05098
G1 X99.824 Y115.22 E0.71354
G1 X100.134 Y116.479 E0.04524
G1 X101.133 Y117.543 E0.05098
G1 X102.54 Y117.936 E0.05098
G1 X147.46 Y117.936 E1.56811
G1 X148.719 Y117.626 E0.04524
G1 X149.783 Y116.627 E0.05098
G1 X150.176 Y115.22 E0.05098
G1 X150.176 Y94.78 E0.71354
G1 X149.866 Y93.521 E0.04524
G1 X148.867 Y92.457 E0.05098
G1 X147.46 Y92.064 E0.05098
G1 X102.54 Y92.064 E1.56811
G1 X101.281 Y92.374 E0.04524
G1 X100.261 Y93.332 E0.04888
M73 P1 R64
G1 X100.693 Y93.516 F7200
G1 F1800
G1 X100.301 Y94.78 E0.04619
G1 X100.301 Y115.22 E0.71354
G1 X100.454 Y116.031 E0.0288
G1 X101.276 Y117.067 E0.04619
G1 X102.54 Y117.459 E0.04619
G1 X147.46 Y117.459 E1.56811
G1 X148.271 Y117.306 E0.0288
G1 X149.307 Y116.484 E0.04619
G1 X149.699 Y115.22 E0.04619
G1 X149.699 Y94.78 E0.71354
G1 X149.546 Y93.969 E0.0288
G1 X148.724 Y92.933 E0.04619
G1 X147.46 Y92.541 E0.04619
G1 X102.54 Y92.541 E1.56811
G1 X101.729 Y92.694 E0.0288
G1 X100.74 Y93.479 E0.0441
;WIPE_START
G1 F5760
G1 X100.301 Y94.78 E-0.33971
G1 X100.301 Y94.943 E-0.04029
;WIPE_END
G1 E-0.02 F1500
G1 Z0.6 F7200
; printing object infinity_cube.stl id:0 copy 0
M486 S0
G1 X102.75 Y107.23
G1 Z0.2
G1 E0.4 F1500
;TYPE:External perimeter
;WIDTH:0.42
G1 F2400
G1 X110.53 Y107.23 E0.21466
G1 X110.53 Y107.71 E0.01324
G1 X108.03 Y107.71 E0.06898
G1 X108.03 Y114.53 E0.18818
G1 X110.53 Y114.53 E0.06898
G1 X110.53 Y115.01 E0.01324
G1 X102.75 Y115.01 E0.21466
G1 X102.75 Y107.29 E0.21301
;WIPE_START
G1 X103.096 Y107.43 F7200
;WIPE_END
G1 X103.127 Y107.607
;TYPE:Internal perimeter
G1 F3000
G1 X107.653 Y107.607 E0.12488
G1 X107.653 Y114.633 E0.19386
G1 X103.127 Y114.633 E0.12488
G1 X103.127 Y107.667 E0.1922
G1 X103.504 Y107.984 F7200
G1 F3000
G1 X107.276 Y107.984 E0.10407
G1 X107.276 Y114.256 E0.17305
G1 X103.504 Y114.256 E0.10407
G1 X103.504 Y108.044 E0.17139
;WIPE_START
G1 F5760
G1 X105.04 Y108.02 E-0.38
;WIPE_END
G1 E-0.02 F1500
G1 Z0.6 F7200
G1 X106.4 Y108.097
G1 Z0.2
G1 E0.4 F1500
;TYPE:Solid infill
;WIDTH:0.427644
G1 F1800
G1 X107.001 Y108.697 E0.02384
G1 X107.001 Y109.231 E0.01498
G1 X106.029 Y108.259 E0.03859
G1 X105.496 Y108.259 E0.01498
G1 X107.001 Y109.764 E0.05978
G1 X107.001 Y110.297 E0.01498
G1 X104.963 Y108.259 E0.08096
G1 X104.43 Y108.259 E0.01498
G1 X107.001 Y110.83 E0.10215
G1 X107.001 Y111.364 E0.01498
G1 X103.896 Y108.259 E0.12334
G1 X103.779 Y108.259 E0.00328
G1 X103.779 Y108.676 E0.0117
G1 X107.001 Y111.897 E0.12798
G1 X107.001 Y112.43 E0.01498
G1 X103.779 Y109.209 E0.12798
G1 X103.779 Y109.742 E0.01498
G1 X107.001 Y112.964 E0.12798
G1 X107.001 Y113.497 E0.01498
G1 X103.779 Y110.276 E0.12798
G1 X103.779 Y110.809 E0.01498
G1 X106.951 Y113.981 E0.12602
G1 X106.418 Y113.981 E0.01498
G1 X103.779 Y111.342 E0.10483
G1 X103.779 Y111.875 E0.01498
G1 X105.885 Y113.981 E0.08364
G1 X105.351 Y113.981 E0.01498
G1 X103.779 Y112.409 E0.06245
G1 X103.779 Y112.942 E0.01498
G1 X104.818 Y113.981 E0.04127
G1 X104.285 Y113.981 E0.01498
G1 X103.617 Y113.313 E0.02652
;WIPE_START
G1 F5760
G1 X104.285 Y113.981 E-0.23355
G1 X104.818 Y113.981 E-0.13193
G1 X104.777 Y113.939 E-0.01452
;WIPE_END
G1 E-0.02 F1500
G1 Z0.6 F7200
G1 X107.826 Y114.77
G1 Z0.2
G1 E0.4 F1500
;TYPE:Gap fill
;WIDTH:0.176085
G1 F2400
G1 X107.893 Y114.77 E0.00065
G1 X110.29 Y114.77 E0.02336
G1 X110.357 Y114.77 E0.00065
;WIPE_START
G1 F5760
G1 X110.29 Y114.77 E-0.01647
G1 X108.821 Y114.77 E-0.36353
;WIPE_END
G1 E-0.02 F1500
G1 Z0.6 F7200
G1 X110.357 Y107.47
G1 Z0.2
G1 E0.4 F1500
;WIDTH:0.176084
G1 F2400
G1 X107.826 Y107.47 E0.02465
;WIPE_START
G1 F5760
G1 X109.362 Y107.47 E-0.38
;WIPE_END
G1 E-0.02 F1500
G1 Z0.6 F7200
G1 X110.452 Y108.77
G1 Z0.2
G1 E0.4 F1500
;TYPE:External perimeter
;WIDTH:0.42
G1 F2311.9468
M73 P1 R63
G1 X115.068 Y108.77 E0.12734
G1 X115.068 Y113.47 E0.12968
G1 X110.452 Y113.47 E0.12734
G1 X110.452 Y108.83 E0.12803
;WIPE_START
G1 X110.799 Y108.97 F7200
;WIPE_END
G1 X110.83 Y109.147
;TYPE:Internal perimeter
G1 F3000
G1 X114.69 Y109.147 E0.10653
G1 X114.69 Y113.093 E0.10887
G1 X110.83 Y113.093 E0.10653
G1 X110.83 Y109.207 E0.10722
G1 X111.207 Y109.524 F7200
G1 F3000
G1 X114.313 Y109.524 E0.08572
G1 X114.313 Y112.716 E0.08806
G1 X111.207 Y112.716 E0.08572
G1 X111.207 Y109.584 E0.08641
;WIPE_START
G1 F5760
G1 X112.742 Y109.554 E-0.38
;WIPE_END
G1 E-0.02 F1500
G1 Z0.6 F7200
G1 X113.438 Y109.637
G1 Z0.2
G1 E0.4 F1500
;TYPE:Solid infill
;WIDTH:0.436166
G1 F1800
G1 X114.038 Y110.237 E0.02432
G1 X114.038 Y110.771 E0.01528
G1 X113.067 Y109.799 E0.03936
G1 X112.534 Y109.799 E0.01528
G1 X114.038 Y111.304 E0.06097
G1 X114.038 Y111.837 E0.01528
G1 X112 Y109.799 E0.08258
G1 X111.482 Y109.799 E0.01486
G1 X111.482 Y109.814 E0.00042
G1 X114.038 Y112.37 E0.10359
G1 X114.038 Y112.441 E0.00201
G1 X113.575 Y112.441 E0.01327
G1 X111.482 Y110.347 E0.08482
G1 X111.482 Y110.881 E0.01528
G1 X113.042 Y112.441 E0.06321
G1 X112.509 Y112.441 E0.01528
G1 X111.482 Y111.414 E0.0416
G1 X111.482 Y111.947 E0.01528
G1 X112.137 Y112.603 E0.02657
;WIPE_START
G1 F5760
G1 X111.482 Y111.947 E-0.22936
G1 X111.482 Y111.414 E-0.13193
G1 X111.535 Y111.467 E-0.01871
;WIPE_END
G1 E-0.02 F1500
G1 Z0.6 F7200
G1 X114.99 Y114.53
G1 Z0.2
G1 E0.4 F1500
;TYPE:External perimeter
;WIDTH:0.42
G1 F2400
G1 X117.49 Y114.53 E0.06898
G1 X117.49 Y107.71 E0.18818
G1 X114.99 Y107.71 E0.06898
G1 X114.99 Y107.23 E0.01324
G1 X122.77 Y107.23 E0.21466
G1 X122.77 Y115.01 E0.21466
G1 X114.99 Y115.01 E0.21466
G1 X114.99 Y114.59 E0.01159
;WIPE_START
G1 X115.336 Y114.73 F7200
;WIPE_END
;WIPE_START
G1 F5760
G1 X116.872 Y114.73 E-0.38
;WIPE_END
G1 E-0.02 F1500
G1 Z0.6 F7200
G1 X117.867 Y114.633
G1 Z0.2
G1 E0.4 F1500
;TYPE:Internal perimeter
G1 F3000
G1 X117.867 Y107.607 E0.19386
G1 X122.393 Y107.607 E0.12488
G1 X122.393 Y114.633 E0.19386
G1 X117.927 Y114.633 E0.12322
G1 X118.244 Y114.256 F7200
G1 F3000
G1 X118.244 Y107.984 E0.17305
G1 X122.016 Y107.984 E0.10407
G1 X122.016 Y114.256 E0.17305
G1 X118.304 Y114.256 E0.10241
G1 X117.694 Y114.77 F7200
;TYPE:Gap fill
;WIDTH:0.176085
G1 F2400
G1 X117.627 Y114.77 E0.00065
G1 X115.23 Y114.77 E0.02336
G1 X115.163 Y114.77 E0.00065
;WIPE_START
G1 F5760
G1 X115.23 Y114.77 E-0.01647
G1 X116.699 Y114.77 E-0.36353
;WIPE_END
G1 E-0.02 F1500
G1 Z0.6 F7200
G1 X115.163 Y107.47
G1 Z0.2
G1 E0.4 F1500
G1 F2400
G1 X115.23 Y107.47 E0.00065
G1 X117.627 Y107.47 E0.02336
G1 X117.694 Y107.47 E0.00065
;WIPE_START
G1 F5760
G1 X117.627 Y107.47 E-0.01647
G1 X116.158 Y107.47 E-0.36353
;WIPE_END
G1 E-0.02 F1500
G1 Z0.6 F7200
G1 X121.14 Y108.097
G1 Z0.2
G1 E0.4 F1500
;TYPE:Solid infill
;WIDTH:0.427644
G1 F1800
G1 X121.741 Y108.697 E0.02384
G1 X121.741 Y109.231 E0.01498
G1 X120.769 Y108.259 E0.03859
G1 X120.236 Y108.259 E0.01498
G1 X121.741 Y109.764 E0.05978
G1 X121.741 Y110.297 E0.01498
G1 X119.703 Y108.259 E0.08096
G1 X119.17 Y108.259 E0.01498
G1 X121.741 Y110.83 E0.10215
G1 X121.741 Y111.364 E0.01498
G1 X118.636 Y108.259 E0.12334
G1 X118.519 Y108.259 E0.00328
G1 X118.519 Y108.676 E0.0117
G1 X121.741 Y111.897 E0.12798
G1 X121.741 Y112.43 E0.01498
G1 X118.519 Y109.209 E0.12798
G1 X118.519 Y109.742 E0.01498
G1 X121.741 Y112.964 E0.12798
G1 X121.741 Y113.497 E0.01498
G1 X118.519 Y110.276 E0.12798
G1 X118.519 Y110.809 E0.01498
G1 X121.691 Y113.981 E0.12602
G1 X121.158 Y113.981 E0.01498
G1 X118.519 Y111.342 E0.10483
G1 X118.519 Y111.875 E0.01498
G1 X120.625 Y113.981 E0.08364
G1 X120.091 Y113.981 E0.01498
G1 X118.519 Y112.409 E0.06245
G1 X118.519 Y112.942 E0.01498
G1 X119.558 Y113.981 E0.04127
G1 X119.025 Y113.981 E0.01498
G1 X118.357 Y113.313 E0.02652
;WIPE_START
G1 F5760
G1 X119.025 Y113.981 E-0.23355
G1 X119.558 Y113.981 E-0.13193
G1 X119.517 Y113.939 E-0.01452
;WIPE_END
G1 E-0.02 F1500
G1 Z0.6 F7200
G1 X118.357 Y102.77
G1 Z0.2
G1 E0.4 F1500
;TYPE:External perimeter
;WIDTH:0.42
G1 F2400
G1 X114.99 Y102.77 E0.09291
G1 X114.99 Y102.29 E0.01324
G1 X117.49 Y102.29 E0.06898
G1 X117.49 Y95.47 E0.18818
G1 X114.99 Y95.47 E0.06898
G1 X114.99 Y94.99 E0.01324
G1 X122.77 Y94.99 E0.21466
G1 X122.77 Y102.77 E0.21466
G1 X118.417 Y102.77 E0.1201
;WIPE_START
G1 X118.157 Y102.424 F7200
;WIPE_END
G1 X118.157 Y102.393
;TYPE:Internal perimeter
G1 F3000
G1 X117.867 Y102.393 E0.00801
G1 X117.867 Y95.367 E0.19386
G1 X122.393 Y95.367 E0.12488
G1 X122.393 Y102.393 E0.19386
G1 X118.217 Y102.393 E0.11521
G1 X118.244 Y102.016 F7200
G1 F3000
G1 X118.244 Y95.744 E0.17305
G1 X122.016 Y95.744 E0.10407
G1 X122.016 Y102.016 E0.17305
G1 X118.304 Y102.016 E0.10241
G1 X117.694 Y102.53 F7200
;TYPE:Gap fill
;WIDTH:0.176084
G1 F2400
G1 X117.627 Y102.53 E0.00065
G1 X115.23 Y102.53 E0.02336
G1 X115.163 Y102.53 E0.00065
;WIPE_START
G1 F5760
G1 X115.23 Y102.53 E-0.01647
G1 X116.699 Y102.53 E-0.36353
;WIPE_END
G1 E-0.02 F1500
G1 Z0.6 F7200
G1 X115.163 Y95.23
G1 Z0.2
G1 E0.4 F1500
G1 F2400
G1 X115.23 Y95.23 E0.00065
G1 X117.627 Y95.23 E0.02336
G1 X117.694 Y95.23 E0.00065
;WIPE_START
G1 F5760
G1 X117.627 Y95.23 E-0.01647
G1 X116.158 Y95.23 E-0.36353
;WIPE_END
G1 E-0.02 F1500
G1 Z0.6 F7200
G1 X121.14 Y95.857
G1 Z0.2
G1 E0.4 F1500
;TYPE:Solid infill
;WIDTH:0.427644
G1 F1800
G1 X121.741 Y96.457 E0.02384
G1 X121.741 Y96.991 E0.01498
G1 X120.769 Y96.019 E0.03859
G1 X120.236 Y96.019 E0.01498
G1 X121.741 Y97.524 E0.05978
G1 X121.741 Y98.057 E0.01498
G1 X119.703 Y96.019 E0.08096
G1 X119.17 Y96.019 E0.01498
G1 X121.741 Y98.59 E0.10215
G1 X121.741 Y99.124 E0.01498
G1 X118.636 Y96.019 E0.12334
G1 X118.519 Y96.019 E0.00328
G1 X118.519 Y96.436 E0.0117
G1 X121.741 Y99.657 E0.12798
G1 X121.741 Y100.19 E0.01498
G1 X118.519 Y96.969 E0.12798
G1 X118.519 Y97.502 E0.01498
G1 X121.741 Y100.724 E0.12798
G1 X121.741 Y101.257 E0.01498
G1 X118.519 Y98.036 E0.12798
G1 X118.519 Y98.569 E0.01498
G1 X121.691 Y101.741 E0.12602
G1 X121.158 Y101.741 E0.01498
G1 X118.519 Y99.102 E0.10483
G1 X118.519 Y99.635 E0.01498
G1 X120.625 Y101.741 E0.08364
G1 X120.091 Y101.741 E0.01498
G1 X118.519 Y100.169 E0.06245
G1 X118.519 Y100.702 E0.01498
G1 X119.558 Y101.741 E0.04127
G1 X119.025 Y101.741 E0.01498
G1 X118.357 Y101.073 E0.02652
;WIPE_START
G1 F5760
G1 X119.025 Y101.741 E-0.23355
G1 X119.558 Y101.741 E-0.13193
G1 X119.517 Y101.699 E-0.01452
;WIPE_END
G1 E-0.02 F1500
G1 Z0.6 F7200
G1 X115.068 Y101.073
G1 Z0.2
G1 E0.4 F1500
;TYPE:External perimeter
;WIDTH:0.42
G1 F2311.9468
G1 X115.068 Y101.23 E0.00433
G1 X110.452 Y101.23 E0.12734
G1 X110.452 Y96.53 E0.12968
G1 X115.068 Y96.53 E0.12734
G1 X115.068 Y101.013 E0.1237
;WIPE_START
G1 X114.721 Y101.273 F7200
;WIPE_END
G1 X114.69 Y100.853
;TYPE:Internal perimeter
G1 F3000
G1 X110.83 Y100.853 E0.10653
G1 X110.83 Y96.907 E0.10887
G1 X114.69 Y96.907 E0.10653
G1 X114.69 Y100.793 E0.10722
G1 X114.313 Y100.476 F7200
G1 F3000
G1 X111.207 Y100.476 E0.08572
G1 X111.207 Y97.284 E0.08806
G1 X114.313 Y97.284 E0.08572
G1 X114.313 Y100.416 E0.08641
;WIPE_START
G1 F5760
G1 X112.778 Y100.446 E-0.38
;WIPE_END
G1 E-0.02 F1500
G1 Z0.6 F7200
G1 X113.438 Y97.397
G1 Z0.2
G1 E0.4 F1500
;TYPE:Solid infill
;WIDTH:0.436166
G1 F1800
G1 X114.038 Y97.997 E0.02432
G1 X114.038 Y98.531 E0.01528
G1 X113.067 Y97.559 E0.03936
G1 X112.534 Y97.559 E0.01528
G1 X114.038 Y99.064 E0.06097
G1 X114.038 Y99.597 E0.01528
G1 X112 Y97.559 E0.08258
G1 X111.482 Y97.559 E0.01486
G1 X111.482 Y97.574 E0.00042
G1 X114.038 Y100.13 E0.10359
G1 X114.038 Y100.201 E0.00201
G1 X113.575 Y100.201 E0.01327
G1 X111.482 Y98.107 E0.08482
G1 X111.482 Y98.641 E0.01528
G1 X113.042 Y100.201 E0.06321
G1 X112.509 Y100.201 E0.01528
G1 X111.482 Y99.174 E0.0416
G1 X111.482 Y99.707 E0.01528
G1 X112.137 Y100.363 E0.02657
;WIPE_START
G1 F5760
G1 X111.482 Y99.707 E-0.22936
G1 X111.482 Y99.174 E-0.13193
G1 X111.535 Y99.227 E-0.01871
;WIPE_END
G1 E-0.02 F1500
G1 Z0.6 F7200
G1 X110.53 Y102.29
G1 Z0.2
G1 E0.4 F1500
;TYPE:External perimeter
;WIDTH:0.42
G1 F2400
G1 X110.53 Y102.77 E0.01324
G1 X102.75 Y102.77 E0.21466
G1 X102.75 Y94.99 E0.21466
G1 X110.53 Y94.99 E0.21466
G1 X110.53 Y95.47 E0.01324
G1 X108.03 Y95.47 E0.06898
G1 X108.03 Y102.29 E0.18818
G1 X110.47 Y102.29 E0.06732
;WIPE_START
G1 X110.33 Y102.636 F7200
;WIPE_END
;WIPE_START
G1 F5760
G1 X108.794 Y102.623 E-0.38
;WIPE_END
G1 E-0.02 F1500
G1 Z0.6 F7200
G1 X107.653 Y102.393
G1 Z0.2
G1 E0.4 F1500
;TYPE:Internal perimeter
G1 F3000
G1 X103.127 Y102.393 E0.12488
G1 X103.127 Y95.367 E0.19386
G1 X107.653 Y95.367 E0.12488
G1 X107.653 Y102.333 E0.1922
G1 X107.276 Y102.016 F7200
G1 F3000
G1 X103.504 Y102.016 E0.10407
G1 X103.504 Y95.744 E0.17305
G1 X107.276 Y95.744 E0.10407
G1 X107.276 Y101.956 E0.17139
G1 X107.826 Y102.53 F7200
;TYPE:Gap fill
;WIDTH:0.176084
G1 F2400
G1 X110.357 Y102.53 E0.02465
;WIPE_START
G1 F5760
G1 X108.821 Y102.53 E-0.38
;WIPE_END
G1 E-0.02 F1500
G1 Z0.6 F7200
G1 X110.357 Y95.23
G1 Z0.2
G1 E0.4 F1500
G1 F2400
G1 X110.29 Y95.23 E0.00065
G1 X107.893 Y95.23 E0.02336
G1 X107.826 Y95.23 E0.00065
;WIPE_START
G1 F5760
G1 X107.893 Y95.23 E-0.01647
G1 X109.362 Y95.23 E-0.36353
;WIPE_END
G1 E-0.02 F1500
G1 Z0.6 F7200
G1 X106.4 Y95.857
G1 Z0.2
G1 E0.4 F1500
;TYPE:Solid infill
;WIDTH:0.427644
G1 F1800
G1 X107.001 Y96.457 E0.02384
G1 X107.001 Y96.991 E0.01498
G1 X106.029 Y96.019 E0.03859
G1 X105.496 Y96.019 E0.01498
G1 X107.001 Y97.524 E0.05978
G1 X107.001 Y98.057 E0.01498
G1 X104.963 Y96.019 E0.08096
G1 X104.43 Y96.019 E0.01498
G1 X107.001 Y98.59 E0.10215
G1 X107.001 Y99.124 E0.01498
G1 X103.896 Y96.019 E0.12334
G1 X103.779 Y96.019 E0.00328
G1 X103.779 Y96.436 E0.0117
G1 X107.001 Y99.657 E0.12798
G1 X107.001 Y100.19 E0.01498
G1 X103.779 Y96.969 E0.12798
G1 X103.779 Y97.502 E0.01498
G1 X107.001 Y100.724 E0.12798
G1 X107.001 Y101.257 E0.01498
G1 X103.779 Y98.036 E0.12798
G1 X103.779 Y98.569 E0.01498
G1 X106.951 Y101.741 E0.12602
G1 X106.418 Y101.741 E0.01498
G1 X103.779 Y99.102 E0.10483
G1 X103.779 Y99.635 E0.01498
G1 X105.885 Y101.741 E0.08364
G1 X105.351 Y101.741 E0.01498
G1 X103.779 Y100.169 E0.06245
G1 X103.779 Y100.702 E0.01498
G1 X104.818 Y101.741 E0.04127
G1 X104.285 Y101.741 E0.01498
G1 X103.617 Y101.073 E0.02652
;WIPE_START
G1 F5760
G1 X104.285 Y101.741 E-0.23355
G1 X104.818 Y101.741 E-0.13193
G1 X104.777 Y101.699 E-0.01452
;WIPE_END
G1 E-0.02 F1500
G1 Z0.6 F7200
