; generated by SuperSlicer 2.5.59 on 2023-01-28 at 23:43:58 UTC


;
;
; 

; external perimeters extrusion width = 0.45mm
; perimeters extrusion width = 0.45mm
; infill extrusion width = 0.45mm
; solid infill extrusion width = 0.45mm
; top infill extrusion width = 0.40mm
; first layer extrusion width = 0.42mm

; object:{"name":"infinity_cube","id":"infinity_cube.stl id:0 copy 0","object_center":[125.000000,105.000000,0.000000],"boundingbox_center":[125.000000,105.000000,6.000000],"boundingbox_size":[48.719998,24.240001,12.000000]}
; Total objects to print: 1
M486 T1
; plater:{"center":[125.000000,105.000000,0.000000],"boundingbox_center":[125.000000,105.000000,6.000000],"boundingbox_size":[48.719998,24.240001,12.000000]}

M73 P0 R49
;
;
;TYPE:Custom
;
; start script for PrusaSlicer for CaribouDuet
;
;
T0                               ; select tool 0
;
M568 P0 S160 R160 A2             ; pre-heat extruder to 160°C
;
G90                              ; absolute positioning
G0 X125 Y-7 Z80 F4000            ; move extruder above bed, keep extruder in front for cleaning and checking
;
M140 S55                         ; this will take the layer 1 temperature for bed 0
M190 S55                         ; wait for bed temp
;
G29                              ; mesh bed leveling using defined mesh grid
G0 X0 Y-3 Z0.6 F4000             ; go outside print area
;
M568 P0 S210 A2                  ; set extruder temperature
M116 P0                          ; wait for extruder temp
;
;
M98 P"0:/sys/primeLine.g"        ; execute primeline macro
;
G92 E0.0                         ; set extruder position
M572 D0 S0.07                    ; set pressure advance
;
;
M106 S0
G21 ; set units to millimeters
G90 ; use absolute coordinates
M83 ; use relative distances for extrusion
;_TOOLCHANGE 0
;
M116 ; wait for temperature to be reached
M106 S0
;LAYER_CHANGE
;Z:0.2
;HEIGHT:0.2
;BEFORE_LAYER_CHANGE
G92 E0.0
;0.2


G1 E-0.4 F1500
M73 P0 R48
G1 Z0.4 F7200
;AFTER_LAYER_CHANGE
;0.2
M73 P1 R48
G1 Z0.6
G1 X100.217 Y93.373
G1 Z0.2
G1 E0.4 F1500
;TYPE:Skirt
;WIDTH:0.52
G1 F1800
G1 X99.824 Y94.78 E0.05503
G1 X99.824 Y115.22 E0.7703
G1 X100.134 Y116.479 E0.04884
G1 X101.133 Y117.543 E0.05503
G1 X102.54 Y117.936 E0.05503
G1 X147.46 Y117.936 E1.69285
G1 X148.719 Y117.626 E0.04884
G1 X149.783 Y116.627 E0.05503
G1 X150.176 Y115.22 E0.05503
G1 X150.176 Y94.78 E0.7703
G1 X149.866 Y93.521 E0.04884
G1 X148.867 Y92.457 E0.05503
G1 X147.46 Y92.064 E0.05503
G1 X102.54 Y92.064 E1.69285
G1 X101.281 Y92.374 E0.04884
G1 X100.261 Y93.332 E0.05277
G1 X100.693 Y93.516 F7200
G1 F1800
G1 X100.301 Y94.78 E0.04987
G1 X100.301 Y115.22 E0.7703
G1 X100.454 Y116.031 E0.03109
G1 X101.276 Y117.067 E0.04987
G1 X102.54 Y117.459 E0.04987
G1 X147.46 Y117.459 E1.69285
G1 X148.271 Y117.306 E0.03109
G1 X149.307 Y116.484 E0.04987
G1 X149.699 Y115.22 E0.04987
G1 X149.699 Y94.78 E0.7703
G1 X149.546 Y93.969 E0.03109
G1 X148.724 Y92.933 E0.04987
G1 X147.46 Y92.541 E0.04987
G1 X102.54 Y92.541 E1.69285
G1 X101.729 Y92.694 E0.03109
G1 X100.74 Y93.479 E0.0476
;WIPE_START
G1 F5760
G1 X100.301 Y94.78 E-0.33971
G1 X100.301 Y94.943 E-0.04029
;WIPE_END
G1 E-0.02 F1500
G1 Z0.6 F7200
; printing object infinity_cube.stl id:0 copy 0
M486 S0
G1 X139.47 Y107.23
G1 Z0.2
G1 E0.4 F1500
;TYPE:External perimeter
;WIDTH:0.42
G1 F2400
G1 X147.25 Y107.23 E0.23174
G1 X147.25 Y115.01 E0.23174
G1 X139.47 Y115.01 E0.23174
G1 X139.47 Y114.53 E0.0143
G1 X141.97 Y114.53 E0.07447
G1 X141.97 Y107.71 E0.20314
G1 X139.47 Y107.71 E0.07447
G1 X139.47 Y107.29 E0.01251
;WIPE_START
G1 X139.816 Y107.43 F7200
;WIPE_END
;WIPE_START
G1 F5760
G1 X141.352 Y107.43 E-0.38
;WIPE_END
G1 E-0.02 F1500
G1 Z0.6 F7200
G1 X142.347 Y107.607
G1 Z0.2
G1 E0.4 F1500
;TYPE:Internal perimeter
G1 F3000
G1 X146.873 Y107.607 E0.13481
G1 X146.873 Y114.633 E0.20928
G1 X142.347 Y114.633 E0.13481
G1 X142.347 Y107.667 E0.20749
G1 X142.724 Y107.984 F7200
G1 F3000
G1 X146.496 Y107.984 E0.11235
G1 X146.496 Y114.256 E0.18681
G1 X142.724 Y114.256 E0.11235
G1 X142.724 Y108.044 E0.18502
G1 X142.174 Y107.47 F7200
;TYPE:Gap fill
;WIDTH:0.176084
G1 F2400
G1 X142.107 Y107.47 E0.0007
G1 X139.643 Y107.47 E0.02592
;WIPE_START
G1 F5760
G1 X141.179 Y107.47 E-0.38
;WIPE_END
G1 E-0.02 F1500
G1 Z0.6 F7200
G1 X146.383 Y108.86
G1 Z0.2
G1 E0.4 F1500
;TYPE:Solid infill
;WIDTH:0.427644
G1 F1800
G1 X145.783 Y108.259 E0.02574
G1 X145.249 Y108.259 E0.01617
G1 X146.221 Y109.231 E0.04166
G1 X146.221 Y109.764 E0.01617
G1 X144.716 Y108.259 E0.06453
G1 X144.183 Y108.259 E0.01617
G1 X146.221 Y110.297 E0.0874
G1 X146.221 Y110.83 E0.01617
G1 X143.65 Y108.259 E0.11028
G1 X143.116 Y108.259 E0.01617
G1 X146.221 Y111.364 E0.13315
G1 X146.221 Y111.897 E0.01617
G1 X142.999 Y108.676 E0.13816
G1 X142.999 Y109.209 E0.01617
G1 X146.221 Y112.43 E0.13816
G1 X146.221 Y112.964 E0.01617
G1 X142.999 Y109.742 E0.13816
G1 X142.999 Y110.276 E0.01617
G1 X146.221 Y113.497 E0.13816
G1 X146.221 Y113.981 E0.01467
G1 X146.171 Y113.981 E0.0015
G1 X142.999 Y110.809 E0.13604
G1 X142.999 Y111.342 E0.01617
G1 X145.638 Y113.981 E0.11317
G1 X145.105 Y113.981 E0.01617
G1 X142.999 Y111.875 E0.09029
G1 X142.999 Y112.409 E0.01617
G1 X144.571 Y113.981 E0.06742
G1 X144.038 Y113.981 E0.01617
G1 X142.999 Y112.942 E0.04455
G1 X142.999 Y113.475 E0.01617
G1 X143.667 Y114.143 E0.02863
;WIPE_START
G1 F5760
G1 X142.999 Y113.475 E-0.23355
G1 X142.999 Y112.942 E-0.13193
G1 X143.041 Y112.983 E-0.01452
;WIPE_END
G1 E-0.02 F1500
G1 Z0.6 F7200
G1 X142.174 Y114.77
G1 Z0.2
G1 E0.4 F1500
;TYPE:Gap fill
;WIDTH:0.176085
G1 F2400
G1 X142.107 Y114.77 E0.0007
G1 X139.71 Y114.77 E0.02521
G1 X139.643 Y114.77 E0.0007
;WIPE_START
G1 F5760
G1 X139.71 Y114.77 E-0.01647
G1 X141.179 Y114.77 E-0.36353
;WIPE_END
G1 E-0.02 F1500
G1 Z0.6 F7200
G1 X139.548 Y113.47
G1 Z0.2
G1 E0.4 F1500
;TYPE:External perimeter
;WIDTH:0.42
G1 F2311.9469
G1 X134.932 Y113.47 E0.13747
G1 X134.932 Y108.77 E0.14
G1 X139.548 Y108.77 E0.13747
G1 X139.548 Y113.41 E0.13821
;WIPE_START
G1 X139.201 Y113.27 F7200
;WIPE_END
G1 X139.17 Y113.093
;TYPE:Internal perimeter
G1 F3000
G1 X135.31 Y113.093 E0.11501
G1 X135.31 Y109.147 E0.11753
G1 X139.17 Y109.147 E0.11501
G1 X139.17 Y113.033 E0.11575
G1 X138.793 Y112.716 F7200
G1 F3000
G1 X135.687 Y112.716 E0.09254
G1 X135.687 Y109.524 E0.09507
G1 X138.793 Y109.524 E0.09254
G1 X138.793 Y112.656 E0.09328
;WIPE_START
G1 F5760
G1 X137.258 Y112.686 E-0.38
;WIPE_END
G1 E-0.02 F1500
G1 Z0.6 F7200
G1 X138.68 Y110.4
G1 Z0.2
G1 E0.4 F1500
;TYPE:Solid infill
;WIDTH:0.436167
G1 F1800
G1 X138.08 Y109.799 E0.02625
G1 X137.547 Y109.799 E0.0165
G1 X138.518 Y110.771 E0.04249
G1 X138.518 Y111.304 E0.0165
G1 X137.014 Y109.799 E0.06582
G1 X136.48 Y109.799 E0.0165
G1 X138.518 Y111.837 E0.08915
G1 X138.518 Y112.37 E0.0165
G1 X135.962 Y109.814 E0.11183
G1 X135.962 Y110.347 E0.0165
G1 X138.055 Y112.441 E0.09157
G1 X137.522 Y112.441 E0.0165
G1 X135.962 Y110.881 E0.06824
G1 X135.962 Y111.414 E0.0165
G1 X136.989 Y112.441 E0.04491
G1 X136.455 Y112.441 E0.0165
G1 X135.8 Y111.785 E0.02868
;WIPE_START
G1 F5760
G1 X136.455 Y112.441 E-0.22936
G1 X136.989 Y112.441 E-0.13193
G1 X136.935 Y112.387 E-0.01871
;WIPE_END
G1 E-0.02 F1500
G1 Z0.6 F7200
G1 X135.01 Y114.53
G1 Z0.2
G1 E0.4 F1500
;TYPE:External perimeter
;WIDTH:0.42
G1 F2400
G1 X135.01 Y115.01 E0.0143
G1 X127.23 Y115.01 E0.23174
G1 X127.23 Y107.23 E0.23174
G1 X135.01 Y107.23 E0.23174
G1 X135.01 Y107.71 E0.0143
G1 X132.51 Y107.71 E0.07447
G1 X132.51 Y114.53 E0.20314
G1 X134.95 Y114.53 E0.07268
;WIPE_START
G1 X134.81 Y114.876 F7200
;WIPE_END
;WIPE_START
G1 F5760
G1 X133.274 Y114.863 E-0.38
;WIPE_END
G1 E-0.02 F1500
G1 Z0.6 F7200
G1 X132.133 Y114.633
G1 Z0.2
G1 E0.4 F1500
;TYPE:Internal perimeter
G1 F3000
G1 X127.607 Y114.633 E0.13481
G1 X127.607 Y107.607 E0.20928
G1 X132.133 Y107.607 E0.13481
G1 X132.133 Y114.573 E0.20749
G1 X131.756 Y114.256 F7200
G1 F3000
G1 X127.984 Y114.256 E0.11235
G1 X127.984 Y107.984 E0.18681
G1 X131.756 Y107.984 E0.11235
G1 X131.756 Y114.196 E0.18502
G1 X132.306 Y114.77 F7200
;TYPE:Gap fill
;WIDTH:0.176085
G1 F2400
G1 X132.373 Y114.77 E0.0007
G1 X134.77 Y114.77 E0.02521
G1 X134.837 Y114.77 E0.0007
;WIPE_START
G1 F5760
G1 X134.77 Y114.77 E-0.01647
G1 X133.301 Y114.77 E-0.36353
;WIPE_END
G1 E-0.02 F1500
G1 Z0.6 F7200
G1 X134.837 Y107.47
G1 Z0.2
G1 E0.4 F1500
G1 F2400
G1 X134.77 Y107.47 E0.0007
G1 X132.373 Y107.47 E0.02521
G1 X132.306 Y107.47 E0.0007
;WIPE_START
G1 F5760
G1 X132.373 Y107.47 E-0.01647
G1 X133.842 Y107.47 E-0.36353
;WIPE_END
G1 E-0.02 F1500
G1 Z0.6 F7200
G1 X130.88 Y108.097
G1 Z0.2
G1 E0.4 F1500
;TYPE:Solid infill
;WIDTH:0.427644
G1 F1800
G1 X131.481 Y108.697 E0.02574
G1 X131.481 Y109.231 E0.01617
G1 X130.509 Y108.259 E0.04166
G1 X129.976 Y108.259 E0.01617
G1 X131.481 Y109.764 E0.06453
G1 X131.481 Y110.297 E0.01617
G1 X129.443 Y108.259 E0.0874
G1 X128.91 Y108.259 E0.01617
G1 X131.481 Y110.83 E0.11028
G1 X131.481 Y111.364 E0.01617
G1 X128.376 Y108.259 E0.13315
M73 P2 R48
G1 X128.259 Y108.259 E0.00354
G1 X128.259 Y108.676 E0.01263
G1 X131.481 Y111.897 E0.13816
G1 X131.481 Y112.43 E0.01617
G1 X128.259 Y109.209 E0.13816
G1 X128.259 Y109.742 E0.01617
G1 X131.481 Y112.964 E0.13816
G1 X131.481 Y113.497 E0.01617
G1 X128.259 Y110.276 E0.13816
G1 X128.259 Y110.809 E0.01617
G1 X131.431 Y113.981 E0.13604
G1 X130.898 Y113.981 E0.01617
G1 X128.259 Y111.342 E0.11317
G1 X128.259 Y111.875 E0.01617
G1 X130.365 Y113.981 E0.09029
G1 X129.831 Y113.981 E0.01617
G1 X128.259 Y112.409 E0.06742
G1 X128.259 Y112.942 E0.01617
G1 X129.298 Y113.981 E0.04455
G1 X128.765 Y113.981 E0.01617
G1 X128.097 Y113.313 E0.02863
;WIPE_START
G1 F5760
G1 X128.765 Y113.981 E-0.23355
G1 X129.298 Y113.981 E-0.13193
G1 X129.257 Y113.939 E-0.01452
;WIPE_END
G1 E-0.02 F1500
G1 Z0.6 F7200
G1 X134.932 Y101.23
G1 Z0.2
G1 E0.4 F1500
;TYPE:External perimeter
;WIDTH:0.42
G1 F2311.9469
G1 X134.932 Y96.53 E0.14
G1 X139.548 Y96.53 E0.13747
G1 X139.548 Y101.23 E0.14
G1 X134.992 Y101.23 E0.13568
;WIPE_START
G1 X135.132 Y100.884 F7200
;WIPE_END
G1 X135.31 Y100.853
;TYPE:Internal perimeter
G1 F3000
G1 X135.31 Y96.907 E0.11753
G1 X139.17 Y96.907 E0.11501
G1 X139.17 Y100.853 E0.11753
G1 X135.37 Y100.853 E0.11322
G1 X135.687 Y100.476 F7200
G1 F3000
G1 X135.687 Y97.284 E0.09507
G1 X138.793 Y97.284 E0.09254
G1 X138.793 Y100.476 E0.09507
G1 X135.747 Y100.476 E0.09075
;WIPE_START
G1 F5760
G1 X135.718 Y98.94 E-0.38
;WIPE_END
G1 E-0.02 F1500
G1 Z0.6 F7200
G1 X137.918 Y97.397
G1 Z0.2
G1 E0.4 F1500
;TYPE:Solid infill
;WIDTH:0.436166
G1 F1800
G1 X138.518 Y97.997 E0.02625
G1 X138.518 Y98.531 E0.0165
G1 X137.547 Y97.559 E0.04249
G1 X137.014 Y97.559 E0.0165
G1 X138.518 Y99.064 E0.06582
G1 X138.518 Y99.597 E0.0165
G1 X136.48 Y97.559 E0.08915
G1 X135.962 Y97.559 E0.01604
G1 X135.962 Y97.574 E0.00045
G1 X138.518 Y100.13 E0.11183
G1 X138.518 Y100.201 E0.00217
G1 X138.055 Y100.201 E0.01433
G1 X135.962 Y98.107 E0.09157
G1 X135.962 Y98.641 E0.0165
G1 X137.522 Y100.201 E0.06824
G1 X136.989 Y100.201 E0.0165
G1 X135.962 Y99.174 E0.04491
G1 X135.962 Y99.707 E0.0165
G1 X136.617 Y100.363 E0.02868
;WIPE_START
G1 F5760
G1 X135.962 Y99.707 E-0.22936
G1 X135.962 Y99.174 E-0.13193
G1 X136.015 Y99.227 E-0.01871
;WIPE_END
G1 E-0.02 F1500
G1 Z0.6 F7200
G1 X135.01 Y102.29
G1 Z0.2
G1 E0.4 F1500
;TYPE:External perimeter
;WIDTH:0.42
G1 F2400
G1 X135.01 Y102.77 E0.0143
G1 X127.23 Y102.77 E0.23174
G1 X127.23 Y94.99 E0.23174
G1 X135.01 Y94.99 E0.23174
G1 X135.01 Y95.47 E0.0143
M73 P2 R47
G1 X132.51 Y95.47 E0.07447
G1 X132.51 Y102.29 E0.20314
G1 X134.95 Y102.29 E0.07268
;WIPE_START
G1 X134.81 Y102.636 F7200
;WIPE_END
;WIPE_START
G1 F5760
G1 X133.274 Y102.623 E-0.38
;WIPE_END
G1 E-0.02 F1500
G1 Z0.6 F7200
G1 X132.133 Y102.393
G1 Z0.2
G1 E0.4 F1500
;TYPE:Internal perimeter
G1 F3000
G1 X127.607 Y102.393 E0.13481
G1 X127.607 Y95.367 E0.20928
G1 X132.133 Y95.367 E0.13481
G1 X132.133 Y102.333 E0.20749
G1 X131.756 Y102.016 F7200
G1 F3000
G1 X127.984 Y102.016 E0.11235
G1 X127.984 Y95.744 E0.18681
G1 X131.756 Y95.744 E0.11235
G1 X131.756 Y101.956 E0.18502
G1 X132.306 Y102.53 F7200
;TYPE:Gap fill
;WIDTH:0.176084
G1 F2400
G1 X132.373 Y102.53 E0.0007
G1 X134.77 Y102.53 E0.02521
G1 X134.837 Y102.53 E0.0007
;WIPE_START
G1 F5760
G1 X134.77 Y102.53 E-0.01647
G1 X133.301 Y102.53 E-0.36353
;WIPE_END
G1 E-0.02 F1500
G1 Z0.6 F7200
G1 X134.837 Y95.23
G1 Z0.2
G1 E0.4 F1500
G1 F2400
G1 X134.77 Y95.23 E0.0007
G1 X132.373 Y95.23 E0.02521
G1 X132.306 Y95.23 E0.0007
;WIPE_START
G1 F5760
G1 X132.373 Y95.23 E-0.01647
G1 X133.842 Y95.23 E-0.36353
;WIPE_END
G1 E-0.02 F1500
G1 Z0.6 F7200
G1 X130.88 Y95.857
G1 Z0.2
G1 E0.4 F1500
;TYPE:Solid infill
;WIDTH:0.427644
G1 F1800
G1 X131.481 Y96.457 E0.02574
G1 X131.481 Y96.991 E0.01617
G1 X130.509 Y96.019 E0.04166
G1 X129.976 Y96.019 E0.01617
G1 X131.481 Y97.524 E0.06453
G1 X131.481 Y98.057 E0.01617
G1 X129.443 Y96.019 E0.0874
G1 X128.91 Y96.019 E0.01617
G1 X131.481 Y98.59 E0.11028
G1 X131.481 Y99.124 E0.01617
G1 X128.376 Y96.019 E0.13315
G1 X128.259 Y96.019 E0.00354
G1 X128.259 Y96.436 E0.01263
G1 X131.481 Y99.657 E0.13816
G1 X131.481 Y100.19 E0.01617
G1 X128.259 Y96.969 E0.13816
G1 X128.259 Y97.502 E0.01617
G1 X131.481 Y100.724 E0.13816
G1 X131.481 Y101.257 E0.01617
G1 X128.259 Y98.036 E0.13816
G1 X128.259 Y98.569 E0.01617
G1 X131.431 Y101.741 E0.13604
G1 X130.898 Y101.741 E0.01617
G1 X128.259 Y99.102 E0.11317
G1 X128.259 Y99.635 E0.01617
G1 X130.365 Y101.741 E0.09029
G1 X129.831 Y101.741 E0.01617
G1 X128.259 Y100.169 E0.06742
G1 X128.259 Y100.702 E0.01617
G1 X129.298 Y101.741 E0.04455
G1 X128.765 Y101.741 E0.01617
G1 X128.097 Y101.073 E0.02863
;WIPE_START
G1 F5760
G1 X128.765 Y101.741 E-0.23355
G1 X129.298 Y101.741 E-0.13193
G1 X129.257 Y101.699 E-0.01452
;WIPE_END
G1 E-0.02 F1500
G1 Z0.6 F7200
G1 X117.49 Y102.29
G1 Z0.2
G1 E0.4 F1500
;TYPE:External perimeter
;WIDTH:0.42
G1 F2400
G1 X117.49 Y95.47 E0.20314
G1 X114.99 Y95.47 E0.07447
G1 X114.99 Y94.99 E0.0143
G1 X122.77 Y94.99 E0.23174
G1 X122.77 Y102.77 E0.23174
G1 X114.99 Y102.77 E0.23174
G1 X114.99 Y102.29 E0.0143
G1 X117.43 Y102.29 E0.07268
;WIPE_START
G1 X117.89 Y102.29 F7200
;WIPE_END
G1 X117.867 Y102.29
;TYPE:Internal perimeter
G1 F3000
G1 X117.867 Y95.367 E0.20621
G1 X122.393 Y95.367 E0.13481
G1 X122.393 Y102.393 E0.20928
G1 X117.867 Y102.393 E0.13481
G1 X117.867 Y102.35 E0.00128
G1 X118.244 Y102.016 F7200
G1 F3000
G1 X118.244 Y95.744 E0.18681
G1 X122.016 Y95.744 E0.11235
G1 X122.016 Y102.016 E0.18681
G1 X118.304 Y102.016 E0.11056
G1 X117.694 Y102.53 F7200
;TYPE:Gap fill
;WIDTH:0.176084
G1 F2400
G1 X117.627 Y102.53 E0.0007
G1 X115.23 Y102.53 E0.02521
G1 X115.163 Y102.53 E0.0007
;WIPE_START
G1 F5760
G1 X115.23 Y102.53 E-0.01647
G1 X116.699 Y102.53 E-0.36353
;WIPE_END
G1 E-0.02 F1500
G1 Z0.6 F7200
G1 X115.163 Y95.23
G1 Z0.2
G1 E0.4 F1500
G1 F2400
G1 X115.23 Y95.23 E0.0007
G1 X117.627 Y95.23 E0.02521
G1 X117.694 Y95.23 E0.0007
;WIPE_START
G1 F5760
G1 X117.627 Y95.23 E-0.01647
G1 X116.158 Y95.23 E-0.36353
;WIPE_END
G1 E-0.02 F1500
G1 Z0.6 F7200
G1 X121.14 Y95.857
G1 Z0.2
G1 E0.4 F1500
;TYPE:Solid infill
;WIDTH:0.427644
G1 F1800
G1 X121.741 Y96.457 E0.02574
G1 X121.741 Y96.991 E0.01617
G1 X120.769 Y96.019 E0.04166
G1 X120.236 Y96.019 E0.01617
G1 X121.741 Y97.524 E0.06453
G1 X121.741 Y98.057 E0.01617
G1 X119.703 Y96.019 E0.0874
G1 X119.17 Y96.019 E0.01617
G1 X121.741 Y98.59 E0.11028
G1 X121.741 Y99.124 E0.01617
G1 X118.636 Y96.019 E0.13315
G1 X118.519 Y96.019 E0.00354
G1 X118.519 Y96.436 E0.01263
G1 X121.741 Y99.657 E0.13816
G1 X121.741 Y100.19 E0.01617
G1 X118.519 Y96.969 E0.13816
G1 X118.519 Y97.502 E0.01617
G1 X121.741 Y100.724 E0.13816
G1 X121.741 Y101.257 E0.01617
G1 X118.519 Y98.036 E0.13816
G1 X118.519 Y98.569 E0.01617
G1 X121.691 Y101.741 E0.13604
G1 X121.158 Y101.741 E0.01617
G1 X118.519 Y99.102 E0.11317
G1 X118.519 Y99.635 E0.01617
G1 X120.625 Y101.741 E0.09029
G1 X120.091 Y101.741 E0.01617
G1 X118.519 Y100.169 E0.06742
G1 X118.519 Y100.702 E0.01617
G1 X119.558 Y101.741 E0.04455
G1 X119.025 Y101.741 E0.01617
G1 X118.357 Y101.073 E0.02863
;WIPE_START
G1 F5760
G1 X119.025 Y101.741 E-0.23355
G1 X119.558 Y101.741 E-0.13193
G1 X119.517 Y101.699 E-0.01452
;WIPE_END
G1 E-0.02 F1500
G1 Z0.6 F7200
