; generated by SuperSlicer 2.5.59 on 2023-01-28 at 15:04:42 UTC


;
;
; 

; external perimeters extrusion width = 0.45mm
; perimeters extrusion width = 0.45mm
; infill extrusion width = 0.45mm
; solid infill extrusion width = 0.45mm
; top infill extrusion width = 0.40mm
; first layer extrusion width = 0.42mm

; object:{"name":"FirstLayer","id":"FirstLayer.stl id:0 copy 0","object_center":[125.000000,105.000000,0.000000],"boundingbox_center":[125.000000,105.000000,0.100000],"boundingbox_size":[80.000000,80.000000,0.200000]}
; Total objects to print: 1
M486 T1
; plater:{"center":[125.000000,105.000000,0.000000],"boundingbox_center":[125.000000,105.000000,0.100000],"boundingbox_size":[80.000000,80.000000,0.200000]}

M73 P0 R14
G10 P0 R215 ; sets the standby temperature
;TYPE:Custom
;
; start script for PrusaSlicer for CaribouDuet
;
;
T0                               ; select tool 0
;
G90                              ; absolute positioning
G0 X125 Y-7 Z80                  ; move extruder above bed, keep extruder in front for cleaning and checking
;
M568 P0 S160 A2                  ; pre-heat extruder to 160°C
M140 S60    ; this will take the layer 1 temperature for bed 0
M190 S60    ; wait for bed temp
;
G29                              ; mesh bed leveling using defined mesh grid
G0 X0 Y-3 Z0.6                   ; go outside print area
;
M568 P0 S215 A2  ; set extruder temperature
M109 S215        ; wait for extruder temp
;
;
;
M98 P"0:/sys/primeLine.g"        ; execute primeline macro
;
G92 E0.0                         ; set extruder position
;
M572 D0 S0.07                    ; set pressure advance
;
;
M107
G21 ; set units to millimeters
G90 ; use absolute coordinates
M83 ; use relative distances for extrusion
;_TOOLCHANGE 0
M107
;LAYER_CHANGE
;Z:0.2
;HEIGHT:0.2
;BEFORE_LAYER_CHANGE
G92 E0.0
;0.2


G1 E-0.4 F1500
M73 P2 R14
G1 Z0.4 F10800
;AFTER_LAYER_CHANGE
;0.2
G1 Z0.6
M204 P1000 T1000
G1 X83.353 Y63.936
G1 Z0.2
G1 E0.4 F1500
;TYPE:Skirt
;WIDTH:0.52
G1 F1200
G1 X82.961 Y65.2 E0.05249
G1 X82.961 Y144.8 E3.15768
G1 X83.114 Y145.611 E0.03273
G1 X83.936 Y146.647 E0.05249
G1 X85.2 Y147.039 E0.05249
G1 X164.8 Y147.039 E3.15768
G1 X165.611 Y146.886 E0.03273
G1 X166.647 Y146.064 E0.05249
M73 P3 R14
G1 X167.039 Y144.8 E0.05249
G1 X167.039 Y65.2 E3.15768
G1 X166.886 Y64.389 E0.03273
G1 X166.064 Y63.353 E0.05249
G1 X164.8 Y62.961 E0.05249
G1 X85.2 Y62.961 E3.15768
G1 X84.389 Y63.114 E0.03273
G1 X83.4 Y63.899 E0.05011
;WIPE_START
M73 P4 R14
G1 F8640
G1 X82.961 Y65.2 E-0.22647
G1 X82.961 Y66.131 E-0.15353
;WIPE_END
G1 E-0.02 F1500
G1 Z0.6 F10800
; printing object FirstLayer.stl id:0 copy 0
M486 S0
; acceleration to travel
G1 X118.158 Y131.82
; decel to extrusion
G1 X125 Y144.59
; end travel
M204 P800 T1500
G1 Z0.2
G1 E0.4 F1500
;TYPE:External perimeter
;WIDTH:0.42
G1 F1200
G1 X85.41 Y144.59 E1.24132
G1 X85.41 Y65.41 E2.48263
G1 X164.59 Y65.41 E2.48263
G1 X164.59 Y144.59 E2.48263
M73 P5 R14
G1 X125.06 Y144.59 E1.23944
;WIPE_START
M204 P1000 T1500
M73 P5 R13
G1 X124.8 Y144.244 F10800
;WIPE_END
;WIPE_START
G1 F8640
M73 P6 R13
G1 X122.496 Y144.252 E-0.38
;WIPE_END
G1 E-0.02 F1500
G1 Z0.6 F10800
; acceleration to travel
G1 X155.657 Y80.914
; decel to extrusion
G1 X163.715 Y65.523
; end travel
G1 Z0.2
G1 E0.4 F1500
;TYPE:Solid infill
;WIDTH:0.420125
G1 F1200
G1 X164.315 Y66.123 E0.02662
G1 X164.315 Y66.656 E0.01673
G1 X163.344 Y65.685 E0.04308
G1 X162.81 Y65.685 E0.01673
G1 X164.315 Y67.19 E0.06673
G1 X164.315 Y67.723 E0.01673
G1 X162.277 Y65.685 E0.09039
G1 X161.744 Y65.685 E0.01673
G1 X164.315 Y68.256 E0.11404
G1 X164.315 Y68.79 E0.01673
G1 X161.21 Y65.685 E0.13769
G1 X160.677 Y65.685 E0.01673
G1 X164.315 Y69.323 E0.16135
G1 X164.315 Y69.856 E0.01673
G1 X160.144 Y65.685 E0.185
G1 X159.611 Y65.685 E0.01673
G1 X164.315 Y70.389 E0.20865
G1 X164.315 Y70.923 E0.01673
G1 X159.077 Y65.685 E0.2323
G1 X158.544 Y65.685 E0.01673
G1 X164.315 Y71.456 E0.25596
G1 X164.315 Y71.989 E0.01673
G1 X158.011 Y65.685 E0.27961
G1 X157.478 Y65.685 E0.01673
G1 X164.315 Y72.522 E0.30326
G1 X164.315 Y73.056 E0.01673
G1 X156.944 Y65.685 E0.32692
G1 X156.411 Y65.685 E0.01673
G1 X164.315 Y73.589 E0.35057
G1 X164.315 Y74.122 E0.01673
G1 X155.878 Y65.685 E0.37422
G1 X155.344 Y65.685 E0.01673
G1 X164.315 Y74.656 E0.39788
G1 X164.315 Y75.189 E0.01673
G1 X154.811 Y65.685 E0.42153
G1 X154.278 Y65.685 E0.01673
G1 X164.315 Y75.722 E0.44518
M73 P7 R13
G1 X164.315 Y76.255 E0.01673
G1 X153.745 Y65.685 E0.46884
G1 X153.211 Y65.685 E0.01673
G1 X164.315 Y76.789 E0.49249
G1 X164.315 Y77.322 E0.01673
G1 X152.678 Y65.685 E0.51614
G1 X152.145 Y65.685 E0.01673
G1 X164.315 Y77.855 E0.5398
G1 X164.315 Y78.388 E0.01673
G1 X151.612 Y65.685 E0.56345
G1 X151.078 Y65.685 E0.01673
G1 X164.315 Y78.922 E0.5871
G1 X164.315 Y79.455 E0.01673
G1 X150.545 Y65.685 E0.61075
G1 X150.012 Y65.685 E0.01673
G1 X164.315 Y79.988 E0.63441
G1 X164.315 Y80.522 E0.01673
G1 X149.478 Y65.685 E0.65806
G1 X148.945 Y65.685 E0.01673
G1 X164.315 Y81.055 E0.68171
M73 P8 R13
G1 X164.315 Y81.588 E0.01673
G1 X148.412 Y65.685 E0.70537
G1 X147.879 Y65.685 E0.01673
G1 X164.315 Y82.121 E0.72902
G1 X164.315 Y82.655 E0.01673
G1 X147.345 Y65.685 E0.75267
G1 X146.812 Y65.685 E0.01673
G1 X164.315 Y83.188 E0.77633
G1 X164.315 Y83.721 E0.01673
G1 X146.279 Y65.685 E0.79998
G1 X145.746 Y65.685 E0.01673
G1 X164.315 Y84.254 E0.82363
G1 X164.315 Y84.788 E0.01673
G1 X145.212 Y65.685 E0.84729
M73 P9 R13
G1 X144.679 Y65.685 E0.01673
G1 X164.315 Y85.321 E0.87094
G1 X164.315 Y85.854 E0.01673
G1 X144.146 Y65.685 E0.89459
G1 X143.613 Y65.685 E0.01673
G1 X164.315 Y86.387 E0.91825
G1 X164.315 Y86.921 E0.01673
G1 X143.079 Y65.685 E0.9419
G1 X142.546 Y65.685 E0.01673
G1 X164.315 Y87.454 E0.96555
G1 X164.315 Y87.987 E0.01673
G1 X142.013 Y65.685 E0.9892
M73 P10 R13
G1 X141.479 Y65.685 E0.01673
G1 X164.315 Y88.521 E1.01286
G1 X164.315 Y89.054 E0.01673
G1 X140.946 Y65.685 E1.03651
G1 X140.413 Y65.685 E0.01673
G1 X164.315 Y89.587 E1.06016
G1 X164.315 Y90.12 E0.01673
G1 X139.88 Y65.685 E1.08382
G1 X139.346 Y65.685 E0.01673
G1 X164.315 Y90.654 E1.10747
M73 P11 R13
G1 X164.315 Y91.187 E0.01673
G1 X138.813 Y65.685 E1.13112
G1 X138.28 Y65.685 E0.01673
G1 X164.315 Y91.72 E1.15478
G1 X164.315 Y92.253 E0.01673
G1 X137.747 Y65.685 E1.17843
G1 X137.213 Y65.685 E0.01673
G1 X164.315 Y92.787 E1.20208
G1 X164.315 Y93.32 E0.01673
G1 X136.68 Y65.685 E1.22574
M73 P12 R13
G1 X136.147 Y65.685 E0.01673
G1 X164.315 Y93.853 E1.24939
M73 P12 R12
G1 X164.315 Y94.387 E0.01673
G1 X135.613 Y65.685 E1.27304
G1 X135.08 Y65.685 E0.01673
G1 X164.315 Y94.92 E1.2967
G1 X164.315 Y95.453 E0.01673
G1 X134.547 Y65.685 E1.32035
G1 X134.014 Y65.685 E0.01673
G1 X164.315 Y95.986 E1.344
M73 P13 R12
G1 X164.315 Y96.52 E0.01673
G1 X133.48 Y65.685 E1.36766
G1 X132.947 Y65.685 E0.01673
G1 X164.315 Y97.053 E1.39131
G1 X164.315 Y97.586 E0.01673
G1 X132.414 Y65.685 E1.41496
G1 X131.881 Y65.685 E0.01673
G1 X164.315 Y98.119 E1.43861
M73 P14 R12
G1 X164.315 Y98.653 E0.01673
G1 X131.347 Y65.685 E1.46227
G1 X130.814 Y65.685 E0.01673
G1 X164.315 Y99.186 E1.48592
G1 X164.315 Y99.719 E0.01673
G1 X130.281 Y65.685 E1.50957
M73 P15 R12
G1 X129.747 Y65.685 E0.01673
G1 X164.315 Y100.253 E1.53323
G1 X164.315 Y100.786 E0.01673
G1 X129.214 Y65.685 E1.55688
G1 X128.681 Y65.685 E0.01673
G1 X164.315 Y101.319 E1.58053
G1 X164.315 Y101.852 E0.01673
G1 X128.148 Y65.685 E1.60419
M73 P16 R12
G1 X127.614 Y65.685 E0.01673
G1 X164.315 Y102.386 E1.62784
G1 X164.315 Y102.919 E0.01673
G1 X127.081 Y65.685 E1.65149
G1 X126.548 Y65.685 E0.01673
G1 X164.315 Y103.452 E1.67515
M73 P17 R12
G1 X164.315 Y103.985 E0.01673
G1 X126.015 Y65.685 E1.6988
G1 X125.481 Y65.685 E0.01673
G1 X164.315 Y104.519 E1.72245
G1 X164.315 Y105.052 E0.01673
G1 X124.948 Y65.685 E1.74611
G1 X124.415 Y65.685 E0.01673
G1 X164.315 Y105.585 E1.76976
M73 P18 R12
G1 X164.315 Y106.118 E0.01673
G1 X123.882 Y65.685 E1.79341
G1 X123.348 Y65.685 E0.01673
G1 X164.315 Y106.652 E1.81706
M73 P18 R11
G1 X164.315 Y107.185 E0.01673
G1 X122.815 Y65.685 E1.84072
M73 P19 R11
G1 X122.282 Y65.685 E0.01673
G1 X164.315 Y107.718 E1.86437
G1 X164.315 Y108.252 E0.01673
G1 X121.748 Y65.685 E1.88802
G1 X121.215 Y65.685 E0.01673
G1 X164.315 Y108.785 E1.91168
M73 P20 R11
G1 X164.315 Y109.318 E0.01673
G1 X120.682 Y65.685 E1.93533
G1 X120.149 Y65.685 E0.01673
G1 X164.315 Y109.851 E1.95898
M73 P21 R11
G1 X164.315 Y110.385 E0.01673
G1 X119.615 Y65.685 E1.98264
G1 X119.082 Y65.685 E0.01673
G1 X164.315 Y110.918 E2.00629
G1 X164.315 Y111.451 E0.01673
G1 X118.549 Y65.685 E2.02994
M73 P22 R11
G1 X118.016 Y65.685 E0.01673
G1 X164.315 Y111.984 E2.0536
G1 X164.315 Y112.518 E0.01673
G1 X117.482 Y65.685 E2.07725
G1 X116.949 Y65.685 E0.01673
G1 X164.315 Y113.051 E2.1009
M73 P23 R11
G1 X164.315 Y113.584 E0.01673
G1 X116.416 Y65.685 E2.12456
G1 X115.882 Y65.685 E0.01673
G1 X164.315 Y114.118 E2.14821
G1 X164.315 Y114.651 E0.01673
G1 X115.349 Y65.685 E2.17186
M73 P24 R11
G1 X114.816 Y65.685 E0.01673
G1 X164.315 Y115.184 E2.19551
G1 X164.315 Y115.717 E0.01673
G1 X114.283 Y65.685 E2.21917
M73 P25 R11
G1 X113.749 Y65.685 E0.01673
G1 X164.315 Y116.251 E2.24282
G1 X164.315 Y116.784 E0.01673
G1 X113.216 Y65.685 E2.26647
M73 P25 R10
G1 X112.683 Y65.685 E0.01673
G1 X164.315 Y117.317 E2.29013
M73 P26 R10
G1 X164.315 Y117.85 E0.01673
G1 X112.15 Y65.685 E2.31378
G1 X111.616 Y65.685 E0.01673
G1 X164.315 Y118.384 E2.33743
M73 P27 R10
G1 X164.315 Y118.917 E0.01673
G1 X111.083 Y65.685 E2.36109
G1 X110.55 Y65.685 E0.01673
G1 X164.315 Y119.45 E2.38474
M73 P28 R10
G1 X164.315 Y119.984 E0.01673
G1 X110.016 Y65.685 E2.40839
G1 X109.483 Y65.685 E0.01673
G1 X164.315 Y120.517 E2.43205
G1 X164.315 Y121.05 E0.01673
G1 X108.95 Y65.685 E2.4557
M73 P29 R10
G1 X108.417 Y65.685 E0.01673
G1 X164.315 Y121.583 E2.47935
G1 X164.315 Y122.117 E0.01673
G1 X107.883 Y65.685 E2.50301
M73 P30 R10
G1 X107.35 Y65.685 E0.01673
G1 X164.315 Y122.65 E2.52666
G1 X164.315 Y123.183 E0.01673
G1 X106.817 Y65.685 E2.55031
M73 P31 R10
G1 X106.284 Y65.685 E0.01673
G1 X164.315 Y123.716 E2.57396
G1 X164.315 Y124.25 E0.01673
G1 X105.75 Y65.685 E2.59762
M73 P32 R10
G1 X105.217 Y65.685 E0.01673
G1 X164.315 Y124.783 E2.62127
M73 P32 R9
G1 X164.315 Y125.316 E0.01673
G1 X104.684 Y65.685 E2.64492
M73 P33 R9
G1 X104.151 Y65.685 E0.01673
G1 X164.315 Y125.849 E2.66858
G1 X164.315 Y126.383 E0.01673
G1 X103.617 Y65.685 E2.69223
M73 P34 R9
G1 X103.084 Y65.685 E0.01673
G1 X164.315 Y126.916 E2.71588
G1 X164.315 Y127.449 E0.01673
G1 X102.551 Y65.685 E2.73954
M73 P35 R9
G1 X102.017 Y65.685 E0.01673
G1 X164.315 Y127.983 E2.76319
G1 X164.315 Y128.516 E0.01673
G1 X101.484 Y65.685 E2.78684
M73 P36 R9
G1 X100.951 Y65.685 E0.01673
G1 X164.315 Y129.049 E2.8105
G1 X164.315 Y129.582 E0.01673
G1 X100.418 Y65.685 E2.83415
M73 P37 R9
G1 X99.884 Y65.685 E0.01673
G1 X164.315 Y130.116 E2.8578
G1 X164.315 Y130.649 E0.01673
G1 X99.351 Y65.685 E2.88146
M73 P38 R9
G1 X98.818 Y65.685 E0.01673
G1 X164.315 Y131.182 E2.90511
G1 X164.315 Y131.715 E0.01673
G1 X98.285 Y65.685 E2.92876
M73 P39 R9
G1 X97.751 Y65.685 E0.01673
G1 X164.315 Y132.249 E2.95241
M73 P39 R8
G1 X164.315 Y132.782 E0.01673
G1 X97.218 Y65.685 E2.97607
M73 P40 R8
G1 X96.685 Y65.685 E0.01673
G1 X164.315 Y133.315 E2.99972
G1 X164.315 Y133.849 E0.01673
G1 X96.151 Y65.685 E3.02337
M73 P41 R8
G1 X95.618 Y65.685 E0.01673
G1 X164.315 Y134.382 E3.04703
G1 X164.315 Y134.915 E0.01673
G1 X95.085 Y65.685 E3.07068
M73 P42 R8
G1 X94.552 Y65.685 E0.01673
G1 X164.315 Y135.448 E3.09433
G1 X164.315 Y135.982 E0.01673
G1 X94.018 Y65.685 E3.11799
M73 P43 R8
G1 X93.485 Y65.685 E0.01673
G1 X164.315 Y136.515 E3.14164
M73 P44 R8
G1 X164.315 Y137.048 E0.01673
G1 X92.952 Y65.685 E3.16529
G1 X92.419 Y65.685 E0.01673
G1 X164.315 Y137.581 E3.18895
M73 P45 R8
G1 X164.315 Y138.115 E0.01673
G1 X91.885 Y65.685 E3.2126
G1 X91.352 Y65.685 E0.01673
G1 X164.315 Y138.648 E3.23625
M73 P46 R7
G1 X164.315 Y139.181 E0.01673
G1 X90.819 Y65.685 E3.25991
G1 X90.285 Y65.685 E0.01673
G1 X164.315 Y139.715 E3.28356
M73 P47 R7
G1 X164.315 Y140.248 E0.01673
G1 X89.752 Y65.685 E3.30721
M73 P48 R7
G1 X89.219 Y65.685 E0.01673
G1 X164.315 Y140.781 E3.33087
G1 X164.315 Y141.314 E0.01673
G1 X88.686 Y65.685 E3.35452
M73 P49 R7
G1 X88.152 Y65.685 E0.01673
G1 X164.315 Y141.848 E3.37817
G1 X164.315 Y142.381 E0.01673
G1 X87.619 Y65.685 E3.40182
M73 P50 R7
G1 X87.086 Y65.685 E0.01673
G1 X164.315 Y142.914 E3.42548
M73 P51 R7
G1 X164.315 Y143.447 E0.01673
G1 X86.553 Y65.685 E3.44913
G1 X86.019 Y65.685 E0.01673
G1 X164.315 Y143.981 E3.47278
M73 P52 R7
G1 X164.315 Y144.315 E0.01048
G1 X164.116 Y144.315 E0.00625
M73 P53 R6
G1 X85.685 Y65.884 E3.47877
G1 X85.685 Y66.418 E0.01673
G1 X163.582 Y144.315 E3.45511
G1 X163.049 Y144.315 E0.01673
G1 X85.685 Y66.951 E3.43146
M73 P54 R6
G1 X85.685 Y67.484 E0.01673
G1 X162.516 Y144.315 E3.40781
G1 X161.982 Y144.315 E0.01673
G1 X85.685 Y68.018 E3.38415
M73 P55 R6
G1 X85.685 Y68.551 E0.01673
G1 X161.449 Y144.315 E3.3605
M73 P56 R6
G1 X160.916 Y144.315 E0.01673
G1 X85.685 Y69.084 E3.33685
G1 X85.685 Y69.617 E0.01673
G1 X160.383 Y144.315 E3.31319
M73 P57 R6
G1 X159.849 Y144.315 E0.01673
G1 X85.685 Y70.151 E3.28954
G1 X85.685 Y70.684 E0.01673
G1 X159.316 Y144.315 E3.26589
M73 P58 R6
G1 X158.783 Y144.315 E0.01673
G1 X85.685 Y71.217 E3.24223
M73 P59 R6
G1 X85.685 Y71.75 E0.01673
G1 X158.25 Y144.315 E3.21858
M73 P59 R5
G1 X157.716 Y144.315 E0.01673
G1 X85.685 Y72.284 E3.19493
M73 P60 R5
G1 X85.685 Y72.817 E0.01673
G1 X157.183 Y144.315 E3.17128
G1 X156.65 Y144.315 E0.01673
G1 X85.685 Y73.35 E3.14762
M73 P61 R5
G1 X85.685 Y73.883 E0.01673
G1 X156.117 Y144.315 E3.12397
M73 P62 R5
G1 X155.583 Y144.315 E0.01673
G1 X85.685 Y74.417 E3.10032
G1 X85.685 Y74.95 E0.01673
G1 X155.05 Y144.315 E3.07666
M73 P63 R5
G1 X154.517 Y144.315 E0.01673
G1 X85.685 Y75.483 E3.05301
G1 X85.685 Y76.017 E0.01673
G1 X153.983 Y144.315 E3.02936
M73 P64 R5
G1 X153.45 Y144.315 E0.01673
G1 X85.685 Y76.55 E3.0057
G1 X85.685 Y77.083 E0.01673
G1 X152.917 Y144.315 E2.98205
M73 P65 R5
G1 X152.384 Y144.315 E0.01673
G1 X85.685 Y77.616 E2.9584
G1 X85.685 Y78.15 E0.01673
G1 X151.85 Y144.315 E2.93474
M73 P66 R4
G1 X151.317 Y144.315 E0.01673
G1 X85.685 Y78.683 E2.91109
G1 X85.685 Y79.216 E0.01673
G1 X150.784 Y144.315 E2.88744
M73 P67 R4
G1 X150.251 Y144.315 E0.01673
G1 X85.685 Y79.749 E2.86378
M73 P68 R4
G1 X85.685 Y80.283 E0.01673
G1 X149.717 Y144.315 E2.84013
G1 X149.184 Y144.315 E0.01673
G1 X85.685 Y80.816 E2.81648
M73 P69 R4
G1 X85.685 Y81.349 E0.01673
G1 X148.651 Y144.315 E2.79283
G1 X148.117 Y144.315 E0.01673
G1 X85.685 Y81.883 E2.76917
M73 P70 R4
G1 X85.685 Y82.416 E0.01673
G1 X147.584 Y144.315 E2.74552
G1 X147.051 Y144.315 E0.01673
G1 X85.685 Y82.949 E2.72187
M73 P71 R4
G1 X85.685 Y83.482 E0.01673
G1 X146.518 Y144.315 E2.69821
G1 X145.984 Y144.315 E0.01673
G1 X85.685 Y84.016 E2.67456
M73 P72 R4
G1 X85.685 Y84.549 E0.01673
G1 X145.451 Y144.315 E2.65091
G1 X144.918 Y144.315 E0.01673
G1 X85.685 Y85.082 E2.62725
M73 P73 R3
G1 X85.685 Y85.615 E0.01673
G1 X144.385 Y144.315 E2.6036
G1 X143.851 Y144.315 E0.01673
G1 X85.685 Y86.149 E2.57995
G1 X85.685 Y86.682 E0.01673
G1 X143.318 Y144.315 E2.55629
M73 P74 R3
G1 X142.785 Y144.315 E0.01673
G1 X85.685 Y87.215 E2.53264
G1 X85.685 Y87.749 E0.01673
G1 X142.251 Y144.315 E2.50899
M73 P75 R3
G1 X141.718 Y144.315 E0.01673
G1 X85.685 Y88.282 E2.48533
G1 X85.685 Y88.815 E0.01673
G1 X141.185 Y144.315 E2.46168
M73 P76 R3
G1 X140.652 Y144.315 E0.01673
G1 X85.685 Y89.348 E2.43803
G1 X85.685 Y89.882 E0.01673
G1 X140.118 Y144.315 E2.41438
M73 P77 R3
G1 X139.585 Y144.315 E0.01673
G1 X85.685 Y90.415 E2.39072
G1 X85.685 Y90.948 E0.01673
G1 X139.052 Y144.315 E2.36707
M73 P78 R3
G1 X138.519 Y144.315 E0.01673
G1 X85.685 Y91.481 E2.34342
G1 X85.685 Y92.015 E0.01673
G1 X137.985 Y144.315 E2.31976
G1 X137.452 Y144.315 E0.01673
G1 X85.685 Y92.548 E2.29611
M73 P79 R3
G1 X85.685 Y93.081 E0.01673
G1 X136.919 Y144.315 E2.27246
G1 X136.386 Y144.315 E0.01673
G1 X85.685 Y93.614 E2.2488
M73 P80 R2
G1 X85.685 Y94.148 E0.01673
G1 X135.852 Y144.315 E2.22515
G1 X135.319 Y144.315 E0.01673
G1 X85.685 Y94.681 E2.2015
G1 X85.685 Y95.214 E0.01673
G1 X134.786 Y144.315 E2.17784
M73 P81 R2
