; G-Code generated by Simplify3D(R) Version 4.1.2
; Oct 24, 2020 at 11:43:24 PM
; Settings Summary
;   processName,Process1
;   applyToModels,calib-squares-30x30-2
;   profileName,CariboDuet PLA (modified)
;   profileVersion,2020-10-17 20:48:16
;   baseProfile,Default
;   printMaterial,PLA
;   printQuality,0.2
;   printExtruders,
;   extruderName,Primary Extruder
;   extruderToolheadNumber,0
;   extruderDiameter,0.4
;   extruderAutoWidth,0
;   extruderWidth,0.37
;   extrusionMultiplier,0.95
;   extruderUseRetract,1
;   extruderRetractionDistance,0.4
;   extruderExtraRestartDistance,0
;   extruderRetractionZLift,0.5
;   extruderRetractionSpeed,1500
;   extruderUseCoasting,0
;   extruderCoastingDistance,0.05
;   extruderUseWipe,0
;   extruderWipeDistance,2
;   primaryExtruder,0
;   layerHeight,0.2
;   topSolidLayers,4
;   bottomSolidLayers,4
;   perimeterOutlines,3
;   printPerimetersInsideOut,0
;   startPointOption,3
;   startPointOriginX,0
;   startPointOriginY,300
;   sequentialIslands,0
;   spiralVaseMode,0
;   firstLayerHeightPercentage,100
;   firstLayerWidthPercentage,105
;   firstLayerUnderspeed,0.3
;   useRaft,0
;   raftExtruder,0
;   raftTopLayers,3
;   raftBaseLayers,2
;   raftOffset,8
;   raftSeparationDistance,0.11
;   raftTopInfill,100
;   aboveRaftSpeedMultiplier,0.3
;   useSkirt,1
;   skirtExtruder,0
;   skirtLayers,1
;   skirtOutlines,2
;   skirtOffset,2
;   usePrimePillar,0
;   primePillarExtruder,999
;   primePillarWidth,12
;   primePillarLocation,7
;   primePillarSpeedMultiplier,1
;   useOozeShield,0
;   oozeShieldExtruder,999
;   oozeShieldOffset,2
;   oozeShieldOutlines,1
;   oozeShieldSidewallShape,1
;   oozeShieldSidewallAngle,30
;   oozeShieldSpeedMultiplier,1
;   infillExtruder,0
;   internalInfillPattern,Grid
;   externalInfillPattern,Rectilinear
;   infillPercentage,15
;   outlineOverlapPercentage,25
;   infillExtrusionWidthPercentage,105
;   minInfillLength,1
;   infillLayerInterval,1
;   internalInfillAngles,45,-45
;   overlapInternalInfillAngles,1
;   externalInfillAngles,45,-45
;   generateSupport,0
;   supportExtruder,0
;   supportInfillPercentage,15
;   supportExtraInflation,0.3
;   supportBaseLayers,1
;   denseSupportExtruder,0
;   denseSupportLayers,1
;   denseSupportInfillPercentage,50
;   supportLayerInterval,1
;   supportHorizontalPartOffset,0.25
;   supportUpperSeparationLayers,1
;   supportLowerSeparationLayers,1
;   supportType,0
;   supportGridSpacing,2
;   maxOverhangAngle,45
;   supportAngles,0
;   temperatureName,Primary Extruder,Heated Bed
;   temperatureNumber,0,0
;   temperatureSetpointCount,2,1
;   temperatureSetpointLayers,1,2,1
;   temperatureSetpointTemperatures,210,205,55
;   temperatureStabilizeAtStartup,1,1
;   temperatureHeatedBed,0,1
;   fanLayers,1,2
;   fanSpeeds,0,80
;   blipFanToFullPower,0
;   adjustSpeedForCooling,1
;   minSpeedLayerTime,15
;   minCoolingSpeedSlowdown,20
;   increaseFanForCooling,0
;   minFanLayerTime,45
;   maxCoolingFanSpeed,100
;   increaseFanForBridging,1
;   bridgingFanSpeed,100
;   use5D,1
;   relativeEdistances,1
;   allowEaxisZeroing,1
;   independentExtruderAxes,0
;   includeM10123,0
;   stickySupport,1
;   applyToolheadOffsets,0
;   gcodeXoffset,0
;   gcodeYoffset,0
;   gcodeZoffset,0
;   overrideMachineDefinition,1
;   machineTypeOverride,0
;   strokeXoverride,250
;   strokeYoverride,210
;   strokeZoverride,210
;   originOffsetXoverride,0
;   originOffsetYoverride,0
;   originOffsetZoverride,0
;   homeXdirOverride,-1
;   homeYdirOverride,-1
;   homeZdirOverride,-1
;   flipXoverride,1
;   flipYoverride,-1
;   flipZoverride,1
;   toolheadOffsets,0,0|0,0|0,0|0,0|0,0|0,0
;   overrideFirmwareConfiguration,0
;   firmwareTypeOverride,RepRap (Marlin/Repetier/Sprinter)
;   GPXconfigOverride,r2
;   baudRateOverride,115200
;   overridePrinterModels,0
;   printerModelsOverride
;   startingGcode,G90 ; use absolute coordinates,M83 ; extruder relative mode,,;====== start preheat start script ==============================================================,,G28 W; home all without mesh bed level,G0 X60 Y-3 Z80; move extruder above bed keep extruder in front for cleaning and checking,,M104 S160 T0; pre-heat extruder to 160C ,M140 S[bed0_temperature] ; this will take the layer 1 temperature for bed 0,M190 S[bed0_temperature] ; wait for bed temp,,G29 ; mesh bed leveling ,G0 X0 Y-3 z0,,M104S[extruder0_temperature] ; set extruder temperature,M109 S[extruder0_temperature]  ; wait for extruder temp,,;====== end preheat start script ================================================================,,,; Run macro to print primeline at a 'randomized' Y position from -1.1 to -2.9,M98 P"0:/sys/primeLine.g"                        ; primeline macro,,; Set pressure advance,M572 D0 S0.07                                    ; set pressure advance,
;   layerChangeGcode,G1 [current_Z_position] F10000;
;   retractionGcode,
;   toolChangeGcode,
;   endingGcode,M104 S0 ; turn off temperature,M140 S0 ; turn off heatbed,M107 ; turn off fan,G1 F1000.0 ; set feed rate,G1 E-3 ; retract,G1 X0 Y200 F7200 ; home XY axis,,M84 ; disable motors
;   exportFileFormat,gcode
;   celebration,0
;   celebrationSong,Funky Town
;   postProcessing,{REPLACE "; outer perimeter\n" "; outer perimeter\nM204 S600\n"},{REPLACE "; inner perimeter\n" "; inner perimeter\nM204 S1000\n"},{REPLACE "; solid layer\n" "; solid layer\nM204 S1200\n"},{REPLACE "; infill\n" "; infill\nM204 S1500\n"}
;   defaultSpeed,4800
;   outlineUnderspeed,0.3
;   solidInfillUnderspeed,0.8
;   supportUnderspeed,0.4
;   rapidXYspeed,8400
;   rapidZspeed,1800
;   minBridgingArea,5
;   bridgingExtraInflation,1
;   bridgingExtrusionMultiplier,1
;   bridgingSpeedMultiplier,0.95
;   useFixedBridgingAngle,0
;   fixedBridgingAngle,0
;   applyBridgingToPerimeters,0
;   filamentDiameters,1.75|1.75|1.75|1.75|1.75|1.75
;   filamentPricesPerKg,24|46|46|46|46|46
;   filamentDensities,1.25|1.25|1.25|1.25|1.25|1.25
;   useMinPrintHeight,0
;   minPrintHeight,0
;   useMaxPrintHeight,0
;   maxPrintHeight,0
;   useDiaphragm,0
;   diaphragmLayerInterval,20
;   robustSlicing,1
;   mergeAllIntoSolid,0
;   onlyRetractWhenCrossingOutline,0
;   retractBetweenLayers,0
;   useRetractionMinTravel,1
;   retractionMinTravel,1
;   retractWhileWiping,1
;   onlyWipeOutlines,1
;   avoidCrossingOutline,1
;   maxMovementDetourFactor,3
;   toolChangeRetractionDistance,12
;   toolChangeExtraRestartDistance,-0.5
;   toolChangeRetractionSpeed,600
;   externalThinWallType,1
;   internalThinWallType,1
;   thinWallAllowedOverlapPercentage,25
;   singleExtrusionMinLength,1
;   singleExtrusionMinPrintingWidthPercentage,50
;   singleExtrusionMaxPrintingWidthPercentage,200
;   singleExtrusionEndpointExtension,0.2
;   horizontalSizeCompensation,0
G90
M83
M106 S0
G90 ; use absolute coordinates
M83 ; extruder relative mode
;====== start preheat start script ==============================================================
G28 W; home all without mesh bed level
G0 X60 Y-3 Z80; move extruder above bed keep extruder in front for cleaning and checking
M104 S160 T0; pre-heat extruder to 160C 
M140 S55 ; this will take the layer 1 temperature for bed 0
M190 S55 ; wait for bed temp
G29 ; mesh bed leveling 
G0 X0 Y-3 z0
M104S210 ; set extruder temperature
M109 S210  ; wait for extruder temp
;====== end preheat start script ================================================================
; Run macro to print primeline at a 'randomized' Y position from -1.1 to -2.9
M98 P"0:/sys/primeLine.g"                        ; primeline macro
; Set pressure advance
M572 D0 S0.07                                    ; set pressure advance
; process Process1
; layer 1, Z = 0.200
T0
G1 E-0.4000 F1500
G1 0.200 F10000;
; feature skirt
; tool H0.200 W0.389
G1 Z0.500 F1800
G1 X107.417 Y201.070 F8400
G1 Z0.200 F1800
G1 E0.4000 F1500
G1 X107.417 Y168.930 E0.9863 F1440
G1 X108.930 Y167.417 E0.0657
G1 X122.017 Y167.417 E0.4016
G1 X122.017 Y122.583 E1.3759
G1 X108.930 Y122.583 E0.4016
G1 X107.417 Y121.070 E0.0657
G1 X107.417 Y107.983 E0.4016
G1 X49.412 Y107.983 E1.7801
G1 X49.211 Y108.184 E0.0087
G1 X48.256 Y108.184 E0.0293
G1 X48.256 Y111.091 E0.0892
G1 X46.743 Y112.603 E0.0657
G1 X43.940 Y112.603 E0.0860
G1 X42.583 Y111.246 E0.0589
G1 X42.583 Y121.070 E0.3015
G1 X41.070 Y122.583 E0.0657
G1 X8.930 Y122.583 E0.9863
G1 X7.417 Y121.070 E0.0657
G1 X7.417 Y88.930 E0.9863
G1 X8.930 Y87.417 E0.0657
G1 X41.070 Y87.417 E0.9863
G1 X42.583 Y88.930 E0.0657
G1 X42.583 Y102.017 E0.4016
G1 X107.417 Y102.017 E1.9897
G1 X107.417 Y88.930 E0.4016
G1 X108.930 Y87.417 E0.0657
G1 X122.017 Y87.417 E0.4016
G1 X122.017 Y42.583 E1.3759
G1 X108.930 Y42.583 E0.4016
G1 X107.417 Y41.070 E0.0657
G1 X107.417 Y8.930 E0.9863
G1 X108.930 Y7.417 E0.0657
G1 X141.070 Y7.417 E0.9863
G1 X142.583 Y8.930 E0.0657
G1 X142.583 Y41.070 E0.9863
G1 X141.070 Y42.583 E0.0657
G1 X127.983 Y42.583 E0.4016
G1 X127.983 Y87.417 E1.3759
G1 X141.070 Y87.417 E0.4016
G1 X142.583 Y88.930 E0.0657
G1 X142.583 Y102.017 E0.4016
G1 X207.417 Y102.017 E1.9897
G1 X207.417 Y88.930 E0.4016
G1 X208.930 Y87.417 E0.0657
G1 X241.070 Y87.417 E0.9863
G1 X242.583 Y88.930 E0.0657
G1 X242.583 Y121.070 E0.9863
G1 X241.070 Y122.583 E0.0657
G1 X208.930 Y122.583 E0.9863
G1 X207.417 Y121.070 E0.0657
G1 X207.417 Y107.983 E0.4016
G1 X142.583 Y107.983 E1.9897
G1 X142.583 Y121.070 E0.4016
G1 X141.070 Y122.583 E0.0657
G1 X127.983 Y122.583 E0.4016
G1 X127.983 Y167.417 E1.3759
G1 X141.070 Y167.417 E0.4016
G1 X142.583 Y168.930 E0.0657
G1 X142.583 Y201.070 E0.9863
G1 X141.070 Y202.583 E0.0657
G1 X108.930 Y202.583 E0.9863
G1 X107.417 Y201.070 E0.0657
G1 X107.806 Y200.909 F8400
G1 X107.806 Y169.091 E0.9764 F1440
G1 X109.091 Y167.806 E0.0558
G1 X122.406 Y167.806 E0.4086
G1 X122.406 Y122.194 E1.3998
G1 X109.091 Y122.194 E0.4086
G1 X107.806 Y120.909 E0.0558
G1 X107.806 Y107.594 E0.4086
G1 X49.251 Y107.594 E1.7970
G1 X49.050 Y107.796 E0.0087
G1 X47.867 Y107.796 E0.0363
G1 X47.867 Y110.930 E0.0962
G1 X46.582 Y112.215 E0.0558
G1 X44.101 Y112.215 E0.0761
G1 X42.816 Y110.930 E0.0558
G1 X42.816 Y107.594 E0.1024
G1 X42.194 Y107.594 E0.0191
G1 X42.194 Y120.909 E0.4086
G1 X40.909 Y122.194 E0.0558
G1 X9.091 Y122.194 E0.9764
G1 X7.806 Y120.909 E0.0558
G1 X7.806 Y89.091 E0.9764
G1 X9.091 Y87.806 E0.0558
G1 X40.909 Y87.806 E0.9764
G1 X42.194 Y89.091 E0.0558
G1 X42.194 Y102.406 E0.4086
G1 X107.806 Y102.406 E2.0135
G1 X107.806 Y89.091 E0.4086
G1 X109.091 Y87.806 E0.0558
G1 X122.406 Y87.806 E0.4086
G1 X122.406 Y42.194 E1.3998
G1 X109.091 Y42.194 E0.4086
G1 X107.806 Y40.909 E0.0558
G1 X107.806 Y9.091 E0.9764
G1 X109.091 Y7.806 E0.0558
G1 X140.909 Y7.806 E0.9764
G1 X142.194 Y9.091 E0.0558
G1 X142.194 Y40.909 E0.9764
G1 X140.909 Y42.194 E0.0558
G1 X127.594 Y42.194 E0.4086
G1 X127.594 Y87.806 E1.3998
G1 X140.909 Y87.806 E0.4086
G1 X142.194 Y89.091 E0.0558
G1 X142.194 Y102.406 E0.4086
G1 X207.806 Y102.406 E2.0135
G1 X207.806 Y89.091 E0.4086
G1 X209.091 Y87.806 E0.0558
G1 X240.909 Y87.806 E0.9764
G1 X242.194 Y89.091 E0.0558
G1 X242.194 Y120.909 E0.9764
G1 X240.909 Y122.194 E0.0558
G1 X209.091 Y122.194 E0.9764
G1 X207.806 Y120.909 E0.0558
G1 X207.806 Y107.594 E0.4086
G1 X142.194 Y107.594 E2.0135
G1 X142.194 Y120.909 E0.4086
G1 X140.909 Y122.194 E0.0558
G1 X127.594 Y122.194 E0.4086
G1 X127.594 Y167.806 E1.3998
G1 X140.909 Y167.806 E0.4086
G1 X142.194 Y169.091 E0.0558
G1 X142.194 Y200.909 E0.9764
G1 X140.909 Y202.194 E0.0558
G1 X109.091 Y202.194 E0.9764
G1 X107.806 Y200.909 E0.0558
G1 E-0.4000 F1500
; feature outer perimeter
G1 Z0.700 F1800
G1 X110.194 Y199.806 F8400
G1 Z0.200 F1800
G1 E0.4000 F1500
G1 X110.194 Y170.194 E0.9087 F432
G1 X124.794 Y170.194 E0.4481
G1 X124.794 Y119.806 E1.5464
G1 X110.194 Y119.806 E0.4481
G1 X110.194 Y105.206 E0.4481
G1 X47.947 Y105.206 E1.9103
G1 X47.947 Y105.407 E0.0062
G1 X45.204 Y105.407 E0.0842
G1 X45.204 Y105.206 E0.0062
G1 X39.806 Y105.206 E0.1657
G1 X39.806 Y119.806 E0.4481
G1 X10.194 Y119.806 E0.9087
G1 X10.194 Y90.194 E0.9087
G1 X39.806 Y90.194 E0.9087
G1 X39.806 Y104.794 E0.4481
G1 X110.194 Y104.794 E2.1601
G1 X110.194 Y90.194 E0.4481
G1 X124.794 Y90.194 E0.4481
G1 X124.794 Y39.806 E1.5464
G1 X110.194 Y39.806 E0.4481
G1 X110.194 Y10.194 E0.9087
G1 X139.806 Y10.194 E0.9087
G1 X139.806 Y39.806 E0.9087
G1 X125.206 Y39.806 E0.4481
G1 X125.206 Y90.194 E1.5464
G1 X139.806 Y90.194 E0.4481
G1 X139.806 Y104.794 E0.4481
G1 X210.194 Y104.794 E2.1601
G1 X210.194 Y90.194 E0.4481
G1 X239.806 Y90.194 E0.9087
G1 X239.806 Y119.806 E0.9087
G1 X210.194 Y119.806 E0.9087
G1 X210.194 Y105.206 E0.4481
G1 X139.806 Y105.206 E2.1601
G1 X139.806 Y119.806 E0.4481
G1 X125.206 Y119.806 E0.4481
G1 X125.206 Y170.194 E1.5464
G1 X139.806 Y170.194 E0.4481
G1 X139.806 Y199.806 E0.9087
G1 X110.194 Y199.806 E0.9087
; feature inner perimeter
G1 X110.583 Y199.417 F8400
G1 X110.583 Y170.583 E0.8849 F936
G1 X139.417 Y170.583 E0.8849
G1 X139.417 Y199.417 E0.8849
G1 X110.583 Y199.417 E0.8849
G1 E-0.4000 F1500
G1 Z0.700 F1800
G1 X110.583 Y170.194 F8400
G1 X124.794 Y170.194
G1 X124.794 Y119.806
G1 X110.583 Y119.806
G1 X110.583 Y119.417
G1 Z0.200 F1800
G1 E0.4000 F1500
G1 X110.583 Y90.583 E0.8849 F936
G1 X139.417 Y90.583 E0.8849
G1 X139.417 Y119.417 E0.8849
G1 X110.583 Y119.417 E0.8849
G1 E-0.4000 F1500
G1 Z0.700 F1800
G1 X110.194 Y119.417 F8400
G1 X110.194 Y105.206
G1 X47.947 Y105.206
G1 X47.947 Y105.407
G1 X45.479 Y105.407
G1 X45.479 Y109.826
G1 X45.204 Y109.826
G1 X45.204 Y105.206
G1 X39.806 Y105.206
G1 X39.806 Y119.417
G1 X39.417 Y119.417
G1 Z0.200 F1800
G1 E0.4000 F1500
G1 X10.583 Y119.417 E0.8849 F936
G1 X10.583 Y90.583 E0.8849
G1 X39.417 Y90.583 E0.8849
G1 X39.417 Y119.417 E0.8849
G1 E-0.4000 F1500
G1 Z0.700 F1800
G1 X39.806 Y118.981 F8400
G1 X39.806 Y105.206
G1 X45.204 Y105.206
G1 X45.204 Y109.826
G1 X45.479 Y109.826
G1 X45.479 Y105.407
G1 X47.947 Y105.407
G1 X47.947 Y105.206
G1 X52.059 Y105.206
G1 X52.425 Y104.794
G1 X110.194 Y104.794
G1 X110.194 Y90.194
G1 X124.794 Y90.194
G1 X124.794 Y39.806
G1 X110.237 Y39.806
G1 X110.583 Y39.417
G1 Z0.200 F1800
G1 E0.4000 F1500
G1 X110.583 Y10.583 E0.8849 F936
G1 X139.417 Y10.583 E0.8849
G1 X139.417 Y39.417 E0.8849
G1 X110.583 Y39.417 E0.8849
G1 E-0.4000 F1500
G1 Z0.700 F1800
G1 X111.342 Y39.806 F8400
G1 X124.794 Y39.806
G1 X124.794 Y46.689
G1 X125.206 Y46.899
G1 X125.206 Y90.194
G1 X139.806 Y90.194
G1 X139.806 Y104.794
G1 X210.194 Y104.794
G1 X210.194 Y90.384
G1 X210.583 Y90.583
G1 Z0.200 F1800
G1 E0.4000 F1500
G1 X239.417 Y90.583 E0.8849 F936
G1 X239.417 Y119.417 E0.8849
G1 X210.583 Y119.417 E0.8849
G1 X210.583 Y90.583 E0.8849
G1 X210.971 Y90.971 F8400
G1 X239.029 Y90.971 E0.8610 F936
G1 X239.029 Y119.029 E0.8610
G1 X210.971 Y119.029 E0.8610
G1 X210.971 Y90.971 E0.8610
G1 E-0.4000 F1500
G1 Z0.700 F1800
G1 X210.194 Y90.971 F8400
G1 X210.194 Y104.794
G1 X139.806 Y104.794
G1 X139.806 Y90.971
G1 X139.029 Y90.971
G1 Z0.200 F1800
G1 E0.4000 F1500
G1 X139.029 Y119.029 E0.8610 F936
G1 X110.971 Y119.029 E0.8610
G1 X110.971 Y90.971 E0.8610
G1 X139.029 Y90.971 E0.8610
G1 E-0.4000 F1500
G1 Z0.700 F1800
G1 X139.029 Y90.194 F8400
G1 X125.206 Y90.194
G1 X125.206 Y39.806
G1 X139.029 Y39.806
G1 X139.029 Y39.029
G1 Z0.200 F1800
G1 E0.4000 F1500
G1 X110.971 Y39.029 E0.8610 F936
G1 X110.971 Y10.971 E0.8610
G1 X139.029 Y10.971 E0.8610
G1 X139.029 Y39.029 E0.8610
G1 E-0.4000 F1500
G1 Z0.700 F1800
G1 X137.533 Y39.806 F8400
G1 X125.206 Y39.806
G1 X125.206 Y46.209
G1 X124.794 Y46.423
G1 X124.794 Y90.194
G1 X110.194 Y90.194
G1 X110.194 Y104.794
G1 X39.806 Y104.794
G1 X39.806 Y90.568
G1 X39.029 Y90.971
G1 Z0.200 F1800
G1 E0.4000 F1500
G1 X39.029 Y119.029 E0.8610 F936
G1 X10.971 Y119.029 E0.8610
G1 X10.971 Y90.971 E0.8610
G1 X39.029 Y90.971 E0.8610
G1 E-0.4000 F1500
G1 Z0.700 F1800
G1 X39.806 Y91.835 F8400
G1 X39.806 Y104.794
G1 X51.460 Y104.794
G1 X51.830 Y105.206
G1 X110.194 Y105.206
G1 X110.194 Y119.806
G1 X124.794 Y119.806
G1 X124.794 Y170.194
G1 X110.273 Y170.194
G1 X110.971 Y170.971
G1 Z0.200 F1800
G1 E0.4000 F1500
G1 X139.029 Y170.971 E0.8610 F936
G1 X139.029 Y199.029 E0.8610
G1 X110.971 Y199.029 E0.8610
G1 X110.971 Y170.971 E0.8610
G1 E-0.4000 F1500
; feature external single extrusion
