; G-Code generated by Simplify3D(R) Version 4.1.2
; Feb 22, 2020 at 1:52:19 PM
; Settings Summary
;   processName,Process1
;   applyToModels,Hollow_Pyramid
;   profileName,Zaribo MK3 Quality (PLA)
;   profileVersion,2020-02-12 10:05:18
;   baseProfile,Default
;   printMaterial,PLA
;   printQuality,0.2
;   printExtruders,
;   extruderName,Primary Extruder
;   extruderToolheadNumber,0
;   extruderDiameter,0.4
;   extruderAutoWidth,0
;   extruderWidth,0.37
;   extrusionMultiplier,0.95
;   extruderUseRetract,1
;   extruderRetractionDistance,0.5
;   extruderExtraRestartDistance,0
;   extruderRetractionZLift,0.5
;   extruderRetractionSpeed,1200
;   extruderUseCoasting,0
;   extruderCoastingDistance,0.05
;   extruderUseWipe,0
;   extruderWipeDistance,2
;   primaryExtruder,0
;   layerHeight,0.2
;   topSolidLayers,4
;   bottomSolidLayers,4
;   perimeterOutlines,4
;   printPerimetersInsideOut,1
;   startPointOption,3
;   startPointOriginX,0
;   startPointOriginY,300
;   sequentialIslands,0
;   spiralVaseMode,0
;   firstLayerHeightPercentage,100
;   firstLayerWidthPercentage,105
;   firstLayerUnderspeed,0.3
;   useRaft,0
;   raftExtruder,0
;   raftTopLayers,3
;   raftBaseLayers,2
;   raftOffset,8
;   raftSeparationDistance,0.11
;   raftTopInfill,100
;   aboveRaftSpeedMultiplier,0.3
;   useSkirt,0
;   skirtExtruder,0
;   skirtLayers,1
;   skirtOutlines,20
;   skirtOffset,0
;   usePrimePillar,0
;   primePillarExtruder,999
;   primePillarWidth,12
;   primePillarLocation,7
;   primePillarSpeedMultiplier,1
;   useOozeShield,0
;   oozeShieldExtruder,999
;   oozeShieldOffset,2
;   oozeShieldOutlines,1
;   oozeShieldSidewallShape,1
;   oozeShieldSidewallAngle,30
;   oozeShieldSpeedMultiplier,1
;   infillExtruder,0
;   internalInfillPattern,Fast Honeycomb
;   externalInfillPattern,Rectilinear
;   infillPercentage,20
;   outlineOverlapPercentage,30
;   infillExtrusionWidthPercentage,105
;   minInfillLength,1
;   infillLayerInterval,1
;   internalInfillAngles,0
;   overlapInternalInfillAngles,0
;   externalInfillAngles,45,-45
;   generateSupport,0
;   supportExtruder,0
;   supportInfillPercentage,15
;   supportExtraInflation,0.3
;   supportBaseLayers,1
;   denseSupportExtruder,0
;   denseSupportLayers,1
;   denseSupportInfillPercentage,50
;   supportLayerInterval,1
;   supportHorizontalPartOffset,0.25
;   supportUpperSeparationLayers,1
;   supportLowerSeparationLayers,1
;   supportType,0
;   supportGridSpacing,2
;   maxOverhangAngle,45
;   supportAngles,0
;   temperatureName,Primary Extruder,Heated Bed
;   temperatureNumber,0,0
;   temperatureSetpointCount,2,1
;   temperatureSetpointLayers,1,2,1
;   temperatureSetpointTemperatures,215,210,55
;   temperatureStabilizeAtStartup,1,1
;   temperatureHeatedBed,0,1
;   fanLayers,1,2
;   fanSpeeds,0,50
;   blipFanToFullPower,0
;   adjustSpeedForCooling,1
;   minSpeedLayerTime,15
;   minCoolingSpeedSlowdown,20
;   increaseFanForCooling,0
;   minFanLayerTime,45
;   maxCoolingFanSpeed,100
;   increaseFanForBridging,0
;   bridgingFanSpeed,100
;   use5D,1
;   relativeEdistances,1
;   allowEaxisZeroing,1
;   independentExtruderAxes,0
;   includeM10123,0
;   stickySupport,1
;   applyToolheadOffsets,0
;   gcodeXoffset,0
;   gcodeYoffset,0
;   gcodeZoffset,0
;   overrideMachineDefinition,1
;   machineTypeOverride,0
;   strokeXoverride,250
;   strokeYoverride,210
;   strokeZoverride,210
;   originOffsetXoverride,0
;   originOffsetYoverride,0
;   originOffsetZoverride,0
;   homeXdirOverride,-1
;   homeYdirOverride,-1
;   homeZdirOverride,-1
;   flipXoverride,1
;   flipYoverride,-1
;   flipZoverride,1
;   toolheadOffsets,0,0|0,0|0,0|0,0|0,0|0,0
;   overrideFirmwareConfiguration,0
;   firmwareTypeOverride,RepRap (Marlin/Repetier/Sprinter)
;   GPXconfigOverride,r2
;   baudRateOverride,115200
;   overridePrinterModels,0
;   printerModelsOverride
;   layerChangeGcode,G1 [current_Z_position] F10000;
;   retractionGcode,
;   toolChangeGcode,
;   endingGcode,M104 S0 ; turn off temperature,M140 S0 ; turn off heatbed,M107 ; turn off fan,G1 F1000.0 ; set feed rate,G1 E-3 ; retract,G1 X0 Y200 F7200 ; home XY axis,,M84 ; disable motors
;   exportFileFormat,gcode
;   celebration,0
;   celebrationSong,Funky Town
;   postProcessing,{REPLACE "; outer perimeter\n" "; outer perimeter\nM204 S600\n"},{REPLACE "; inner perimeter\n" "; inner perimeter\nM204 S1000\n"},{REPLACE "; solid layer\n" "; solid layer\nM204 S1200\n"},{REPLACE "; infill\n" "; infill\nM204 S1500\n"}
;   defaultSpeed,4800
;   outlineUnderspeed,0.4
;   solidInfillUnderspeed,0.8
;   supportUnderspeed,0.4
;   rapidXYspeed,8400
;   rapidZspeed,3600
;   minBridgingArea,5
;   bridgingExtraInflation,1
;   bridgingExtrusionMultiplier,1
;   bridgingSpeedMultiplier,0.95
;   useFixedBridgingAngle,0
;   fixedBridgingAngle,0
;   applyBridgingToPerimeters,0
;   filamentDiameters,1.75|1.75|1.75|1.75|1.75|1.75
;   filamentPricesPerKg,24|46|46|46|46|46
;   filamentDensities,1.25|1.25|1.25|1.25|1.25|1.25
;   useMinPrintHeight,0
;   minPrintHeight,0
;   useMaxPrintHeight,0
;   maxPrintHeight,0
;   useDiaphragm,0
;   diaphragmLayerInterval,20
;   robustSlicing,1
;   mergeAllIntoSolid,0
;   onlyRetractWhenCrossingOutline,0
;   retractBetweenLayers,0
;   useRetractionMinTravel,1
;   retractionMinTravel,1
;   retractWhileWiping,1
;   onlyWipeOutlines,1
;   avoidCrossingOutline,1
;   maxMovementDetourFactor,3
;   toolChangeRetractionDistance,12
;   toolChangeExtraRestartDistance,-0.5
;   toolChangeRetractionSpeed,600
;   externalThinWallType,1
;   internalThinWallType,1
;   thinWallAllowedOverlapPercentage,25
;   singleExtrusionMinLength,1
;   singleExtrusionMinPrintingWidthPercentage,50
;   singleExtrusionMaxPrintingWidthPercentage,200
;   singleExtrusionEndpointExtension,0.2
;   horizontalSizeCompensation,0
G90
M83
M106 S0
G90 ; use absolute coordinates
M83 ; extruder relative mode
;====== start preheat start script ==============================================================
G28 W; home all without mesh bed level
G0 X60 Y-3 Z80; move extruder above bed keep extruder in front for cleaning and checking
M104 S160 T0; pre-heat extruder to 160C 
M140 S55 ; this will take the layer 1 temperature for bed 0
M190 S55 ; wait for bed temp
G29 ; mesh bed leveling  
G0 X0 Y-3 z0 
M104S215 ; set extruder temperature
M109 S215  ; wait for extruder temp
;====== end preheat start script ================================================================
M205 X8 ; jerk x standard 15
M205 Y8 ; jerk y standard 15
M205 E0.33 ; jerk e axis
M201 E180 ; e axis acceleration
G1 Y-3.0 F1000.0 ; go outside print area
G92 E0.0
G1 E8 ; Purge Bubble
G1 X60.0 E7.0  F1000.0 ; intro line
G1 X100.0 E8  F1000.0 ; intro line
G92 E0.0
; process Process1
; layer 1, Z = 0.200
T0
G1 E-0.5000 F1200
G1 0.200 F10000;
; feature inner perimeter
; tool H0.200 W0.389
G1 Z0.500 F3600
G1 X107.367 Y122.633 F8400
G1 Z0.200 F3600
G1 E0.5000 F1200
G1 X107.367 Y87.367 E1.0822 F1008
G1 X142.632 Y87.367 E1.0822
G1 X142.632 Y122.633 E1.0822
G1 X107.367 Y122.633 E1.0822
G1 X106.979 Y123.021 F8400
G1 X106.979 Y86.979 E1.1061 F1008
G1 X143.021 Y86.979 E1.1061
G1 X143.021 Y123.021 E1.1061
G1 X106.979 Y123.021 E1.1061
G1 X106.590 Y123.410 F8400
G1 X106.590 Y86.590 E1.1299 F1008
G1 X143.410 Y86.590 E1.1299
G1 X143.410 Y123.410 E1.1299
G1 X106.590 Y123.410 E1.1299
; feature outer perimeter
G1 X106.202 Y123.798 F8400
G1 X106.202 Y86.202 E1.1538 F576
G1 X143.798 Y86.202 E1.1538
G1 X143.798 Y123.798 E1.1538
G1 X106.202 Y123.798 E1.1538
G1 E-0.5000 F1200
; feature solid layer
G1 Z0.700 F3600
G1 X107.747 Y122.361 F8400
G1 Z0.200 F3600
G1 E0.5000 F1200
G1 X107.639 Y122.253 E0.0047 F1152
G1 X107.639 Y121.704 E0.0169
G1 X108.296 Y122.361 E0.0285
G1 X108.846 Y122.361 E0.0169
G1 X107.639 Y121.154 E0.0524
G1 X107.639 Y120.605 E0.0169
G1 X109.395 Y122.361 E0.0762
G1 X109.945 Y122.361 E0.0169
G1 X107.639 Y120.055 E0.1000
G1 X107.639 Y119.506 E0.0169
G1 X110.494 Y122.361 E0.1239
G1 X111.044 Y122.361 E0.0169
G1 X107.639 Y118.956 E0.1477
G1 X107.639 Y118.407 E0.0169
G1 X111.593 Y122.361 E0.1716
G1 X112.142 Y122.361 E0.0169
G1 X107.639 Y117.858 E0.1954
G1 X107.639 Y117.308 E0.0169
G1 X112.692 Y122.361 E0.2193
G1 X113.241 Y122.361 E0.0169
G1 X107.639 Y116.759 E0.2431
G1 X107.639 Y116.209 E0.0169
G1 X113.791 Y122.361 E0.2670
G1 X114.340 Y122.361 E0.0169
G1 X107.639 Y115.660 E0.2908
G1 X107.639 Y115.111 E0.0169
G1 X114.889 Y122.361 E0.3147
G1 X115.439 Y122.361 E0.0169
G1 X107.639 Y114.561 E0.3385
G1 X107.639 Y114.012 E0.0169
G1 X115.988 Y122.361 E0.3623
G1 X116.538 Y122.361 E0.0169
G1 X107.639 Y113.462 E0.3862
G1 X107.639 Y112.913 E0.0169
G1 X117.087 Y122.361 E0.4100
G1 X117.637 Y122.361 E0.0169
G1 X107.639 Y112.363 E0.4339
G1 X107.639 Y111.814 E0.0169
G1 X118.186 Y122.361 E0.4577
G1 X118.735 Y122.361 E0.0169
G1 X107.639 Y111.265 E0.4816
G1 X107.639 Y110.715 E0.0169
G1 X119.285 Y122.361 E0.5054
G1 X119.834 Y122.361 E0.0169
G1 X107.639 Y110.166 E0.5293
G1 X107.639 Y109.616 E0.0169
G1 X120.384 Y122.361 E0.5531
G1 X120.933 Y122.361 E0.0169
G1 X107.639 Y109.067 E0.5770
G1 X107.639 Y108.517 E0.0169
G1 X121.483 Y122.361 E0.6008
G1 X122.032 Y122.361 E0.0169
G1 X107.639 Y107.968 E0.6246
G1 X107.639 Y107.419 E0.0169
G1 X122.581 Y122.361 E0.6485
G1 X123.131 Y122.361 E0.0169
G1 X107.639 Y106.869 E0.6723
G1 X107.639 Y106.320 E0.0169
G1 X123.680 Y122.361 E0.6962
G1 X124.230 Y122.361 E0.0169
G1 X107.639 Y105.770 E0.7200
G1 X107.639 Y105.221 E0.0169
G1 X124.779 Y122.361 E0.7439
G1 X125.328 Y122.361 E0.0169
G1 X107.639 Y104.671 E0.7677
G1 X107.639 Y104.122 E0.0169
G1 X125.878 Y122.361 E0.7916
G1 X126.427 Y122.361 E0.0169
G1 X107.639 Y103.573 E0.8154
G1 X107.639 Y103.023 E0.0169
G1 X126.977 Y122.361 E0.8392
G1 X127.526 Y122.361 E0.0169
G1 X107.639 Y102.474 E0.8631
G1 X107.639 Y101.924 E0.0169
G1 X128.076 Y122.361 E0.8869
G1 X128.625 Y122.361 E0.0169
G1 X107.639 Y101.375 E0.9108
G1 X107.639 Y100.826 E0.0169
G1 X129.174 Y122.361 E0.9346
G1 X129.724 Y122.361 E0.0169
G1 X107.639 Y100.276 E0.9585
G1 X107.639 Y99.727 E0.0169
G1 X130.273 Y122.361 E0.9823
G1 X130.823 Y122.361 E0.0169
G1 X107.639 Y99.177 E1.0062
G1 X107.639 Y98.628 E0.0169
G1 X131.372 Y122.361 E1.0300
G1 X131.922 Y122.361 E0.0169
G1 X107.639 Y98.078 E1.0539
G1 X107.639 Y97.529 E0.0169
G1 X132.471 Y122.361 E1.0777
G1 X133.020 Y122.361 E0.0169
G1 X107.639 Y96.980 E1.1015
G1 X107.639 Y96.430 E0.0169
G1 X133.570 Y122.361 E1.1254
G1 X134.119 Y122.361 E0.0169
G1 X107.639 Y95.881 E1.1492
G1 X107.639 Y95.331 E0.0169
G1 X134.669 Y122.361 E1.1731
G1 X135.218 Y122.361 E0.0169
G1 X107.639 Y94.782 E1.1969
G1 X107.639 Y94.232 E0.0169
G1 X135.768 Y122.361 E1.2208
G1 X136.317 Y122.361 E0.0169
G1 X107.639 Y93.683 E1.2446
G1 X107.639 Y93.134 E0.0169
G1 X136.866 Y122.361 E1.2685
G1 X137.416 Y122.361 E0.0169
G1 X107.639 Y92.584 E1.2923
G1 X107.639 Y92.035 E0.0169
G1 X137.965 Y122.361 E1.3162
G1 X138.515 Y122.361 E0.0169
G1 X107.639 Y91.485 E1.3400
G1 X107.639 Y90.936 E0.0169
G1 X139.064 Y122.361 E1.3638
G1 X139.613 Y122.361 E0.0169
G1 X107.639 Y90.387 E1.3877
G1 X107.639 Y89.837 E0.0169
G1 X140.163 Y122.361 E1.4115
G1 X140.712 Y122.361 E0.0169
G1 X107.639 Y89.288 E1.4354
G1 X107.639 Y88.738 E0.0169
G1 X141.262 Y122.361 E1.4592
G1 X141.811 Y122.361 E0.0169
G1 X107.639 Y88.189 E1.4831
G1 X107.639 Y87.639 E0.0169
G1 X142.361 Y122.361 E1.5069
G1 X142.361 Y121.811 E0.0169
G1 X108.189 Y87.639 E1.4831
G1 X108.738 Y87.639 E0.0169
G1 X142.361 Y121.262 E1.4592
G1 X142.361 Y120.712 E0.0169
G1 X109.288 Y87.639 E1.4354
G1 X109.837 Y87.639 E0.0169
G1 X142.361 Y120.163 E1.4115
G1 X142.361 Y119.613 E0.0169
G1 X110.387 Y87.639 E1.3877
G1 X110.936 Y87.639 E0.0169
G1 X142.361 Y119.064 E1.3638
G1 X142.361 Y118.515 E0.0169
G1 X111.485 Y87.639 E1.3400
G1 X112.035 Y87.639 E0.0169
G1 X142.361 Y117.965 E1.3161
G1 X142.361 Y117.416 E0.0169
G1 X112.584 Y87.639 E1.2923
G1 X113.134 Y87.639 E0.0169
G1 X142.361 Y116.866 E1.2685
G1 X142.361 Y116.317 E0.0169
G1 X113.683 Y87.639 E1.2446
G1 X114.233 Y87.639 E0.0169
G1 X142.361 Y115.767 E1.2208
G1 X142.361 Y115.218 E0.0169
G1 X114.782 Y87.639 E1.1969
G1 X115.331 Y87.639 E0.0169
G1 X142.361 Y114.669 E1.1731
G1 X142.361 Y114.119 E0.0169
G1 X115.881 Y87.639 E1.1492
G1 X116.430 Y87.639 E0.0169
G1 X142.361 Y113.570 E1.1254
G1 X142.361 Y113.020 E0.0169
G1 X116.980 Y87.639 E1.1015
G1 X117.529 Y87.639 E0.0169
G1 X142.361 Y112.471 E1.0777
G1 X142.361 Y111.922 E0.0169
G1 X118.078 Y87.639 E1.0539
G1 X118.628 Y87.639 E0.0169
G1 X142.361 Y111.372 E1.0300
G1 X142.361 Y110.823 E0.0169
G1 X119.177 Y87.639 E1.0062
G1 X119.727 Y87.639 E0.0169
G1 X142.361 Y110.273 E0.9823
G1 X142.361 Y109.724 E0.0169
G1 X120.276 Y87.639 E0.9585
G1 X120.826 Y87.639 E0.0169
G1 X142.361 Y109.174 E0.9346
G1 X142.361 Y108.625 E0.0169
G1 X121.375 Y87.639 E0.9108
G1 X121.924 Y87.639 E0.0169
G1 X142.361 Y108.076 E0.8869
G1 X142.361 Y107.526 E0.0169
G1 X122.474 Y87.639 E0.8631
G1 X123.023 Y87.639 E0.0169
G1 X142.361 Y106.977 E0.8392
G1 X142.361 Y106.427 E0.0169
G1 X123.573 Y87.639 E0.8154
G1 X124.122 Y87.639 E0.0169
G1 X142.361 Y105.878 E0.7916
G1 X142.361 Y105.328 E0.0169
G1 X124.672 Y87.639 E0.7677
G1 X125.221 Y87.639 E0.0169
G1 X142.361 Y104.779 E0.7439
G1 X142.361 Y104.230 E0.0169
G1 X125.770 Y87.639 E0.7200
G1 X126.320 Y87.639 E0.0169
G1 X142.361 Y103.680 E0.6962
G1 X142.361 Y103.131 E0.0169
G1 X126.869 Y87.639 E0.6723
G1 X127.419 Y87.639 E0.0169
G1 X142.361 Y102.581 E0.6485
G1 X142.361 Y102.032 E0.0169
G1 X127.968 Y87.639 E0.6246
G1 X128.517 Y87.639 E0.0169
G1 X142.361 Y101.483 E0.6008
G1 X142.361 Y100.933 E0.0169
G1 X129.067 Y87.639 E0.5769
G1 X129.616 Y87.639 E0.0169
G1 X142.361 Y100.384 E0.5531
G1 X142.361 Y99.834 E0.0169
G1 X130.166 Y87.639 E0.5293
G1 X130.715 Y87.639 E0.0169
G1 X142.361 Y99.285 E0.5054
G1 X142.361 Y98.735 E0.0169
G1 X131.265 Y87.639 E0.4816
G1 X131.814 Y87.639 E0.0169
G1 X142.361 Y98.186 E0.4577
G1 X142.361 Y97.637 E0.0169
G1 X132.363 Y87.639 E0.4339
G1 X132.913 Y87.639 E0.0169
G1 X142.361 Y97.087 E0.4100
G1 X142.361 Y96.538 E0.0169
G1 X133.462 Y87.639 E0.3862
G1 X134.012 Y87.639 E0.0169
G1 X142.361 Y95.988 E0.3623
G1 X142.361 Y95.439 E0.0169
G1 X134.561 Y87.639 E0.3385
G1 X135.111 Y87.639 E0.0169
G1 X142.361 Y94.889 E0.3147
G1 X142.361 Y94.340 E0.0169
G1 X135.660 Y87.639 E0.2908
G1 X136.209 Y87.639 E0.0169
G1 X142.361 Y93.791 E0.2670
G1 X142.361 Y93.241 E0.0169
G1 X136.759 Y87.639 E0.2431
G1 X137.308 Y87.639 E0.0169
G1 X142.361 Y92.692 E0.2193
G1 X142.361 Y92.142 E0.0169
G1 X137.858 Y87.639 E0.1954
G1 X138.407 Y87.639 E0.0169
G1 X142.361 Y91.593 E0.1716
G1 X142.361 Y91.043 E0.0169
G1 X138.956 Y87.639 E0.1477
G1 X139.506 Y87.639 E0.0169
G1 X142.361 Y90.494 E0.1239
G1 X142.361 Y89.945 E0.0169
G1 X140.055 Y87.639 E0.1000
G1 X140.605 Y87.639 E0.0169
G1 X142.361 Y89.395 E0.0762
G1 X142.361 Y88.846 E0.0169
G1 X141.154 Y87.639 E0.0524
G1 X141.704 Y87.639 E0.0169
G1 X142.361 Y88.296 E0.0285
G1 X142.361 Y87.747 E0.0169
G1 X142.253 Y87.639 E0.0047
G1 E-0.5000 F1200
; layer 2, Z = 0.400
G1 0.400 F10000;
M106 S128
M104 S210 T0
; feature inner perimeter
; tool H0.200 W0.370
G1 Z0.700 F3600
G1 X107.418 Y122.582 F8400
G1 Z0.400 F3600
G1 E0.5000 F1200
G1 X107.418 Y87.418 E1.0277 F3360
G1 X142.582 Y87.418 E1.0277
G1 X142.582 Y122.582 E1.0277
G1 X107.418 Y122.582 E1.0277
G1 X107.048 Y122.952 F8400
G1 X107.048 Y87.048 E1.0494 F3360
G1 X142.952 Y87.048 E1.0494
G1 X142.952 Y122.952 E1.0494
G1 X107.048 Y122.952 E1.0494
G1 X106.678 Y123.322 F8400
G1 X106.678 Y86.678 E1.0710 F3360
G1 X143.322 Y86.678 E1.0710
G1 X143.322 Y123.322 E1.0710
G1 X106.678 Y123.322 E1.0710
; feature outer perimeter
G1 X106.308 Y123.692 F8400
G1 X106.308 Y86.308 E1.0926 F1920
G1 X143.692 Y86.308 E1.0926
G1 X143.692 Y123.692 E1.0926
G1 X106.308 Y123.692 E1.0926
G1 E-0.5000 F1200
; feature solid layer
G1 Z0.900 F3600
G1 X107.677 Y87.788 F8400
G1 Z0.400 F3600
G1 E0.5000 F1200
G1 X107.788 Y87.677 E0.0046 F3840
G1 X108.311 Y87.677 E0.0153
G1 X107.677 Y88.311 E0.0262
G1 X107.677 Y88.834 E0.0153
G1 X108.834 Y87.677 E0.0478
G1 X109.358 Y87.677 E0.0153
G1 X107.677 Y89.358 E0.0695
G1 X107.677 Y89.881 E0.0153
G1 X109.881 Y87.677 E0.0911
G1 X110.404 Y87.677 E0.0153
